/* XPM */
static const char* FourChessViewer_xpm[] = {
"512 512 5135 2",
"  	c None",
". 	c #120500",
"+ 	c #1D0800",
"@ 	c #200800",
"# 	c #0F0400",
"$ 	c #1B0700",
"% 	c #441200",
"& 	c #431401",
"* 	c #270C00",
"= 	c #0E0400",
"- 	c #190700",
"; 	c #5A1901",
"> 	c #8B2801",
", 	c #952A00",
"' 	c #812400",
") 	c #130500",
"! 	c #1C0800",
"~ 	c #822500",
"{ 	c #952A01",
"] 	c #962A01",
"^ 	c #842601",
"/ 	c #441301",
"( 	c #100500",
"_ 	c #150600",
": 	c #5D1C01",
"< 	c #972C02",
"[ 	c #972B02",
"} 	c #962B01",
"| 	c #370F00",
"1 	c #310E00",
"2 	c #962B02",
"3 	c #882702",
"4 	c #3A1201",
"5 	c #160600",
"6 	c #411301",
"7 	c #892802",
"8 	c #671D00",
"9 	c #5D1A00",
"0 	c #982C02",
"a 	c #6B2001",
"b 	c #170600",
"c 	c #150601",
"d 	c #6B2002",
"e 	c #992D03",
"f 	c #982D03",
"g 	c #8D2801",
"h 	c #210900",
"i 	c #822501",
"j 	c #992E03",
"k 	c #8D2A03",
"l 	c #391101",
"m 	c #310F01",
"n 	c #882903",
"o 	c #3A1000",
"p 	c #340F00",
"q 	c #982D02",
"r 	c #9A2E04",
"s 	c #5C1C02",
"t 	c #1A0801",
"u 	c #511802",
"v 	c #9B2F05",
"w 	c #9B2F04",
"x 	c #9A2F04",
"y 	c #6B1F01",
"z 	c #1A0800",
"A 	c #2B0D00",
"B 	c #611C01",
"C 	c #992E04",
"D 	c #792504",
"E 	c #1B0801",
"F 	c #682003",
"G 	c #9A2E03",
"H 	c #912A01",
"I 	c #1E0800",
"J 	c #872701",
"K 	c #972B01",
"L 	c #9B3005",
"M 	c #8A2A04",
"N 	c #2D0E01",
"O 	c #120600",
"P 	c #762505",
"Q 	c #9D3106",
"R 	c #9C3005",
"S 	c #451401",
"T 	c #3E1200",
"U 	c #993006",
"V 	c #3D1302",
"W 	c #180701",
"X 	c #802805",
"Y 	c #752202",
"Z 	c #170700",
"` 	c #240A00",
" .	c #4B1803",
"..	c #210B01",
"+.	c #872B06",
"@.	c #9E3207",
"#.	c #9E3206",
"$.	c #952B02",
"%.	c #9F3207",
"&.	c #551B04",
"*.	c #280D02",
"=.	c #8B2C06",
"-.	c #9D3105",
";.	c #561901",
">.	c #501701",
",.	c #581C04",
"'.	c #190802",
").	c #290D02",
"!.	c #8C2D07",
"~.	c #A03308",
"{.	c #9F3307",
"].	c #862802",
"^.	c #210A00",
"/.	c #7D2502",
"(.	c #A03408",
"_.	c #561C04",
":.	c #220B01",
"<.	c #892C07",
"[.	c #3B1101",
"}.	c #361001",
"|.	c #9E3106",
"1.	c #4C1904",
"2.	c #1A0901",
"3.	c #832B07",
"4.	c #A13509",
"5.	c #A13408",
"6.	c #9F3308",
"7.	c #712102",
"8.	c #1D0900",
"9.	c #280C00",
"0.	c #681F02",
"a.	c #A23509",
"b.	c #381202",
"c.	c #1C0901",
"d.	c #7A2807",
"e.	c #A13508",
"f.	c #250A00",
"g.	c #1F0A01",
"h.	c #942C03",
"i.	c #A03307",
"j.	c #9E3409",
"k.	c #270C02",
"l.	c #210C03",
"m.	c #6D2407",
"n.	c #A3360A",
"o.	c #9C3106",
"p.	c #5F1C02",
"q.	c #571A02",
"r.	c #A33609",
"s.	c #913009",
"t.	c #170701",
"u.	c #5C1F06",
"v.	c #A23609",
"w.	c #9C3105",
"x.	c #180700",
"y.	c #1E0900",
"z.	c #862703",
"A.	c #7F2A08",
"B.	c #110501",
"C.	c #3C1403",
"D.	c #A4380B",
"E.	c #A4370A",
"F.	c #4E1702",
"G.	c #461501",
"H.	c #A4370B",
"I.	c #612007",
"J.	c #1A0902",
"K.	c #933109",
"L.	c #812703",
"M.	c #1B0900",
"N.	c #200900",
"O.	c #7A2402",
"P.	c #A3370A",
"Q.	c #A5380B",
"R.	c #391304",
"S.	c #762909",
"T.	c #3F1301",
"U.	c #381001",
"V.	c #A6390C",
"W.	c #9A350A",
"X.	c #150701",
"Y.	c #491804",
"Z.	c #782402",
"`.	c #240B00",
" +	c #722202",
".+	c #A6390B",
"++	c #732709",
"@+	c #110602",
"#+	c #0C0400",
"$+	c #100501",
"%+	c #050200",
"&+	c #1B0902",
"*+	c #98350B",
"=+	c #A73A0C",
"-+	c #330F01",
";+	c #A7390C",
">+	c #A73A0D",
",+	c #3D1505",
"'+	c #180801",
")+	c #3F1404",
"!+	c #4A1703",
"~+	c #3D1303",
"{+	c #230B01",
"]+	c #200B01",
"^+	c #501903",
"/+	c #752606",
"(+	c #933007",
"_+	c #862B07",
":+	c #571C05",
"<+	c #140601",
"[+	c #6E2608",
"}+	c #A6380B",
"|+	c #742303",
"1+	c #6D2102",
"2+	c #94330B",
"3+	c #110601",
"4+	c #702506",
"5+	c #632004",
"6+	c #2A0D02",
"7+	c #190901",
"8+	c #1D0901",
"9+	c #3F1403",
"0+	c #792706",
"a+	c #963209",
"b+	c #290E03",
"c+	c #210C02",
"d+	c #A83B0D",
"e+	c #A83A0D",
"f+	c #351001",
"g+	c #320F01",
"h+	c #4F1B07",
"i+	c #170801",
"j+	c #7A2908",
"k+	c #752505",
"l+	c #2A0E02",
"m+	c #220B02",
"n+	c #361102",
"o+	c #7C2805",
"p+	c #9D350A",
"q+	c #290E02",
"r+	c #672408",
"s+	c #722203",
"t+	c #2A0C00",
"u+	c #6C2003",
"v+	c #92330C",
"w+	c #140701",
"x+	c #501B05",
"y+	c #631F04",
"z+	c #160701",
"A+	c #1D0A01",
"B+	c #611F04",
"C+	c #822C09",
"D+	c #9E380D",
"E+	c #A93C0E",
"F+	c #A93B0E",
"G+	c #341001",
"H+	c #A93B0D",
"I+	c #AA3C0E",
"J+	c #1D0B02",
"K+	c #95320A",
"L+	c #882B07",
"M+	c #7B2705",
"N+	c #441704",
"O+	c #180802",
"P+	c #752403",
"Q+	c #1F0900",
"R+	c #280C01",
"S+	c #702103",
"T+	c #2D1004",
"U+	c #3B1403",
"V+	c #280D01",
"W+	c #8B2D06",
"X+	c #7C2B09",
"Y+	c #230C03",
"Z+	c #0F0501",
"`+	c #A43B0E",
" @	c #AA3C0F",
".@	c #3B1201",
"+@	c #3B1202",
"@@	c #A6380C",
"#@	c #AB3D0F",
"$@	c #1F0B02",
"%@	c #672307",
"&@	c #541B03",
"*@	c #110500",
"=@	c #2F1002",
"-@	c #922F06",
";@	c #401704",
">@	c #4C1C07",
",@	c #7F2D0A",
"'@	c #A53A0E",
")@	c #7B2503",
"!@	c #1B0701",
"~@	c #240B01",
"{@	c #772403",
"]@	c #8F330C",
"^@	c #682509",
"/@	c #3B1505",
"(@	c #200B02",
"_@	c #8B300A",
":@	c #2C0D02",
"<@	c #802C0A",
"[@	c #270E03",
"}@	c #1D0A02",
"|@	c #4F1D06",
"1@	c #812E0B",
"2@	c #471502",
"3@	c #461502",
"4@	c #A2360A",
"5@	c #9F380D",
"6@	c #6E270A",
"7@	c #341304",
"8@	c #220C02",
"9@	c #381404",
"0@	c #531B03",
"a@	c #892B06",
"b@	c #511D06",
"c@	c #1E0B03",
"d@	c #280F03",
"e@	c #6F2709",
"f@	c #A63A0E",
"g@	c #862903",
"h@	c #200A01",
"i@	c #822803",
"j@	c #95340B",
"k@	c #5B2007",
"l@	c #1B0A02",
"m@	c #732809",
"n@	c #451603",
"o@	c #792705",
"p@	c #95340C",
"q@	c #220B03",
"r@	c #260D03",
"s@	c #6E2709",
"t@	c #5A1B02",
"u@	c #561A02",
"v@	c #9E370D",
"w@	c #5F2108",
"x@	c #280E03",
"y@	c #A73A0E",
"z@	c #9A3208",
"A@	c #290D01",
"B@	c #5A1D04",
"C@	c #73290A",
"D@	c #2B0F03",
"E@	c #331204",
"F@	c #7F2C0A",
"G@	c #962D04",
"H@	c #220A01",
"I@	c #922C04",
"J@	c #722809",
"K@	c #230C02",
"L@	c #712709",
"M@	c #7F2806",
"N@	c #180901",
"O@	c #2E0F02",
"P@	c #4E1C06",
"Q@	c #270D04",
"R@	c #581F07",
"S@	c #A2380D",
"T@	c #6C2103",
"U@	c #96340C",
"V@	c #4A1A06",
"W@	c #7D2805",
"X@	c #9A370D",
"Y@	c #250E03",
"Z@	c #2F1103",
"`@	c #852F0A",
" #	c #7B2B09",
".#	c #240D03",
"+#	c #1D0B03",
"@#	c #7F2D0B",
"##	c #963007",
"$#	c #AA3D0F",
"%#	c #AC3E10",
"&#	c #802E0C",
"*#	c #1E0B02",
"=#	c #1F0A02",
"-#	c #702709",
";#	c #190701",
">#	c #7E2604",
",#	c #672409",
"'#	c #4B1B07",
")#	c #AC3E0F",
"!#	c #5E1E04",
"~#	c #7E2805",
"{#	c #66250A",
"]#	c #230E03",
"^#	c #612208",
"/#	c #591B02",
"(#	c #531902",
"_#	c #A5370B",
":#	c #5A1F07",
"<#	c #1A0700",
"[#	c #140600",
"}#	c #0D0500",
"|#	c #1C0A02",
"1#	c #9B380E",
"2#	c #8F2E06",
"3#	c #190801",
"4#	c #270D02",
"5#	c #AB3E0F",
"6#	c #AD3F10",
"7#	c #AE3F11",
"8#	c #471A06",
"9#	c #631F03",
"0#	c #942E05",
"a#	c #912B03",
"b#	c #220A00",
"c#	c #2A0F03",
"d#	c #591F07",
"e#	c #9A2F05",
"f#	c #2A0C01",
"g#	c #260B01",
"h#	c #972E04",
"i#	c #4F1B06",
"j#	c #481401",
"k#	c #792302",
"l#	c #772504",
"m#	c #300E01",
"n#	c #200B03",
"o#	c #762B0C",
"p#	c #371103",
"q#	c #581C03",
"r#	c #AA3D0E",
"s#	c #9C390F",
"t#	c #2A0F04",
"u#	c #120601",
"v#	c #802A06",
"w#	c #3F1200",
"x#	c #752303",
"y#	c #1C0900",
"z#	c #732303",
"A#	c #471906",
"B#	c #0D0400",
"C#	c #6F2001",
"D#	c #421603",
"E#	c #4C1B08",
"F#	c #AD3E10",
"G#	c #642004",
"H#	c #7B2806",
"I#	c #AE4011",
"J#	c #AF4011",
"K#	c #86320E",
"L#	c #210D03",
"M#	c #391000",
"N#	c #4C1702",
"O#	c #501D06",
"P#	c #732202",
"Q#	c #9F370C",
"R#	c #3F1504",
"S#	c #9E3A0F",
"T#	c #AD3F11",
"U#	c #080300",
"V#	c #973108",
"W#	c #AF4112",
"X#	c #722A0C",
"Y#	c #280F04",
"Z#	c #8A310C",
"`#	c #8E2B04",
" $	c #922D04",
".$	c #210A01",
"+$	c #902B04",
"@$	c #581901",
"#$	c #4F1C06",
"$$	c #80300D",
"%$	c #0B0400",
"&$	c #AF4012",
"*$	c #B04112",
"=$	c #B04213",
"-$	c #B14213",
";$	c #5E230A",
">$	c #2D1003",
",$	c #98380F",
"'$	c #B14313",
")$	c #B34515",
"!$	c #B54616",
"~$	c #B44515",
"{$	c #B24314",
"]$	c #611D02",
"^$	c #6D2608",
"/$	c #712303",
"($	c #1F0901",
"_$	c #702203",
":$	c #692508",
"<$	c #1D0A03",
"[$	c #992F05",
"}$	c #A13409",
"|$	c #B34414",
"1$	c #B54515",
"2$	c #5D2208",
"3$	c #130701",
"4$	c #62250A",
"5$	c #983208",
"6$	c #0C0401",
"7$	c #B04212",
"8$	c #441908",
"9$	c #3C1506",
"0$	c #A43D11",
"a$	c #B74717",
"b$	c #B94918",
"c$	c #BB4B19",
"d$	c #BA4A19",
"e$	c #B74817",
"f$	c #150801",
"g$	c #7C2B0A",
"h$	c #4B1702",
"i$	c #7A2A09",
"j$	c #581A02",
"k$	c #B24313",
"l$	c #B84817",
"m$	c #B54615",
"n$	c #6B2709",
"o$	c #401807",
"p$	c #7D2907",
"q$	c #802A07",
"r$	c #A03C12",
"s$	c #2D1106",
"t$	c #491A07",
"u$	c #BD4D1B",
"v$	c #C04F1D",
"w$	c #C2511E",
"x$	c #C1511E",
"y$	c #350F01",
"z$	c #170802",
"A$	c #91320B",
"B$	c #942D04",
"C$	c #230A01",
"D$	c #932D04",
"E$	c #7E2704",
"F$	c #B64716",
"G$	c #BE4E1C",
"H$	c #C1501D",
"I$	c #C1501E",
"J$	c #BB4B1A",
"K$	c #762B0B",
"L$	c #230D04",
"M$	c #9B3A11",
"N$	c #411604",
"O$	c #381203",
"P$	c #AF4111",
"Q$	c #903710",
"R$	c #1A0A03",
"S$	c #0E0500",
"T$	c #571E06",
"U$	c #BE4D1B",
"V$	c #C65420",
"W$	c #C85622",
"X$	c #C75521",
"Y$	c #C55420",
"Z$	c #BC4C1A",
"`$	c #511702",
" %	c #200D05",
".%	c #3B1708",
"+%	c #250F05",
"@%	c #321204",
"#%	c #762302",
"$%	c #762303",
"%%	c #391404",
"&%	c #160A03",
"*%	c #311306",
"=%	c #64280D",
"-%	c #2A1106",
";%	c #9A3006",
">%	c #B94A18",
",%	c #BF4E1C",
"'%	c #C3521F",
")%	c #C65521",
"!%	c #C75621",
"~%	c #C4521F",
"{%	c #B64616",
"]%	c #802D0B",
"^%	c #84320E",
"/%	c #7C2807",
"(%	c #511A05",
"_%	c #B24414",
":%	c #B34415",
"<%	c #81310F",
"[%	c #1D0B04",
"}%	c #110600",
"|%	c #622106",
"1%	c #CC5A25",
"2%	c #CF5C27",
"3%	c #CD5B26",
"4%	c #CA5824",
"5%	c #B94A19",
"6%	c #5E1D03",
"7%	c #230F06",
"8%	c #7B3112",
"9%	c #BD4C1B",
"0%	c #66290E",
"a%	c #140803",
"b%	c #571E07",
"c%	c #551902",
"d%	c #591A02",
"e%	c #5F2207",
"f%	c #120703",
"g%	c #702E10",
"h%	c #A54318",
"i%	c #1E0C04",
"j%	c #BC4C1B",
"k%	c #C2521F",
"l%	c #C75622",
"m%	c #CE5C26",
"n%	c #CA5823",
"o%	c #BF4F1C",
"p%	c #882F0A",
"q%	c #260E04",
"r%	c #702B0D",
"s%	c #7E2A08",
"t%	c #341104",
"u%	c #852C08",
"v%	c #722D0D",
"w%	c #0F0500",
"x%	c #6A2205",
"y%	c #B84918",
"z%	c #CB5924",
"A%	c #D15E28",
"B%	c #D4612A",
"C%	c #D25F28",
"D%	c #CD5A25",
"E%	c #C0501D",
"F%	c #4D1702",
"G%	c #2D1206",
"H%	c #BD4C1A",
"I%	c #7F2C09",
"J%	c #360F01",
"K%	c #822D0A",
"L%	c #692A0E",
"M%	c #5C260D",
"N%	c #9B3106",
"O%	c #C4531F",
"P%	c #D05D27",
"Q%	c #D36029",
"R%	c #8E2F08",
"S%	c #56220B",
"T%	c #9B350A",
"U%	c #521B06",
"V%	c #160801",
"W%	c #0D0401",
"X%	c #5C1F07",
"Y%	c #842D09",
"Z%	c #60250C",
"`%	c #712203",
" &	c #D4602A",
".&	c #D9652E",
"+&	c #CE5B26",
"@&	c #702E11",
"#&	c #441C09",
"$&	c #A6390D",
"%&	c #842803",
"&&	c #852803",
"*&	c #311104",
"=&	c #431C09",
"-&	c #BE4E1B",
";&	c #943C15",
">&	c #7A2705",
",&	c #C45320",
"'&	c #D7642C",
")&	c #D7632C",
"!&	c #D05D28",
"~&	c #942E06",
"{&	c #371100",
"]&	c #401908",
"^&	c #B24515",
"/&	c #8D310A",
"(&	c #531C05",
"_&	c #1F0B03",
":&	c #662407",
"<&	c #99360C",
"[&	c #4D1E0A",
"}&	c #0C0502",
"|&	c #772100",
"1&	c #D05E28",
"2&	c #C55320",
"3&	c #712305",
"4&	c #913C15",
"5&	c #B64B1A",
"6&	c #170904",
"7&	c #5E2107",
"8&	c #6C2102",
"9&	c #190800",
"0&	c #1B0800",
"a&	c #6D2002",
"b&	c #652308",
"c&	c #190A03",
"d&	c #B34919",
"e&	c #B34A19",
"f&	c #150803",
"g&	c #371102",
"h&	c #D25F29",
"i&	c #C95723",
"j&	c #C3521E",
"k&	c #431200",
"l&	c #2E1105",
"m&	c #A23F14",
"n&	c #9A350C",
"o&	c #180902",
"p&	c #602208",
"q&	c #9C370E",
"r&	c #9E3E14",
"s&	c #942A00",
"t&	c #CD5B25",
"u&	c #CA5924",
"v&	c #802B09",
"w&	c #170A03",
"x&	c #A84519",
"y&	c #803513",
"z&	c #8F310B",
"A&	c #521802",
"B&	c #541802",
"C&	c #220E05",
"D&	c #7C3312",
"E&	c #BF4F1D",
"F&	c #180A03",
"G&	c #581D04",
"H&	c #C95823",
"I&	c #4F1600",
"J&	c #210D04",
"K&	c #933913",
"L&	c #B64717",
"M&	c #75290A",
"N&	c #6D2709",
"O&	c #B74716",
"P&	c #93370F",
"Q&	c #912800",
"R&	c #942900",
"S&	c #C65421",
"T&	c #832C09",
"U&	c #1A0A04",
"V&	c #B54B1A",
"W&	c #3C1909",
"X&	c #481905",
"Y&	c #511C06",
"Z&	c #421B0A",
"`&	c #1E0D05",
" *	c #170800",
".*	c #591F06",
"+*	c #8E2700",
"@*	c #2C1106",
"#*	c #843411",
"$*	c #96350C",
"%*	c #270D03",
"&*	c #331205",
"**	c #88310D",
"=*	c #95370E",
"-*	c #852E0B",
";*	c #1C0C04",
">*	c #BC4E1C",
",*	c #A04218",
"'*	c #190B04",
")*	c #852E0A",
"!*	c #892803",
"~*	c #8A2903",
"{*	c #8A300B",
"]*	c #9C4018",
"^*	c #5C2007",
"/*	c #922800",
"(*	c #351407",
"_*	c #772F0F",
":*	c #7A2C0B",
"<*	c #250D03",
"[*	c #1A0A02",
"}*	c #5D2209",
"|*	c #AA3E10",
"1*	c #742A0A",
"2*	c #932900",
"3*	c #BD4F1C",
"4*	c #6E2E10",
"5*	c #431805",
"6*	c #762202",
"7*	c #150700",
"8*	c #772302",
"9*	c #4B1A05",
"0*	c #210E05",
"a*	c #5D2007",
"b*	c #3C1808",
"c*	c #6A2A0E",
"d*	c #5E2208",
"e*	c #220D04",
"f*	c #2F1105",
"g*	c #8A320D",
"h*	c #B84818",
"i*	c #87310D",
"j*	c #210D05",
"k*	c #B44B1C",
"l*	c #361608",
"m*	c #872F0A",
"n*	c #661E02",
"o*	c #671F02",
"p*	c #3A1809",
"q*	c #BF4F1E",
"r*	c #1A0B04",
"s*	c #401809",
"t*	c #5F260D",
"u*	c #93350E",
"v*	c #3E1706",
"w*	c #67260A",
"x*	c #832E0B",
"y*	c #1D0C04",
"z*	c #AC481B",
"A*	c #973E17",
"B*	c #200E05",
"C*	c #4B1B05",
"D*	c #591A01",
"E*	c #2A1206",
"F*	c #943D16",
"G*	c #100702",
"H*	c #1A0802",
"I*	c #5B1F06",
"J*	c #55220B",
"K*	c #7C2E0C",
"L*	c #3D1707",
"M*	c #9C3A11",
"N*	c #BA4B19",
"O*	c #812D0B",
"P*	c #170905",
"Q*	c #A1441A",
"R*	c #682B10",
"S*	c #1C0902",
"T*	c #95330C",
"U*	c #491501",
"V*	c #4B1501",
"W*	c #9D370C",
"X*	c #6A2C10",
"Y*	c #B84D1D",
"Z*	c #0C0503",
"`*	c #591E05",
" =	c #4C1F0B",
".=	c #B64A19",
"+=	c #66260A",
"@=	c #280E04",
"#=	c #1E0C03",
"$=	c #83320E",
"%=	c #7E2B0A",
"&=	c #913D17",
"*=	c #BB4F1D",
"==	c #331508",
"-=	c #642308",
";=	c #3A1100",
">=	c #3D1200",
",=	c #361609",
"'=	c #BA4D1D",
")=	c #C2521E",
"!=	c #A7461A",
"~=	c #030200",
"{=	c #571C03",
"]=	c #431B09",
"^=	c #AD4618",
"/=	c #A33D11",
"(=	c #4F1E08",
"_=	c #2E1104",
":=	c #1C0A03",
"<=	c #69280B",
"[=	c #7C2A09",
"}=	c #7B3414",
"|=	c #943E17",
"1=	c #240F05",
"2=	c #8B2902",
"3=	c #2E0D00",
"4=	c #8E2902",
"5=	c #351203",
"6=	c #2E1307",
"7=	c #913C16",
"8=	c #8F3C17",
"9=	c #180800",
"0=	c #541A02",
"a=	c #3A1808",
"b=	c #A64418",
"c=	c #923710",
"d=	c #351305",
"e=	c #4A1C09",
"f=	c #AA4113",
"g=	c #BA4A18",
"h=	c #6B2306",
"i=	c #732000",
"j=	c #5D270E",
"k=	c #672B0F",
"l=	c #220C03",
"m=	c #832D09",
"n=	c #832501",
"o=	c #250B00",
"p=	c #862601",
"q=	c #8E310A",
"r=	c #682C10",
"s=	c #703011",
"t=	c #511600",
"u=	c #301407",
"v=	c #9F4117",
"w=	c #80300E",
"x=	c #1F0C03",
"y=	c #301306",
"z=	c #993B12",
"A=	c #792807",
"B=	c #742100",
"C=	c #3E1A0A",
"D=	c #BC4F1E",
"E=	c #341609",
"F=	c #541D06",
"G=	c #7D2401",
"H=	c #802501",
"I=	c #662308",
"J=	c #391808",
"K=	c #BA4E1E",
"L=	c #4F220D",
"M=	c #521600",
"N=	c #281005",
"O=	c #7F3413",
"P=	c #702A0D",
"Q=	c #240D04",
"R=	c #1B0A03",
"S=	c #883410",
"T=	c #5F1E05",
"U=	c #100400",
"V=	c #210E06",
"W=	c #953F18",
"X=	c #230D02",
"Y=	c #782201",
"Z=	c #7C2300",
"`=	c #2D1307",
" -	c #511700",
".-	c #973E16",
"+-	c #270F04",
"@-	c #782F0F",
"#-	c #BD4E1D",
"$-	c #3C1A09",
"%-	c #AD4A1D",
"&-	c #C55421",
"*-	c #6E2E11",
"=-	c #762101",
"--	c #7B2301",
";-	c #97340C",
">-	c #381709",
",-	c #6E2F12",
"'-	c #C05220",
")-	c #140904",
"!-	c #261005",
"~-	c #933D17",
"{-	c #AD4315",
"]-	c #491B09",
"^-	c #190903",
"/-	c #240F04",
"(-	c #69290D",
"_-	c #C04F1C",
":-	c #B74C1C",
"<-	c #471E0A",
"[-	c #8B3C17",
"}-	c #682408",
"|-	c #762100",
"1-	c #7B2200",
"2-	c #411C0B",
"3-	c #9E441A",
"4-	c #2A1207",
"5-	c #8E3B15",
"6-	c #9E3E13",
"7-	c #2D1104",
"8-	c #58230B",
"9-	c #B74918",
"0-	c #B14B1C",
"a-	c #3F1B0A",
"b-	c #5C2810",
"c-	c #A0431A",
"d-	c #401604",
"e-	c #782100",
"f-	c #270B00",
"g-	c #7F2400",
"h-	c #561E06",
"i-	c #261006",
"j-	c #9E431A",
"k-	c #713113",
"l-	c #8B3A16",
"m-	c #66280C",
"n-	c #240E05",
"o-	c #230900",
"p-	c #812500",
"q-	c #491C09",
"r-	c #AB4416",
"s-	c #AC491B",
"t-	c #441C0C",
"u-	c #281107",
"v-	c #7C2200",
"w-	c #230A00",
"x-	c #822400",
"y-	c #301103",
"z-	c #2F1407",
"A-	c #3B1A0A",
"B-	c #301408",
"C-	c #863815",
"D-	c #7D2300",
"E-	c #3B1707",
"F-	c #A14016",
"G-	c #C2511F",
"H-	c #AA471C",
"I-	c #140804",
"J-	c #B54F20",
"K-	c #C85722",
"L-	c #C85723",
"M-	c #4B200C",
"N-	c #93330B",
"O-	c #832500",
"P-	c #300E00",
"Q-	c #8B2700",
"R-	c #A3390D",
"S-	c #190902",
"T-	c #52230E",
"U-	c #C65622",
"V-	c #120704",
"W-	c #2C1207",
"X-	c #713012",
"Y-	c #451300",
"Z-	c #742101",
"`-	c #2E1206",
" ;	c #973D14",
".;	c #AB491C",
"+;	c #39180A",
"@;	c #883B17",
"#;	c #B04A1D",
"$;	c #8C2700",
"%;	c #3C1100",
"&;	c #4A1400",
"*;	c #8E310B",
"=;	c #9C441B",
"-;	c #2B1207",
";;	c #853816",
">;	c #7E2906",
",;	c #140500",
"';	c #6E2204",
");	c #230F05",
"!;	c #8F3A14",
"~;	c #3A190A",
"{;	c #4C210D",
"];	c #C95722",
"^;	c #C75522",
"/;	c #903D17",
"(;	c #4C1500",
"_;	c #571800",
":;	c #7D2C0A",
"<;	c #642B11",
"[;	c #8C3C17",
"};	c #7F2805",
"|;	c #942D05",
"1;	c #300E02",
"2;	c #130601",
"3;	c #672205",
"4;	c #240E04",
"5;	c #883713",
"6;	c #AF4B1D",
"7;	c #190B05",
"8;	c #6C2E12",
"9;	c #661C00",
"0;	c #712F12",
"a;	c #200E06",
"b;	c #923F18",
"c;	c #8F2F08",
"d;	c #250C02",
"e;	c #5E2006",
"f;	c #823512",
"g;	c #B14C1E",
"h;	c #3B190A",
"i;	c #130803",
"j;	c #A0461D",
"k;	c #461D0B",
"l;	c #431706",
"m;	c #952B01",
"n;	c #712000",
"o;	c #290C00",
"p;	c #792200",
"q;	c #49200C",
"r;	c #B04D1F",
"s;	c #1A0C04",
"t;	c #1D0C05",
"u;	c #9A421A",
"v;	c #B74A19",
"w;	c #812704",
"x;	c #541E06",
"y;	c #1F0D04",
"z;	c #7B3212",
"A;	c #B34D1E",
"B;	c #401C0B",
"C;	c #642C12",
"D;	c #AD4A1C",
"E;	c #241006",
"F;	c #3A1404",
"G;	c #852500",
"H;	c #381000",
"I;	c #471300",
"J;	c #271106",
"K;	c #AE4A1C",
"L;	c #7C3616",
"M;	c #A0451B",
"N;	c #B14718",
"O;	c #812602",
"P;	c #471907",
"Q;	c #783212",
"R;	c #B54F1F",
"S;	c #3E1B0B",
"T;	c #251107",
"U;	c #CC5925",
"V;	c #943F19",
"W;	c #351304",
"X;	c #5A1A00",
"Y;	c #661D00",
"Z;	c #4E1B07",
"`;	c #CB5925",
" >	c #251007",
".>	c #94401A",
"+>	c #9D4016",
"@>	c #772B0B",
"#>	c #AA3F11",
"$>	c #1B0B04",
"%>	c #733011",
"&>	c #B64F20",
"*>	c #411D0C",
"=>	c #A7491D",
"->	c #793413",
";>	c #220F06",
">>	c #380F00",
",>	c #1E0C05",
"'>	c #7A3413",
")>	c #B44F20",
"!>	c #150904",
"~>	c #321609",
"{>	c #AE4C1E",
"]>	c #A54316",
"^>	c #6D270A",
"/>	c #170901",
"(>	c #9F3B10",
"_>	c #6F2F11",
":>	c #B85121",
"<>	c #451E0D",
"[>	c #612B11",
"}>	c #5A260F",
"|>	c #681D00",
"1>	c #501C07",
"2>	c #5C270E",
"3>	c #743315",
"4>	c #3E1C0B",
"5>	c #B55020",
"6>	c #A04015",
"7>	c #882701",
"8>	c #602309",
"9>	c #92350E",
"0>	c #6B2D10",
"a>	c #BA5222",
"b>	c #48200D",
"c>	c #CC5924",
"d>	c #C0521F",
"e>	c #3E1504",
"f>	c #421300",
"g>	c #150500",
"h>	c #561700",
"i>	c #5B1F07",
"j>	c #431D0B",
"k>	c #C2531F",
"l>	c #291208",
"m>	c #4A210D",
"n>	c #BC5221",
"o>	c #461401",
"p>	c #531D07",
"q>	c #842F0B",
"r>	c #CF5D27",
"s>	c #130600",
"t>	c #240E06",
"u>	c #662B10",
"v>	c #BC5322",
"w>	c #4C210E",
"x>	c #97431B",
"y>	c #AC491C",
"z>	c #271007",
"A>	c #4E1600",
"B>	c #852600",
"C>	c #2F1408",
"D>	c #B04B1D",
"E>	c #A54A1F",
"F>	c #090401",
"G>	c #56260F",
"H>	c #C45723",
"I>	c #963E18",
"J>	c #1B0B05",
"K>	c #0D0300",
"L>	c #441804",
"M>	c #060101",
"N>	c #7B2909",
"O>	c #D5622B",
"P>	c #CF5C26",
"Q>	c #BC4B1A",
"R>	c #62290F",
"S>	c #BE5423",
"T>	c #4F230E",
"U>	c #47200D",
"V>	c #9B4219",
"W>	c #1B0C05",
"X>	c #411100",
"Y>	c #8A2700",
"Z>	c #581800",
"`>	c #862500",
" ,	c #772A09",
".,	c #54250F",
"+,	c #5F2A11",
"@,	c #CA5A24",
"#,	c #903C16",
"$,	c #1D0D05",
"%,	c #D15F28",
"&,	c #A0380B",
"*,	c #D8642D",
"=,	c #D5612B",
"-,	c #BB4C1A",
";,	c #7A2504",
">,	c #190A04",
",,	c #632A10",
"',	c #C55725",
"),	c #5A2811",
"!,	c #120803",
"~,	c #BA5322",
"{,	c #842500",
"],	c #5C1A00",
"^,	c #290B00",
"/,	c #3C1200",
"(,	c #641D01",
"_,	c #401200",
":,	c #431300",
"<,	c #6D1F00",
"[,	c #8C320C",
"},	c #220E06",
"|,	c #8F3D17",
"1,	c #C65825",
"2,	c #100704",
"3,	c #321709",
"4,	c #5F2A12",
"5,	c #873916",
"6,	c #531802",
"7,	c #D8642C",
"8,	c #2F0F01",
"9,	c #431301",
"0,	c #7D2906",
"a,	c #160700",
"b,	c #692D11",
"c,	c #642D13",
"d,	c #703215",
"e,	c #7F3615",
"f,	c #89300B",
"g,	c #5F1A00",
"h,	c #200A00",
"i,	c #8A2701",
"j,	c #2E1207",
"k,	c #2B0C00",
"l,	c #862600",
"m,	c #591900",
"n,	c #902800",
"o,	c #A63A0D",
"p,	c #833715",
"q,	c #CC5A24",
"r,	c #7A3717",
"s,	c #2D1409",
"t,	c #7B3717",
"u,	c #883A16",
"v,	c #291107",
"w,	c #551A03",
"x,	c #7D2603",
"y,	c #6C2002",
"z,	c #812C09",
"A,	c #703013",
"B,	c #231006",
"C,	c #CE5C27",
"D,	c #763213",
"E,	c #1B0C04",
"F,	c #A83B0E",
"G,	c #6A1D00",
"H,	c #491500",
"I,	c #7E2300",
"J,	c #892700",
"K,	c #584E49",
"L,	c #7A2200",
"M,	c #371000",
"N,	c #421705",
"O,	c #7A3414",
"P,	c #271208",
"Q,	c #271108",
"R,	c #8D3F1B",
"S,	c #250F06",
"T,	c #571C04",
"U,	c #822D09",
"V,	c #773314",
"W,	c #8E3F1A",
"X,	c #6E2F11",
"Y,	c #1E0E07",
"Z,	c #D0CFCC",
"`,	c #B8B6B4",
" '	c #4A2D21",
".'	c #802400",
"+'	c #2F0D00",
"@'	c #150A03",
"#'	c #733012",
"$'	c #96431C",
"%'	c #2A1308",
"&'	c #A0481F",
"*'	c #511701",
"='	c #852F0B",
"-'	c #1C0D06",
";'	c #7E3715",
">'	c #7A3718",
",'	c #170A05",
"''	c #3A1A0B",
")'	c #6D1F01",
"!'	c #4C1600",
"~'	c #601D02",
"{'	c #79736F",
"]'	c #FFFDFA",
"^'	c #655A56",
"/'	c #6F2102",
"('	c #972D04",
"_'	c #2F0E00",
":'	c #A1390D",
"<'	c #6F2F12",
"['	c #3E1C0C",
"}'	c #160A04",
"|'	c #3F1C0C",
"1'	c #B35123",
"2'	c #D15F29",
"3'	c #8E3D18",
"4'	c #5A1F06",
"5'	c #922B02",
"6'	c #843917",
"7'	c #D05E27",
"8'	c #90411B",
"9'	c #241107",
"0'	c #99451D",
"a'	c #672B10",
"b'	c #391405",
"c'	c #30231D",
"d'	c #D7D5D3",
"e'	c #C7C6C3",
"f'	c #3D2921",
"g'	c #521902",
"h'	c #6C2E11",
"i'	c #A2481F",
"j'	c #180B04",
"k'	c #341809",
"l'	c #572711",
"m'	c #B95425",
"n'	c #903E18",
"o'	c #5A2006",
"p'	c #5C1B01",
"q'	c #4F1701",
"r'	c #842E0B",
"s'	c #8B3D18",
"t'	c #D3602A",
"u'	c #9B461F",
"v'	c #421D0D",
"w'	c #230D03",
"x'	c #7D2D0B",
"y'	c #752100",
"z'	c #582511",
"A'	c #959391",
"B'	c #86807C",
"C'	c #5D230C",
"D'	c #A0390E",
"E'	c #451F0D",
"F'	c #34180B",
"G'	c #703316",
"H'	c #8C3D19",
"I'	c #832703",
"J'	c #1C0700",
"K'	c #1A0B05",
"L'	c #92401A",
"M'	c #A54B20",
"N'	c #30150A",
"O'	c #9B461D",
"P'	c #6B2D11",
"Q'	c #521E07",
"R'	c #8D2902",
"S'	c #2C0C00",
"T'	c #922901",
"U'	c #4B3E38",
"V'	c #EFEDEA",
"W'	c #E8E7E4",
"X'	c #443630",
"Y'	c #7E2603",
"Z'	c #411402",
"`'	c #782B0B",
" )	c #290F04",
".)	c #723012",
"+)	c #A4491F",
"@)	c #1A0B06",
"#)	c #2F1709",
"$)	c #823B19",
"%)	c #93401A",
"&)	c #591E06",
"*)	c #892904",
"=)	c #7E2A07",
"-)	c #1C0D05",
";)	c #99441C",
">)	c #D26029",
",)	c #B15123",
"')	c #3D1C0C",
"))	c #230D05",
"!)	c #361305",
"~)	c #A23A0E",
"{)	c #621D02",
"])	c #521701",
"^)	c #452B20",
"/)	c #B8B7B4",
"()	c #B7B5B3",
"_)	c #482D22",
":)	c #722404",
"<)	c #3E1202",
"[)	c #612309",
"})	c #7B3313",
"|)	c #46200E",
"1)	c #96441E",
"2)	c #95411A",
"3)	c #231007",
"4)	c #782403",
"5)	c #952E05",
"6)	c #8E2D05",
"7)	c #5C1D03",
"8)	c #1D0E06",
"9)	c #9F461D",
"0)	c #BB5625",
"a)	c #502410",
"b)	c #1E0D06",
"c)	c #95431C",
"d)	c #7E3413",
"e)	c #2B0F04",
"f)	c #93340D",
"g)	c #340F01",
"h)	c #5E2109",
"i)	c #7D7470",
"j)	c #7E7875",
"k)	c #622710",
"l)	c #421402",
"m)	c #592008",
"n)	c #1C0C05",
"o)	c #873814",
"p)	c #9C461D",
"q)	c #36180B",
"r)	c #A74D21",
"s)	c #D5612A",
"t)	c #96421B",
"u)	c #3C1302",
"v)	c #822905",
"w)	c #8F2C05",
"x)	c #6B2003",
"y)	c #320F00",
"z)	c #0E0300",
"A)	c #241007",
"B)	c #A64A1F",
"C)	c #D6622B",
"D)	c #CE5E2A",
"E)	c #683015",
"F)	c #3B1B0C",
"G)	c #34170A",
"H)	c #1C0B05",
"I)	c #90340D",
"J)	c #441502",
"K)	c #7F2704",
"L)	c #443731",
"M)	c #EAE8E5",
"N)	c #E9E7E4",
"O)	c #453B36",
"P)	c #7A2605",
"Q)	c #982C03",
"R)	c #592108",
"S)	c #973F18",
"T)	c #32170A",
"U)	c #5A2812",
"V)	c #A74D22",
"W)	c #99431C",
"X)	c #271207",
"Y)	c #2B0C01",
"Z)	c #2D1408",
"`)	c #AE4E20",
" !	c #823C1A",
".!	c #873C19",
"+!	c #A14218",
"@!	c #371608",
"#!	c #2F1104",
"$!	c #462E24",
"%!	c #B9B8B6",
"&!	c #BAB9B7",
"*!	c #473229",
"=!	c #4E1903",
"-!	c #631E03",
";!	c #5F2309",
">!	c #291006",
",!	c #4A1E0B",
"'!	c #AC471A",
")!	c #8F401B",
"!!	c #210F06",
"~!	c #823B1A",
"{!	c #9A441C",
"]!	c #281108",
"^!	c #BB5323",
"/!	c #D6632B",
"(!	c #D6632C",
"_!	c #9C481F",
":!	c #C65925",
"<!	c #BA4D1C",
"[!	c #5F270E",
"}!	c #401706",
"|!	c #421503",
"1!	c #5F2C17",
"2!	c #898784",
"3!	c #8D8C8A",
"4!	c #5C2A16",
"5!	c #882C07",
"6!	c #912D05",
"7!	c #6D280B",
"8!	c #180903",
"9!	c #220F05",
"0!	c #CB5B26",
"a!	c #2B1408",
"b!	c #301609",
"c!	c #A74C22",
"d!	c #98441C",
"e!	c #2A1208",
"f!	c #4D230E",
"g!	c #CD5C27",
"h!	c #94431D",
"i!	c #441F0D",
"j!	c #6F3215",
"k!	c #863613",
"l!	c #230E06",
"m!	c #572008",
"n!	c #AC3F10",
"o!	c #391102",
"p!	c #742404",
"q!	c #544B46",
"r!	c #F4F3F0",
"s!	c #F8F6F3",
"t!	c #5B534F",
"u!	c #4F1903",
"v!	c #822F0D",
"w!	c #311407",
"x!	c #933C16",
"y!	c #753515",
"z!	c #1D0D06",
"A!	c #582811",
"B!	c #CA5C28",
"C!	c #A3491E",
"D!	c #C25827",
"E!	c #673014",
"F!	c #AF4E21",
"G!	c #AE471A",
"H!	c #5B260D",
"I!	c #782D0C",
"J!	c #672003",
"K!	c #4C1803",
"L!	c #922E06",
"M!	c #3B2E28",
"N!	c #CAC9C6",
"O!	c #D0CECC",
"P!	c #382D28",
"Q!	c #8E2E06",
"R!	c #9F3408",
"S!	c #3C1303",
"T!	c #4A1B08",
"U!	c #1B0B03",
"V!	c #6F2D10",
"W!	c #B45122",
"X!	c #8B3F1B",
"Y!	c #793717",
"Z!	c #4F240F",
"`!	c #953C15",
" ~	c #461D0A",
".~	c #1F0C04",
"+~	c #1A0903",
"@~	c #4F1D08",
"#~	c #9E3B10",
"$~	c #563629",
"%~	c #A2A09E",
"&~	c #A8A7A5",
"*~	c #53382C",
"=~	c #7D2806",
"-~	c #331002",
";~	c #802F0D",
">~	c #190904",
",~	c #5D260D",
"'~	c #A64317",
")~	c #532510",
"!~	c #190C04",
"~~	c #50240F",
"{~	c #B05022",
"]~	c #BA5323",
"^~	c #8C3F1B",
"/~	c #D9652D",
"(~	c #AC4E22",
"_~	c #552610",
":~	c #2D1509",
"<~	c #140903",
"[~	c #51200B",
"}~	c #1C0B03",
"|~	c #451A07",
"1~	c #8F350F",
"2~	c #531A04",
"3~	c #601F05",
"4~	c #612005",
"5~	c #787471",
"6~	c #838180",
"7~	c #5B1E05",
"8~	c #782E0D",
"9~	c #321306",
"0~	c #220C04",
"a~	c #2C1206",
"b~	c #6E2C0F",
"c~	c #A84317",
"d~	c #220F07",
"e~	c #91411C",
"f~	c #D8652D",
"g~	c #C55926",
"h~	c #4B210F",
"i~	c #8A3F1A",
"j~	c #8E401B",
"k~	c #431D0D",
"l~	c #331709",
"m~	c #7E3817",
"n~	c #AB4417",
"o~	c #7D3110",
"p~	c #481D0A",
"q~	c #1E0B04",
"r~	c #280F05",
"s~	c #5F240B",
"t~	c #973910",
"u~	c #7B2605",
"v~	c #4C433E",
"w~	c #E9E8E5",
"x~	c #F2F1EE",
"y~	c #574F4B",
"z~	c #742606",
"A~	c #9C3309",
"B~	c #3A1303",
"C~	c #782605",
"D~	c #8B3410",
"E~	c #5A220B",
"F~	c #200C03",
"G~	c #3F1908",
"H~	c #692A0D",
"I~	c #943A13",
"J~	c #9E461D",
"K~	c #231107",
"L~	c #2F1609",
"M~	c #3C1B0B",
"N~	c #853C19",
"O~	c #C15725",
"P~	c #D35F29",
"Q~	c #582810",
"R~	c #DA662E",
"S~	c #91411B",
"T~	c #883C1A",
"U~	c #9B3D14",
"V~	c #853411",
"W~	c #752E0F",
"X~	c #6D2B0D",
"Y~	c #6D2A0D",
"Z~	c #752D0E",
"`~	c #85330F",
" {	c #9D3C12",
".{	c #943108",
"+{	c #3E302A",
"@{	c #C6C4C2",
"#{	c #352C27",
"${	c #8C2E08",
"%{	c #7E2B08",
"&{	c #321003",
"*{	c #A84014",
"={	c #973A12",
"-{	c #8E3711",
";{	c #8D3711",
">{	c #A14014",
",{	c #9E471E",
"'{	c #4F230F",
"){	c #37190B",
"!{	c #C45926",
"~{	c #5F1E04",
"{{	c #541C05",
"]{	c #55382B",
"^{	c #A3A2A0",
"/{	c #AFAEAC",
"({	c #4D362C",
"_{	c #602106",
":{	c #511B04",
"<{	c #6F3216",
"[{	c #512510",
"}{	c #842B07",
"|{	c #301003",
"1{	c #97330A",
"2{	c #5C1F05",
"3{	c #817F7E",
"4{	c #8F8E8C",
"5{	c #603726",
"6{	c #441705",
"7{	c #6F2406",
"8{	c #251108",
"9{	c #6C3115",
"0{	c #D5622A",
"a{	c #3F1503",
"b{	c #752708",
"c{	c #722607",
"d{	c #5A524E",
"e{	c #F4F2EF",
"f{	c #6B6461",
"g{	c #682306",
"h{	c #8B2F09",
"i{	c #843C1A",
"j{	c #2F1509",
"k{	c #33170B",
"l{	c #813B1A",
"m{	c #602005",
"n{	c #541C06",
"o{	c #882E08",
"p{	c #392F2A",
"q{	c #D6D4D1",
"r{	c #E4E2E0",
"s{	c #493F3A",
"t{	c #712708",
"u{	c #90421C",
"v{	c #1A0B03",
"w{	c #1D0B05",
"x{	c #150804",
"y{	c #110703",
"z{	c #090502",
"A{	c #30170A",
"B{	c #672E14",
"C{	c #812A07",
"D{	c #341103",
"E{	c #9A340A",
"F{	c #9E350A",
"G{	c #46332B",
"H{	c #C8C6C4",
"I{	c #3A2C26",
"J{	c #91310A",
"K{	c #581E06",
"L{	c #5B1E06",
"M{	c #9A471F",
"N{	c #30160A",
"O{	c #100703",
"P{	c #120702",
"Q{	c #210F05",
"R{	c #331607",
"S{	c #411B09",
"T{	c #481E0B",
"U{	c #471D0A",
"V{	c #341507",
"W{	c #7A3212",
"X{	c #A24218",
"Y{	c #BA4D1B",
"Z{	c #C0501E",
"`{	c #B64C1D",
" ]	c #A6461A",
".]	c #913D18",
"+]	c #743213",
"@]	c #53240D",
"#]	c #321608",
"$]	c #110603",
"%]	c #261108",
"&]	c #B85525",
"*]	c #A1360A",
"=]	c #583628",
"-]	c #9B9A98",
";]	c #ACABA9",
">]	c #4C3328",
",]	c #A1380C",
"']	c #762708",
")]	c #B05023",
"!]	c #391A0B",
"~]	c #170A04",
"{]	c #341608",
"]]	c #5D2810",
"^]	c #813615",
"/]	c #9D421A",
"(]	c #B34C1C",
"_]	c #AA4618",
":]	c #712D0F",
"<]	c #1D0C03",
"[]	c #742E10",
"}]	c #A3451B",
"|]	c #7A3415",
"1]	c #481E0C",
"2]	c #1A0C05",
"3]	c #130903",
"4]	c #4E240F",
"5]	c #B44514",
"6]	c #581D06",
"7]	c #632B14",
"8]	c #7D7976",
"9]	c #91908F",
"0]	c #5A301E",
"a]	c #89300A",
"b]	c #8F3009",
"c]	c #B14212",
"d]	c #C95C28",
"e]	c #411D0D",
"f]	c #38180A",
"g]	c #6F3013",
"h]	c #9D431A",
"i]	c #A5471D",
"j]	c #733314",
"k]	c #3B1A0B",
"l]	c #793818",
"m]	c #742708",
"n]	c #411605",
"o]	c #A73B0D",
"p]	c #5D534E",
"q]	c #F5F3F0",
"r]	c #726A66",
"s]	c #672B12",
"t]	c #73280A",
"u]	c #5D2A13",
"v]	c #271107",
"w]	c #5E2911",
"x]	c #96421A",
"y]	c #C15422",
"z]	c #0F0603",
"A]	c #AE4618",
"B]	c #B95121",
"C]	c #8A3C19",
"D]	c #4D220E",
"E]	c #A04920",
"F]	c #8C310B",
"G]	c #413530",
"H]	c #DCDAD7",
"I]	c #554943",
"J]	c #752909",
"K]	c #5C2108",
"L]	c #7B3818",
"M]	c #281308",
"N]	c #160904",
"O]	c #2C1307",
"P]	c #6F3014",
"Q]	c #B34819",
"R]	c #160903",
"S]	c #401A09",
"T]	c #C05523",
"U]	c #883C19",
"V]	c #3D1B0B",
"W]	c #B85425",
"X]	c #461905",
"Y]	c #712809",
"Z]	c #3C2C25",
"`]	c #C3C1BF",
" ^	c #D7D6D3",
".^	c #3C2E28",
"+^	c #87300B",
"@^	c #9D3206",
"#^	c #D4612B",
"$^	c #893F1B",
"%^	c #2F160A",
"&^	c #5D2911",
"*^	c #A6491E",
"=^	c #3B1908",
"-^	c #401A08",
";^	c #BC4D1B",
">^	c #B55021",
",^	c #6B2F13",
"'^	c #1E0E05",
")^	c #592812",
"!^	c #602107",
"~^	c #571F07",
"{^	c #4C3024",
"]^	c #ABA9A7",
"^^	c #C0BFBC",
"/^	c #3C2921",
"(^	c #96360D",
"_^	c #AA4D21",
":^	c #210F07",
"<^	c #0E0703",
"[^	c #381A0A",
"}^	c #8C3F19",
"|^	c #CB5824",
"1^	c #AF4719",
"2^	c #301406",
"3^	c #260F06",
"4^	c #983E16",
"5^	c #3A1B0B",
"6^	c #3D1605",
"7^	c #A43A0E",
"8^	c #5A301F",
"9^	c #92908E",
"0^	c #4A2C20",
"a^	c #A73B0F",
"b^	c #812F0B",
"c^	c #341205",
"d^	c #9B360C",
"e^	c #47210E",
"f^	c #120804",
"g^	c #592811",
"h^	c #AF4D21",
"i^	c #863713",
"j^	c #62280E",
"k^	c #B3491A",
"l^	c #AA4C1F",
"m^	c #542510",
"n^	c #180B05",
"o^	c #B25123",
"p^	c #2C0F04",
"q^	c #8B320C",
"r^	c #652B13",
"s^	c #766D68",
"t^	c #93908E",
"u^	c #59301F",
"v^	c #491A06",
"w^	c #733417",
"x^	c #713216",
"y^	c #A44318",
"z^	c #4F200B",
"A^	c #281106",
"B^	c #873714",
"C^	c #612B12",
"D^	c #5E2A12",
"E^	c #441806",
"F^	c #752A0B",
"G^	c #70280A",
"H^	c #5C4F49",
"I^	c #F5F4F1",
"J^	c #79726D",
"K^	c #652E17",
"L^	c #5A2109",
"M^	c #5E2108",
"N^	c #97441E",
"O^	c #2B1308",
"P^	c #783717",
"Q^	c #CA5A26",
"R^	c #783112",
"S^	c #54230D",
"T^	c #A84619",
"U^	c #B65122",
"V^	c #632C13",
"W^	c #261107",
"X^	c #9C461E",
"Y^	c #5D2109",
"Z^	c #7F2E0B",
"`^	c #463832",
" /	c #E3E1DE",
"./	c #FBF9F6",
"+/	c #625751",
"@/	c #6F280B",
"#/	c #AB3E10",
"$/	c #461906",
"%/	c #BD5524",
"&/	c #773516",
"*/	c #CA5B26",
"=/	c #993F17",
"-/	c #431C0A",
";/	c #2E1306",
">/	c #7D3413",
",/	c #B14F21",
"'/	c #5F2B12",
")/	c #71290A",
"!/	c #471A07",
"~/	c #8F340D",
"{/	c #332721",
"]/	c #CECCCA",
"^/	c #E7E5E2",
"//	c #4C403A",
"(/	c #7D2D0C",
"_/	c #9A380F",
":/	c #331305",
"</	c #85300C",
"[/	c #7D3818",
"}/	c #33160A",
"|/	c #6E3214",
"1/	c #C55825",
"2/	c #BE501D",
"3/	c #6F2E11",
"4/	c #281006",
"5/	c #311508",
"6/	c #4F210C",
"7/	c #A24419",
"8/	c #A44A1F",
"9/	c #4C220E",
"0/	c #9B451D",
"a/	c #88300C",
"b/	c #311205",
"c/	c #9D390F",
"d/	c #422D24",
"e/	c #D3D1CF",
"f/	c #382C27",
"g/	c #8B330E",
"h/	c #98370E",
"i/	c #AE4E21",
"j/	c #5A2711",
"k/	c #B75222",
"l/	c #953E17",
"m/	c #3D1909",
"n/	c #371708",
"o/	c #7A3313",
"p/	c #783617",
"q/	c #9E390F",
"r/	c #361405",
"s/	c #84310E",
"t/	c #AB3F11",
"u/	c #503124",
"v/	c #A5A4A2",
"w/	c #BFBEBC",
"x/	c #3F2E26",
"y/	c #993910",
"z/	c #762C0D",
"A/	c #441907",
"B/	c #AC3F11",
"C/	c #8C3F1A",
"D/	c #32160A",
"E/	c #231108",
"F/	c #BD4F1E",
"G/	c #6C2D11",
"H/	c #2E1407",
"I/	c #4E210C",
"J/	c #A34519",
"K/	c #C95A25",
"L/	c #773416",
"M/	c #4A1B07",
"N/	c #70290B",
"O/	c #5B3120",
"P/	c #91908D",
"Q/	c #ADABA9",
"R/	c #A73E11",
"S/	c #64250A",
"T/	c #551F08",
"U/	c #893D19",
"V/	c #953F17",
"W/	c #3E1909",
"X/	c #3D1A09",
"Y/	c #7C3414",
"Z/	c #AE4D21",
"`/	c #8A3E19",
" (	c #5E2309",
".(	c #5C220A",
"+(	c #663019",
"@(	c #7B7470",
"#(	c #9A9997",
"$(	c #563020",
"%(	c #531F09",
"&(	c #A2481E",
"*(	c #6E2E12",
"=(	c #2F1308",
"-(	c #371709",
";(	c #54240D",
">(	c #AA471B",
",(	c #722A0B",
"'(	c #491B07",
")(	c #6E2A0D",
"!(	c #665C58",
"~(	c #FDFBF8",
"{(	c #878482",
"](	c #5F2E19",
"^(	c #A94012",
"/(	c #421907",
"((	c #9C4219",
"_(	c #361506",
":(	c #9F3D12",
"<(	c #7B2E0D",
"[(	c #534742",
"}(	c #EBE9E7",
"|(	c #736C68",
"1(	c #682A0E",
"2(	c #9A3A11",
"3(	c #8A330F",
"4(	c #783314",
"5(	c #61280F",
"6(	c #B84D1E",
"7(	c #96380F",
"8(	c #2F1205",
"9(	c #8D3510",
"0(	c #87330E",
"a(	c #DAD8D6",
"b(	c #F6F4F1",
"c(	c #605651",
"d(	c #732C0D",
"e(	c #8A340F",
"f(	c #321305",
"g(	c #9A3911",
"h(	c #AA481B",
"i(	c #51220D",
"j(	c #331609",
"k(	c #974018",
"l(	c #AA3F12",
"m(	c #411907",
"n(	c #7C300F",
"o(	c #943811",
"p(	c #372B25",
"q(	c #C9C7C5",
"r(	c #E6E4E1",
"s(	c #4E433E",
"t(	c #7F300F",
"u(	c #7B2F0E",
"v(	c #421908",
"w(	c #AB4013",
"x(	c #8A3B16",
"y(	c #521F09",
"z(	c #6B290C",
"A(	c #A03D12",
"B(	c #443128",
"C(	c #B8B7B5",
"D(	c #D6D4D2",
"E(	c #3E332E",
"F(	c #8B3510",
"G(	c #6C2A0D",
"H(	c #511F09",
"I(	c #6A2D11",
"J(	c #2B1306",
"K(	c #50220D",
"L(	c #B14C1D",
"M(	c #64260B",
"N(	c #5A230B",
"O(	c #AD4314",
"P(	c #4F352A",
"Q(	c #C7C5C3",
"R(	c #392C26",
"S(	c #5E250B",
"T(	c #60250B",
"U(	c #A4461C",
"V(	c #431C0B",
"W(	c #2B1307",
"X(	c #943F18",
"Y(	c #742C0D",
"Z(	c #B34516",
"`(	c #552C1A",
" _	c #999896",
"._	c #443229",
"+_	c #A23E14",
"@_	c #4F1F0A",
"#_	c #6F2A0D",
"$_	c #3A1607",
"%_	c #A34014",
"&_	c #5D2A14",
"*_	c #898684",
"=_	c #A9A8A6",
"-_	c #4F362A",
";_	c #AE4316",
">_	c #AA4315",
",_	c #411908",
"'_	c #7D310F",
")_	c #2B1208",
"!_	c #2A1107",
"~_	c #59260F",
"{_	c #BC501E",
"]_	c #943911",
"^_	c #2B1105",
"/_	c #672A10",
"(_	c #78716E",
"__	c #563121",
":_	c #9C3D14",
"<_	c #341407",
"[_	c #8C3611",
"}_	c #B24C1D",
"|_	c #4C210C",
"1_	c #2D1308",
"2_	c #391809",
"3_	c #A6471C",
"4_	c #A53F14",
"5_	c #863411",
"6_	c #702C0E",
"7_	c #685F5A",
"8_	c #FCFAF7",
"9_	c #8D8B8A",
"0_	c #5F331F",
"a_	c #903913",
"b_	c #9A3D13",
"c_	c #923E18",
"d_	c #B34616",
"e_	c #4A1D09",
"f_	c #772F10",
"g_	c #7A300F",
"h_	c #584D48",
"i_	c #EEECE9",
"j_	c #7D7875",
"k_	c #67331B",
"l_	c #833411",
"m_	c #3D1808",
"n_	c #A74215",
"o_	c #893A16",
"p_	c #1F0D05",
"q_	c #261007",
"r_	c #813715",
"s_	c #853511",
"t_	c #4B3F39",
"u_	c #E0DFDC",
"v_	c #6F6662",
"w_	c #6F3217",
"x_	c #783010",
"y_	c #4A1D0A",
"z_	c #B54818",
"A_	c #783313",
"B_	c #240F06",
"C_	c #723013",
"D_	c #66280D",
"E_	c #5B240C",
"F_	c #8F3913",
"G_	c #3D312C",
"H_	c #D3D2CF",
"I_	c #615751",
"J_	c #762F10",
"K_	c #6C2B0E",
"L_	c #56220C",
"M_	c #692C11",
"N_	c #271006",
"O_	c #662B11",
"P_	c #742E0F",
"Q_	c #4E1F0B",
"R_	c #B94A1A",
"S_	c #993E15",
"T_	c #382B25",
"U_	c #E9E7E5",
"V_	c #544842",
"W_	c #7F3312",
"X_	c #60270D",
"Y_	c #62270D",
"Z_	c #A93C0D",
"`_	c #5D280F",
" :	c #5B270E",
".:	c #BF511E",
"+:	c #813311",
"@:	c #411A09",
"#:	c #AC4517",
"$:	c #A24116",
"%:	c #423027",
"&:	c #BBB9B7",
"*:	c #DEDCD9",
"=:	c #483B35",
"-:	c #873613",
";:	c #55220C",
">:	c #B84E1D",
",:	c #52230D",
"':	c #B94E1E",
"):	c #8F3A13",
"!:	c #A04117",
"~:	c #AC4618",
"{:	c #4A3329",
"]:	c #AFADAB",
"^:	c #D2D1CE",
"/:	c #3D302A",
"(:	c #913B15",
"_:	c #B4491A",
"::	c #7B3211",
"<:	c #B24B1C",
"[:	c #491F0B",
"}:	c #491E0B",
"|:	c #B54C1D",
"1:	c #9C3F15",
"2:	c #943B15",
"3:	c #B44919",
"4:	c #523426",
"5:	c #372923",
"6:	c #993E16",
"7:	c #AB4518",
"8:	c #3F1909",
"9:	c #853612",
"0:	c #AE491C",
"a:	c #441D0B",
"b:	c #B44C1D",
"c:	c #A94418",
"d:	c #883814",
"e:	c #5A3625",
"f:	c #989795",
"g:	c #BDBCB9",
"h:	c #3F2D25",
"i:	c #351608",
"j:	c #903B15",
"k:	c #C3531F",
"l:	c #421B0B",
"m:	c #B64C1C",
"n:	c #491E0A",
"o:	c #7D3312",
"p:	c #613623",
"q:	c #8C8885",
"r:	c #B3B2B0",
"s:	c #463025",
"t:	c #A94619",
"u:	c #2F1307",
"v:	c #9B3F16",
"w:	c #B14A1B",
"x:	c #54220C",
"y:	c #722F11",
"z:	c #683620",
"A:	c #807975",
"B:	c #4D3225",
"C:	c #B1491B",
"D:	c #8D3A15",
"E:	c #A64518",
"F:	c #461E0B",
"G:	c #50220C",
"H:	c #6E351C",
"I:	c #746B66",
"J:	c #A09F9D",
"K:	c #543324",
"L:	c #B84C1C",
"M:	c #843714",
"N:	c #B0481B",
"O:	c #C0511E",
"P:	c #4F210B",
"Q:	c #5F270F",
"R:	c #743417",
"S:	c #695E58",
"T:	c #979491",
"U:	c #5B3625",
"V:	c #4D200C",
"W:	c #5E270F",
"X:	c #712F11",
"Y:	c #B44414",
"Z:	c #753011",
"`:	c #53220C",
" <	c #793212",
".<	c #5F524C",
"+<	c #F3F1EE",
"@<	c #8C8784",
"#<	c #613724",
"$<	c #722F12",
"%<	c #56240D",
"&<	c #AC3D10",
"*<	c #883815",
"=<	c #7F3513",
"-<	c #4A1F0C",
";<	c #813614",
"><	c #564841",
",<	c #837C78",
"'<	c #673822",
")<	c #60280F",
"!<	c #401B0A",
"~<	c #873815",
"{<	c #4D3F38",
"]<	c #E2E1DE",
"^<	c #7A716D",
"/<	c #6C381F",
"(<	c #61290F",
"_<	c #692C10",
":<	c #3B1909",
"<<	c #923D17",
"[<	c #A5461A",
"}<	c #453730",
"|<	c #716762",
"1<	c #71371D",
"2<	c #59260E",
"3<	c #3E1A09",
"4<	c #682B0F",
"5<	c #9B4119",
"6<	c #953E18",
"7<	c #3D3029",
"8<	c #D2D0CE",
"9<	c #FBF9F7",
"0<	c #695E59",
"a<	c #76371A",
"b<	c #BF511F",
"c<	c #51230D",
"d<	c #793313",
"e<	c #6D2D10",
"f<	c #953D16",
"g<	c #A4461B",
"h<	c #361709",
"i<	c #362923",
"j<	c #CAC8C6",
"k<	c #615650",
"l<	c #7B3516",
"m<	c #B84F1F",
"n<	c #4A200C",
"o<	c #823716",
"p<	c #AD491C",
"q<	c #8D3D18",
"r<	c #A1451A",
"s<	c #C2C1BE",
"t<	c #EDEBE8",
"u<	c #5A4E48",
"v<	c #8A3A17",
"w<	c #441B0A",
"x<	c #260D04",
"y<	c #0E0502",
"z<	c #230E05",
"A<	c #7E3312",
"B<	c #B54D1E",
"C<	c #461E0C",
"D<	c #863A17",
"E<	c #A8481D",
"F<	c #E6E4E2",
"G<	c #534741",
"H<	c #AB4A1D",
"I<	c #3C1A0A",
"J<	c #913F19",
"K<	c #AD4011",
"L<	c #843613",
"M<	c #531E07",
"N<	c #351205",
"O<	c #481906",
"P<	c #B94B1A",
"Q<	c #BC511F",
"R<	c #4D210D",
"S<	c #7F3716",
"T<	c #AE4A1D",
"U<	c #473228",
"V<	c #B4B2B0",
"W<	c #E0DEDB",
"X<	c #4D403A",
"Y<	c #8C3C18",
"Z<	c #A4471C",
"`<	c #351709",
" [	c #984219",
".[	c #AD4010",
"+[	c #391708",
"@[	c #5C2008",
"#[	c #1E0A02",
"$[	c #752809",
"%[	c #93350D",
"&[	c #7D3311",
"*[	c #C45521",
"=[	c #55250E",
"-[	c #793415",
";[	c #B44E1F",
">[	c #4D352A",
",[	c #ADACAA",
"'[	c #D9D8D5",
")[	c #473A34",
"![	c #9E451C",
"~[	c #301508",
"{[	c #A0451C",
"][	c #2F1305",
"^[	c #210B03",
"/[	c #87300C",
"([	c #4D1A06",
"_[	c #9D360B",
":[	c #331407",
"<[	c #5C2710",
"[[	c #723214",
"}[	c #B9501F",
"|[	c #513427",
"1[	c #A7A5A3",
"2[	c #41342E",
"3[	c #99421A",
"4[	c #361809",
"5[	c #A6481D",
"6[	c #491D0A",
"7[	c #792908",
"8[	c #692609",
"9[	c #200D04",
"0[	c #953B14",
"a[	c #632B11",
"b[	c #6C2F13",
"c[	c #BF5322",
"d[	c #553527",
"e[	c #A19F9D",
"f[	c #3C2F29",
"g[	c #9B431C",
"h[	c #93411A",
"i[	c #3D1A0B",
"j[	c #AE4C1F",
"k[	c #A14116",
"l[	c #270F06",
"m[	c #A0370C",
"n[	c #471905",
"o[	c #5E260C",
"p[	c #692D12",
"q[	c #672D12",
"r[	c #C35522",
"s[	c #593625",
"t[	c #C8C7C4",
"u[	c #A0461C",
"v[	c #8D3E19",
"w[	c #421D0C",
"x[	c #B34F20",
"y[	c #6C2407",
"z[	c #4C1A06",
"A[	c #250E05",
"B[	c #6F3114",
"C[	c #612A11",
"D[	c #C95824",
"E[	c #5D3724",
"F[	c #959492",
"G[	c #C3C2BF",
"H[	c #3B2D26",
"I[	c #A4481E",
"J[	c #893C19",
"K[	c #B95222",
"L[	c #3E1605",
"M[	c #842C08",
"N[	c #6C2306",
"O[	c #A34115",
"P[	c #753315",
"Q[	c #5C2811",
"R[	c #613622",
"S[	c #BEBDBB",
"T[	c #3F2F28",
"U[	c #A94A1E",
"V[	c #843A18",
"W[	c #BE5422",
"X[	c #7C2C0A",
"Y[	c #933108",
"Z[	c #331102",
"`[	c #873512",
" }	c #7A3616",
".}	c #572710",
"+}	c #C85925",
"@}	c #653620",
"#}	c #8A8684",
"$}	c #BAB8B6",
"%}	c #433129",
"&}	c #AC4C20",
"*}	c #803918",
"=}	c #52250F",
"-}	c #C55824",
";}	c #993C13",
">}	c #3A1504",
",}	c #A03509",
"'}	c #411503",
")}	c #120501",
"!}	c #712C0E",
"~}	c #7F3817",
"{}	c #52240F",
"]}	c #C35723",
"^}	c #68351E",
"/}	c #85807D",
"(}	c #B6B4B2",
"_}	c #46332A",
":}	c #B04E20",
"<}	c #572610",
"[}	c #C95925",
"}}	c #843410",
"|}	c #7E2C0A",
"1}	c #4D1904",
"2}	c #1B0901",
"3}	c #892D07",
"4}	c #4E1B06",
"5}	c #63260C",
"6}	c #853B19",
"7}	c #4E230F",
"8}	c #BF5523",
"9}	c #6B361D",
"0}	c #807A77",
"a}	c #B2B0AE",
"b}	c #49352B",
"c}	c #B45022",
"d}	c #5C2911",
"e}	c #782F0E",
"f}	c #551C04",
"g}	c #94340B",
"h}	c #5B230B",
"i}	c #4A210E",
"j}	c #6F371D",
"k}	c #AEADAB",
"l}	c #4C362B",
"m}	c #B85222",
"n}	c #743416",
"o}	c #722C0E",
"p}	c #92330B",
"q}	c #541B04",
"r}	c #1E0A01",
"s}	c #5C240B",
"t}	c #461F0D",
"u}	c #B85223",
"v}	c #72381D",
"w}	c #776F6B",
"x}	c #4F372C",
"y}	c #BA5424",
"z}	c #713316",
"A}	c #AE4111",
"B}	c #6D2609",
"C}	c #862B05",
"D}	c #65270C",
"E}	c #421E0D",
"F}	c #B55122",
"G}	c #75391D",
"H}	c #736B66",
"I}	c #A8A6A4",
"J}	c #513528",
"K}	c #6E3115",
"L}	c #80310F",
"M}	c #2B1005",
"N}	c #4B1A06",
"O}	c #3F1402",
"P}	c #9B370C",
"Q}	c #762D0E",
"R}	c #96431D",
"S}	c #B25122",
"T}	c #783A1E",
"U}	c #6F6661",
"V}	c #FEFCF9",
"W}	c #A5A3A2",
"X}	c #533729",
"Y}	c #C05726",
"Z}	c #6A3015",
"`}	c #933811",
" |	c #2A0E03",
".|	c #9D370D",
"+|	c #862F0A",
"@|	c #160702",
"#|	c #220E04",
"$|	c #8F3710",
"%|	c #3C1B0C",
"&|	c #AF4F21",
"*|	c #7B3B1E",
"=|	c #6C635D",
"-|	c #A2A19F",
";|	c #553829",
">|	c #C35926",
",|	c #693014",
"'|	c #6D3115",
")|	c #AE4213",
"!|	c #88300B",
"~|	c #962E05",
"{|	c #1C0801",
"]|	c #661F03",
"^|	c #792A09",
"/|	c #B14315",
"(|	c #AD4F23",
"_|	c #7D3C1D",
":|	c #695F59",
"<|	c #57392A",
"[|	c #C55A27",
"}|	c #672F14",
"||	c #882A04",
"1|	c #4D1802",
"2|	c #4F1E09",
"3|	c #9E471F",
"4|	c #38190B",
"5|	c #AB4E21",
"6|	c #7F3D1D",
"7|	c #665C56",
"8|	c #F5F3F1",
"9|	c #9E9D9B",
"0|	c #59392A",
"a|	c #C75B27",
"b|	c #652E14",
"c|	c #723417",
"d|	c #7C2F0E",
"e|	c #742809",
"f|	c #2F0E01",
"g|	c #8E350F",
"h|	c #A14A20",
"i|	c #A94E22",
"j|	c #813D1D",
"k|	c #645953",
"l|	c #9C9B99",
"m|	c #5A3A2A",
"n|	c #C95C29",
"o|	c #642E14",
"p|	c #743517",
"q|	c #B04214",
"r|	c #742909",
"s|	c #571B02",
"t|	c #371406",
"u|	c #A34A20",
"v|	c #34180A",
"w|	c #A84D21",
"x|	c #833E1D",
"y|	c #625650",
"z|	c #F1EFEC",
"A|	c #5B3A2A",
"B|	c #CA5D29",
"C|	c #622D14",
"D|	c #763618",
"E|	c #69270B",
"F|	c #772909",
"G|	c #671E02",
"H|	c #782A09",
"I|	c #180803",
"J|	c #87330F",
"K|	c #A5380C",
"L|	c #D9662E",
"M|	c #A54C21",
"N|	c #33170A",
"O|	c #A84D22",
"P|	c #853E1D",
"Q|	c #60544E",
"R|	c #9A9897",
"S|	c #5D3B2A",
"T|	c #CC5E29",
"U|	c #773718",
"V|	c #AB4012",
"W|	c #220D03",
"X|	c #3D1201",
"Y|	c #832D0A",
"Z|	c #441A07",
"`|	c #A64C21",
" 1	c #863E1C",
".1	c #999794",
"+1	c #5D3A29",
"@1	c #612D14",
"#1	c #783718",
"$1	c #782C0C",
"%1	c #290F03",
"&1	c #8A300A",
"*1	c #621D01",
"=1	c #892902",
"-1	c #130702",
";1	c #A64D22",
">1	c #873E1C",
",1	c #5E514A",
"'1	c #ECEAE8",
")1	c #979593",
"!1	c #5E3B29",
"~1	c #CC5E2A",
"{1	c #793718",
"]1	c #3F1706",
"^1	c #451805",
"/1	c #9C370C",
"(1	c #5A1A01",
"_1	c #581F06",
":1	c #160802",
"<1	c #71290C",
"[1	c #A54C22",
"}1	c #873F1B",
"|1	c #5D5049",
"11	c #5E3A29",
"21	c #602C14",
"31	c #7E2502",
"41	c #4A1C08",
"51	c #A54D23",
"61	c #883F1C",
"71	c #25150C",
"81	c #E4E3E2",
"91	c #979492",
"01	c #5E3B2A",
"a1	c #7E2E0D",
"b1	c #812D0A",
"c1	c #4F1601",
"d1	c #96340B",
"e1	c #491A05",
"f1	c #240C03",
"g1	c #2D1105",
"h1	c #A93E10",
"i1	c #33180A",
"j1	c #A64C22",
"k1	c #000000",
"l1	c #FFFEFB",
"m1	c #979592",
"n1	c #4A2817",
"o1	c #CB5E2A",
"p1	c #602D13",
"q1	c #773617",
"r1	c #63240A",
"s1	c #A2380C",
"t1	c #772201",
"u1	c #130400",
"v1	c #812501",
"w1	c #210C04",
"x1	c #190C05",
"y1	c #585756",
"z1	c #010100",
"A1	c #401D0D",
"B1	c #CA5D2A",
"C1	c #763617",
"D1	c #592009",
"E1	c #3B1504",
"F1	c #862E0A",
"G1	c #A4390D",
"H1	c #652307",
"I1	c #91340E",
"J1	c #A34B20",
"K1	c #883F1B",
"L1	c #3E1D0C",
"M1	c #561F08",
"N1	c #240E03",
"O1	c #9B350C",
"P1	c #200C02",
"Q1	c #A34A21",
"R1	c #873E1B",
"S1	c #C95D29",
"T1	c #5B2108",
"U1	c #2D0C00",
"V1	c #601B00",
"W1	c #9B360B",
"X1	c #311204",
"Y1	c #94350D",
"Z1	c #A0491F",
"`1	c #35180B",
" 2	c #A84C21",
".2	c #853D1B",
"+2	c #642409",
"@2	c #1C0903",
"#2	c #391305",
"$2	c #531700",
"%2	c #280B00",
"&2	c #551801",
"*2	c #7A2301",
"=2	c #551F07",
"-2	c #A53B0E",
";2	c #9E481F",
">2	c #833C1A",
",2	c #C65A27",
"'2	c #6D3215",
")2	c #8D310B",
"!2	c #8C2801",
"~2	c #671E01",
"{2	c #3D1100",
"]2	c #7F2401",
"^2	c #97340B",
"/2	c #6C2508",
"(2	c #381403",
"_2	c #9B461E",
":2	c #AA4D22",
"<2	c #813B19",
"[2	c #381A0B",
"}2	c #C35927",
"|2	c #6A3014",
"12	c #6C2609",
"22	c #942A01",
"32	c #6C1F01",
"42	c #220900",
"52	c #8C2903",
"62	c #9E360C",
"72	c #5B2107",
"82	c #361304",
"92	c #2C0F03",
"02	c #5A2007",
"a2	c #8A310B",
"b2	c #98451E",
"c2	c #AD4F22",
"d2	c #7E3A19",
"e2	c #150A04",
"f2	c #36190B",
"g2	c #C15826",
"h2	c #6B3115",
"i2	c #822E0B",
"j2	c #5B2008",
"k2	c #1E0A03",
"l2	c #93340B",
"m2	c #4E1701",
"n2	c #722102",
"o2	c #A4390C",
"p2	c #531C06",
"q2	c #4A1A05",
"r2	c #451706",
"s2	c #451806",
"t2	c #501C06",
"u2	c #6A2508",
"v2	c #94431C",
"w2	c #AE4F22",
"x2	c #BE5624",
"y2	c #A7390D",
"z2	c #9E370C",
"A2	c #8C2902",
"B2	c #601C01",
"C2	c #2D0D00",
"D2	c #230B00",
"E2	c #5D1C02",
"F2	c #8B2903",
"G2	c #90411C",
"H2	c #B15023",
"I2	c #2E1409",
"J2	c #BB5424",
"K2	c #602B12",
"L2	c #CE5B27",
"M2	c #792402",
"N2	c #4C1601",
"O2	c #4A1601",
"P2	c #8C3E1A",
"Q2	c #B35122",
"R2	c #5B2911",
"S2	c #691F02",
"T2	c #6E2102",
"U2	c #883D1A",
"V2	c #48200E",
"W2	c #B75223",
"X2	c #713315",
"Y2	c #281208",
"Z2	c #C35724",
"`2	c #5E1C02",
" 3	c #651E02",
".3	c #833A18",
"+3	c #4B210E",
"@3	c #B95223",
"#3	c #6D3114",
"$3	c #B14F20",
"%3	c #BE5321",
"&3	c #A5390B",
"*3	c #862803",
"=3	c #240B02",
"-3	c #692F14",
";3	c #0F0703",
">3	c #AD4D20",
",3	c #501902",
"'3	c #793516",
")3	c #662D13",
"!3	c #0E0602",
"~3	c #1F0D06",
"{3	c #A94B1F",
"]3	c #853A18",
"^3	c #481F0D",
"/3	c #B24D1F",
"(3	c #4F1802",
"_3	c #611E03",
":3	c #992E05",
"<3	c #A03407",
"[3	c #582710",
"}3	c #C55724",
"|3	c #622B12",
"13	c #A5491E",
"23	c #8A3D19",
"33	c #AC4B1F",
"43	c #1E0901",
"53	c #260B02",
"63	c #671F03",
"73	c #9F3206",
"83	c #6E3013",
"93	c #C85824",
"03	c #0A0402",
"a3	c #FFFEFA",
"b3	c #8E3E19",
"c3	c #682D13",
"d3	c #622B11",
"e3	c #592710",
"f3	c #080402",
"g3	c #9C441C",
"h3	c #94411A",
"i3	c #9E451B",
"j3	c #651F03",
"k3	c #411401",
"l3	c #802703",
"m3	c #612A10",
"n3	c #682E12",
"o3	c #050201",
"p3	c #97421A",
"q3	c #99431B",
"r3	c #2F1508",
"s3	c #974019",
"t3	c #2E0E01",
"u3	c #1D0801",
"v3	c #571A03",
"w3	c #C45421",
"x3	c #5B2710",
"y3	c #6D3013",
"z3	c #4B210D",
"A3	c #030101",
"B3	c #924019",
"C3	c #903D18",
"D3	c #872904",
"E3	c #431502",
"F3	c #BC501F",
"G3	c #54240E",
"H3	c #733214",
"I3	c #441D0C",
"J3	c #8C3D18",
"K3	c #3D1A0A",
"L3	c #873A16",
"M3	c #852804",
"N3	c #B44D1E",
"O3	c #793515",
"P3	c #BD5221",
"Q3	c #873A17",
"R3	c #803715",
"S3	c #792503",
"T3	c #601D03",
"U3	c #451D0C",
"V3	c #803716",
"W3	c #B64F1F",
"X3	c #150903",
"Y3	c #823715",
"Z3	c #B24C1E",
"`3	c #4B200D",
" 4	c #773213",
".4	c #321001",
"+4	c #B14D1E",
"@4	c #BA501F",
"#4	c #53240E",
"$4	c #351708",
"%4	c #8E3C17",
"&4	c #703012",
"*4	c #C1511F",
"=4	c #5C270F",
"-4	c #662A10",
";4	c #932C04",
">4	c #7F2703",
",4	c #923E17",
"'4	c #954018",
")4	c #A6461C",
"!4	c #642A10",
"~4	c #240A01",
"{4	c #601C02",
"]4	c #893915",
"^4	c #9F431A",
"/4	c #6D2E11",
"(4	c #B64B1B",
"_4	c #B44415",
":4	c #9E3307",
"<4	c #3A1101",
"[4	c #8A2904",
"}4	c #803514",
"|4	c #994119",
"14	c #180A04",
"24	c #53230D",
"34	c #AB4719",
"44	c #802603",
"54	c #702202",
"64	c #763012",
"74	c #923D16",
"84	c #0B0502",
"94	c #7F3514",
"04	c #A04217",
"a4	c #541902",
"b4	c #9C2F05",
"c4	c #6C2D10",
"d4	c #52220D",
"e4	c #8B3B16",
"f4	c #080301",
"g4	c #421C0A",
"h4	c #BA4E1D",
"i4	c #341508",
"j4	c #952D03",
"k4	c #491702",
"l4	c #882803",
"m4	c #9B2E04",
"n4	c #61280E",
"o4	c #5B260E",
"p4	c #BE4F1E",
"q4	c #040201",
"r4	c #381708",
"s4	c #B34A1B",
"t4	c #893714",
"u4	c #9D3005",
"v4	c #802602",
"w4	c #57240D",
"x4	c #652A0F",
"y4	c #170903",
"z4	c #9D4118",
"A4	c #601D01",
"B4	c #4D1F0B",
"C4	c #6E2D10",
"D4	c #753111",
"E4	c #A34318",
"F4	c #9B3004",
"G4	c #4D1701",
"H4	c #A34217",
"I4	c #421B09",
"J4	c #793112",
"K4	c #9B4017",
"L4	c #401301",
"M4	c #963C14",
"N4	c #823513",
"O4	c #5B250D",
"P4	c #933C15",
"Q4	c #5F270D",
"R4	c #57230B",
"S4	c #B44717",
"T4	c #852702",
"U4	c #8A3713",
"V4	c #8D3914",
"W4	c #4E200B",
"X4	c #8A3814",
"Y4	c #6C2C0F",
"Z4	c #A64216",
"`4	c #7C3110",
" 5	c #973D15",
".5	c #803412",
"+5	c #983B12",
"@5	c #702001",
"#5	c #6E2001",
"$5	c #702C0F",
"%5	c #451B09",
"&5	c #A44217",
"*5	c #381608",
"=5	c #020101",
"-5	c #783011",
";5	c #863512",
">5	c #893511",
",5	c #681E01",
"'5	c #63270C",
")5	c #AE4517",
"!5	c #A74316",
"~5	c #110702",
"{5	c #69290E",
"]5	c #933A13",
"^5	c #371607",
"/5	c #7A2F0E",
"(5	c #621C01",
"_5	c #B24616",
":5	c #5E250D",
"<5	c #9D3F15",
"[5	c #0D0502",
"}5	c #A24015",
"|5	c #461B09",
"15	c #6B290D",
"25	c #5F1B01",
"35	c #180600",
"45	c #621C00",
"55	c #A43F13",
"65	c #481C09",
"75	c #4C1E0A",
"85	c #AF4516",
"95	c #55210B",
"05	c #972C01",
"a5	c #953911",
"b5	c #3A1707",
"c5	c #893612",
"d5	c #130802",
"e5	c #B04516",
"f5	c #65270D",
"g5	c #4B1D09",
"h5	c #A23D12",
"i5	c #5E1A00",
"j5	c #641C00",
"k5	c #2C1105",
"l5	c #7F3210",
"m5	c #A54014",
"n5	c #742D0E",
"o5	c #3A1606",
"p5	c #913710",
"q5	c #691E00",
"r5	c #762D0D",
"s5	c #381607",
"t5	c #923912",
"u5	c #9A3C13",
"v5	c #843310",
"w5	c #962C01",
"x5	c #120400",
"y5	c #6F1F00",
"z5	c #66260B",
"A5	c #461B08",
"B5	c #A03E13",
"C5	c #69280D",
"D5	c #0F0602",
"E5	c #3C1706",
"F5	c #6D1E00",
"G5	c #AF4113",
"H5	c #562009",
"I5	c #56210A",
"J5	c #AF4314",
"K5	c #58220B",
"L5	c #0B0401",
"M5	c #83320F",
"N5	c #A53F13",
"O5	c #4E1D09",
"P5	c #5B2209",
"Q5	c #772200",
"R5	c #9D3A10",
"S5	c #461A07",
"T5	c #66270B",
"U5	c #B14415",
"V5	c #491C08",
"W5	c #772D0D",
"X5	c #61240A",
"Y5	c #481B07",
"Z5	c #912900",
"`5	c #8B340E",
" 6	c #351406",
".6	c #A64013",
"+6	c #100602",
"@6	c #69280C",
"#6	c #732B0D",
"$6	c #351405",
"%6	c #89320D",
"&6	c #300D00",
"*6	c #411200",
"=6	c #792C0B",
"-6	c #85320E",
";6	c #421200",
">6	c #5A1900",
",6	c #67250A",
"'6	c #963810",
")6	c #060201",
"!6	c #AC4013",
"~6	c #451907",
"{6	c #5F2209",
"]6	c #5B1A00",
"^6	c #711F00",
"/6	c #A83C0F",
"(6	c #541E08",
"_6	c #521E08",
":6	c #9A360D",
"<6	c #411806",
"[6	c #722B0C",
"}6	c #91360F",
"|6	c #822D0B",
"16	c #772C0C",
"26	c #140702",
"36	c #86310C",
"46	c #6A2408",
"56	c #411300",
"66	c #6B2609",
"76	c #371405",
"86	c #481B08",
"96	c #0A0401",
"06	c #9C380F",
"a6	c #4E1C07",
"b6	c #A63A0C",
"c6	c #561E07",
"d6	c #A13B0F",
"e6	c #FFFCFA",
"f6	c #120602",
"g6	c #652409",
"h6	c #662409",
"i6	c #381305",
"j6	c #872500",
"k6	c #461400",
"l6	c #90320B",
"m6	c #411705",
"n6	c #93360E",
"o6	c #0E0501",
"p6	c #802E0B",
"q6	c #682307",
"r6	c #952B00",
"s6	c #451400",
"t6	c #6E1F00",
"u6	c #832F0B",
"v6	c #98350C",
"w6	c #4C1A05",
"x6	c #963309",
"y6	c #722000",
"z6	c #622207",
"A6	c #74290A",
"B6	c #8F320C",
"C6	c #2F1003",
"D6	c #782807",
"E6	c #952900",
"F6	c #631B00",
"G6	c #983309",
"H6	c #491905",
"I6	c #521D06",
"J6	c #622308",
"K6	c #3D1504",
"L6	c #591D05",
"M6	c #A03508",
"N6	c #7C2908",
"O6	c #0F0601",
"P6	c #6B2508",
"Q6	c #A3380C",
"R6	c #391303",
"S6	c #260A00",
"T6	c #371304",
"U6	c #99350C",
"V6	c #301104",
"W6	c #070201",
"X6	c #4D1B06",
"Y6	c #7C2A08",
"Z6	c #361203",
"`6	c #5B1D05",
" 7	c #6B1E00",
".7	c #451704",
"+7	c #521C06",
"@7	c #9A350B",
"#7	c #311103",
"$7	c #9C360B",
"%7	c #330E00",
"&7	c #721F00",
"*7	c #702405",
"=7	c #6D2507",
"-7	c #742808",
";7	c #882E09",
">7	c #531A03",
",7	c #932E06",
"'7	c #983107",
")7	c #501A04",
"!7	c #431604",
"~7	c #892F09",
"{7	c #A1350A",
"]7	c #612006",
"^7	c #2B0E02",
"/7	c #6B2104",
"(7	c #501600",
"_7	c #2F0F02",
":7	c #A0360A",
"<7	c #371204",
"[7	c #070200",
"}7	c #491703",
"|7	c #3E1302",
"17	c #1F0800",
"27	c #6C1E00",
"37	c #501904",
"47	c #3E1403",
"57	c #8B2F08",
"67	c #030100",
"77	c #311003",
"87	c #9B3309",
"97	c #782200",
"07	c #491400",
"a7	c #611F05",
"b7	c #752707",
"c7	c #6B2205",
"d7	c #351002",
"e7	c #481501",
"f7	c #471704",
"g7	c #5E1F05",
"h7	c #9C3107",
"i7	c #6D2204",
"j7	c #3C1201",
"k7	c #862702",
"l7	c #6F2305",
"m7	c #953007",
"n7	c #2D0F02",
"o7	c #020000",
"p7	c #4A1500",
"q7	c #902A02",
"r7	c #290C01",
"s7	c #973007",
"t7	c #7C2806",
"u7	c #852B06",
"v7	c #4D1601",
"w7	c #2A0D01",
"x7	c #5B1D03",
"y7	c #8D2C04",
"z7	c #621F04",
"A7	c #692104",
"B7	c #260B00",
"C7	c #2E0E02",
"D7	c #040100",
"E7	c #090300",
"F7	c #3B1302",
"G7	c #962F06",
"H7	c #5B1900",
"I7	c #872702",
"J7	c #762404",
"K7	c #481603",
"L7	c #922900",
"M7	c #7A2403",
"N7	c #481502",
"O7	c #982E03",
"P7	c #732101",
"Q7	c #722001",
"R7	c #762402",
"S7	c #681F01",
"T7	c #571900",
"U7	c #0B0300",
"V7	c #4E1601",
"W7	c #320E01",
"X7	c #541800",
"Y7	c #421400",
"Z7	c #481400",
"`7	c #651D01",
" 8	c #3E1201",
".8	c #090707",
"+8	c #752101",
"@8	c #9BA0A0",
"#8	c #7D8282",
"$8	c #010101",
"%8	c #020100",
"&8	c #922A01",
"*8	c #792301",
"=8	c #ECF4F4",
"-8	c #9CA2A2",
";8	c #972D03",
">8	c #8A2802",
",8	c #852703",
"'8	c #812603",
")8	c #310E01",
"!8	c #421301",
"~8	c #6C1E01",
"{8	c #0A0300",
"]8	c #8D2B04",
"^8	c #571901",
"/8	c #110400",
"(8	c #902C04",
"_8	c #3A1202",
":8	c #692003",
"<8	c #6A2003",
"[8	c #270C01",
"}8	c #892B05",
"|8	c #8F2900",
"18	c #8C2C05",
"28	c #060200",
"38	c #902C05",
"48	c #4B1600",
"58	c #360F00",
"68	c #8D2700",
"78	c #5B1C04",
"88	c #0E0401",
"98	c #792605",
"08	c #872A04",
"a8	c #591B03",
"b8	c #2B0D01",
"c8	c #471400",
"d8	c #892701",
"e8	c #2D0E02",
"f8	c #8F2D05",
"g8	c #5A1C03",
"h8	c #541700",
"i8	c #691D00",
"j8	c #993107",
"k8	c #351102",
"l8	c #9D3107",
"m8	c #631C00",
"n8	c #691E01",
"o8	c #4B1500",
"p8	c #3B1100",
"q8	c #8E2C05",
"r8	c #672105",
"s8	c #782707",
"t8	c #772706",
"u8	c #521700",
"v8	c #7C2402",
"w8	c #862A05",
"x8	c #7F2906",
"y8	c #240C02",
"z8	c #8F3008",
"A8	c #912F07",
"B8	c #521B04",
"C8	c #391202",
"D8	c #952C03",
"E8	c #2C0E01",
"F8	c #8B2C07",
"G8	c #973208",
"H8	c #2D0F03",
"I8	c #9DA2A2",
"J8	c #401504",
"K8	c #5F1E03",
"L8	c #7B2300",
"M8	c #8A2600",
"N8	c #5F1F05",
"O8	c #993108",
"P8	c #692306",
"Q8	c #923008",
"R8	c #4F1A04",
"S8	c #852A05",
"T8	c #932D05",
"U8	c #541A03",
"V8	c #341003",
"W8	c #722506",
"X8	c #732608",
"Y8	c #7E2B09",
"Z8	c #632005",
"`8	c #501700",
" 9	c #270A00",
".9	c #802704",
"+9	c #401402",
"@9	c #4B1804",
"#9	c #8B2E08",
"$9	c #882D09",
"%9	c #92310A",
"&9	c #9E360B",
"*9	c #581E05",
"=9	c #832A06",
"-9	c #682105",
";9	c #A5390D",
">9	c #852E09",
",9	c #3C1404",
"'9	c #5A1D05",
")9	c #8F2D06",
"!9	c #4F1B05",
"~9	c #762707",
"{9	c #702406",
"]9	c #6E2708",
"^9	c #150802",
"/9	c #481805",
"(9	c #4D1A04",
"_9	c #8F310A",
":9	c #150702",
"<9	c #612106",
"[9	c #802300",
"}9	c #6D2406",
"|9	c #722709",
"19	c #91330C",
"29	c #702809",
"39	c #7B2A08",
"49	c #8C2F08",
"59	c #431704",
"69	c #551E07",
"79	c #A0380C",
"89	c #A2390D",
"99	c #391505",
"09	c #A33A0E",
"a9	c #441805",
"b9	c #93320A",
"c9	c #501D07",
"d9	c #4F1D07",
"e9	c #95360D",
"f9	c #662509",
"g9	c #812E0C",
"h9	c #3B1000",
"i9	c #98340B",
"j9	c #521D07",
"k9	c #A03A0F",
"l9	c #6D280A",
"m9	c #651D00",
"n9	c #642307",
"o9	c #3A1505",
"p9	c #89310C",
"q9	c #86310D",
"r9	c #AC3E11",
"s9	c #9B370D",
"t9	c #95370F",
"u9	c #94380F",
"v9	c #9A3910",
"w9	c #882600",
"x9	c #481300",
"y9	c #5C2109",
"z9	c #A33C10",
"A9	c #A13C10",
"B9	c #88330E",
"C9	c #341305",
"D9	c #71280A",
"E9	c #8D2800",
"F9	c #0A0301",
"G9	c #060301",
"H9	c #461A08",
"I9	c #782D0D",
"J9	c #72290A",
"K9	c #321205",
"L9	c #85310E",
"M9	c #5C230A",
"N9	c #5B220A",
"O9	c #421807",
"P9	c #97370E",
"Q9	c #712B0D",
"R9	c #6C290D",
"S9	c #AD4213",
"T9	c #541F09",
"U9	c #8F2800",
"V9	c #2A0B00",
"W9	c #561800",
"X9	c #5F240A",
"Y9	c #7D2F0E",
"Z9	c #782E0E",
"`9	c #451A08",
" 0	c #65250A",
".0	c #7F2300",
"+0	c #5C2209",
"@0	c #4C1D08",
"#0	c #A43E12",
"$0	c #8A3510",
"%0	c #140802",
"&0	c #8E3611",
"*0	c #361406",
"=0	c #762C0C",
"-0	c #3C1000",
";0	c #6E280B",
">0	c #3B1606",
",0	c #7F310F",
"'0	c #2E1205",
")0	c #320E00",
"!0	c #81300E",
"~0	c #823210",
"{0	c #A13E14",
"]0	c #291005",
"^0	c #3E1807",
"/0	c #973911",
"(0	c #92370F",
"_0	c #3C1707",
":0	c #AC4215",
"<0	c #A54115",
"[0	c #4D1D09",
"}0	c #A73F13",
"|0	c #7D2400",
"10	c #A53E13",
"20	c #61260C",
"30	c #070301",
"40	c #3C1708",
"50	c #AF4517",
"60	c #B04517",
"70	c #7A2300",
"80	c #5E240A",
"90	c #511F0A",
"00	c #AB4315",
"a0	c #5B240B",
"b0	c #A34015",
"c0	c #471C09",
"d0	c #6A290C",
"e0	c #9D3D14",
"f0	c #973C14",
"g0	c #3A1708",
"h0	c #5B1A01",
"i0	c #7C2301",
"j0	c #7D300F",
"k0	c #8E3812",
"l0	c #63270D",
"m0	c #8A3712",
"n0	c #863410",
"o0	c #5E1B00",
"p0	c #803311",
"q0	c #732E10",
"r0	c #361607",
"s0	c #862701",
"t0	c #9C3D13",
"u0	c #411A08",
"v0	c #732E0F",
"w0	c #8A3813",
"x0	c #A13F14",
"y0	c #411201",
"z0	c #8F2A02",
"A0	c #AB4316",
"B0	c #501F0B",
"C0	c #65290E",
"D0	c #943C14",
"E0	c #692B0F",
"F0	c #AF4618",
"G0	c #5D250C",
"H0	c #59240C",
"I0	c #9C3F16",
"J0	c #8E3A14",
"K0	c #5D250D",
"L0	c #5B250C",
"M0	c #6B2A0E",
"N0	c #AB4618",
"O0	c #291106",
"P0	c #B44A1A",
"Q0	c #67290E",
"R0	c #8F2A03",
"S0	c #3F1201",
"T0	c #3F1A09",
"U0	c #321507",
"V0	c #9E4117",
"W0	c #AA4619",
"X0	c #722E10",
"Y0	c #521801",
"Z0	c #250B01",
"`0	c #843512",
" a	c #953E16",
".a	c #B74C1B",
"+a	c #A64519",
"@a	c #903A14",
"#a	c #893814",
"$a	c #BE4F1C",
"%a	c #AD481A",
"&a	c #973F17",
"*a	c #8E3B16",
"=a	c #923C15",
"-a	c #8F2B03",
";a	c #441401",
">a	c #A84518",
",a	c #481E0A",
"'a	c #753112",
")a	c #BB4E1D",
"!a	c #853815",
"~a	c #9C4118",
"{a	c #A83A0C",
"]a	c #872804",
"^a	c #B54A1A",
"/a	c #52220C",
"(a	c #6A2C11",
"_a	c #471E0C",
":a	c #C35220",
"<a	c #7D3414",
"[a	c #A74519",
"}a	c #7A2503",
"|a	c #5B1B02",
"1a	c #5C260E",
"2a	c #713011",
"3a	c #0B0501",
"4a	c #4C200C",
"5a	c #B0491A",
"6a	c #942D03",
"7a	c #782503",
"8a	c #BE501E",
"9a	c #7C3514",
"0a	c #0D0602",
"aa	c #6D2E12",
"ba	c #55240E",
"ca	c #6E2103",
"da	c #952D04",
"ea	c #9C3004",
"fa	c #702F11",
"ga	c #632A11",
"ha	c #652B10",
"ia	c #471501",
"ja	c #210B00",
"ka	c #722303",
"la	c #893B17",
"ma	c #6C2F12",
"na	c #C55522",
"oa	c #662C11",
"pa	c #8E3C18",
"qa	c #9DA3A3",
"ra	c #763314",
"sa	c #BE511F",
"ta	c #56250E",
"ua	c #8D2A04",
"va	c #270B01",
"wa	c #762403",
"xa	c #381809",
"ya	c #9F441A",
"za	c #944019",
"Aa	c #7D3615",
"Ba	c #B8501F",
"Ca	c #4F220E",
"Da	c #992F04",
"Ea	c #943E18",
"Fa	c #98421A",
"Ga	c #823817",
"Ha	c #B24D1E",
"Ia	c #982E04",
"Ja	c #9C421A",
"Ka	c #341709",
"La	c #933F1A",
"Ma	c #873B18",
"Na	c #853917",
"Oa	c #3D1202",
"Pa	c #A3461B",
"Qa	c #952D05",
"Ra	c #AA4A1D",
"Sa	c #431D0C",
"Ta	c #AB4B1E",
"Ua	c #913F1A",
"Va	c #A2471D",
"Wa	c #36180A",
"Xa	c #934019",
"Ya	c #5B1C02",
"Za	c #872903",
"`a	c #803817",
" b	c #AF4D1F",
".b	c #94411B",
"+b	c #9D451C",
"@b	c #311509",
"#b	c #99431A",
"$b	c #491602",
"%b	c #7C2504",
"&b	c #B95020",
"*b	c #50230E",
"=b	c #7B3616",
"-b	c #B44F21",
";b	c #9F461C",
">b	c #822703",
",b	c #C05421",
"'b	c #55250F",
")b	c #753415",
"!b	c #B75121",
"~b	c #2E1408",
"{b	c #9C451D",
"]b	c #93411B",
"^b	c #39190A",
"/b	c #A4481D",
"(b	c #7D2503",
"_b	c #C65723",
":b	c #713214",
"<b	c #BD5323",
"[b	c #A0471E",
"}b	c #90401B",
"|b	c #AB4C1F",
"1b	c #7C2503",
"2b	c #6C3014",
"3b	c #A3491F",
"4b	c #431E0C",
"5b	c #7E2602",
"6b	c #3C1301",
"7b	c #682E14",
"8b	c #C45825",
"9b	c #A64B20",
"0b	c #883E1A",
"ab	c #4C1701",
"bb	c #7F2602",
"cb	c #6A2F13",
"db	c #C75926",
"eb	c #441E0D",
"fb	c #AA4C20",
"gb	c #4B220E",
"hb	c #B95322",
"ib	c #902A03",
"jb	c #5D1B02",
"kb	c #8B2A03",
"lb	c #CB5B27",
"mb	c #47200E",
"nb	c #9FA3A3",
"ob	c #1F0E06",
"pb	c #BE5525",
"qb	c #B04113",
"rb	c #5D2A12",
"sb	c #C95B26",
"tb	c #030201",
"ub	c #7F3A19",
"vb	c #C25724",
"wb	c #802D0A",
"xb	c #7B2A0A",
"yb	c #7A2B09",
"zb	c #7B2B0A",
"Ab	c #892F0B",
"Bb	c #95330B",
"Cb	c #541801",
"Db	c #1F0A00",
"Eb	c #571A01",
"Fb	c #401606",
"Gb	c #411706",
"Hb	c #581E07",
"Ib	c #6A2509",
"Jb	c #7F2C0B",
"Kb	c #99360D",
"Lb	c #783517",
"Mb	c #5A2912",
"Nb	c #CA5B27",
"Ob	c #4D230F",
"Pb	c #7D3919",
"Qb	c #C75A27",
"Rb	c #6A2609",
"Sb	c #260E03",
"Tb	c #652408",
"Ub	c #812C0A",
"Vb	c #702101",
"Wb	c #712101",
"Xb	c #8F320A",
"Yb	c #6E2609",
"Zb	c #4D1B05",
"`b	c #200A02",
" c	c #622208",
".c	c #A33509",
"+c	c #4F2410",
"@c	c #7A3818",
"#c	c #431705",
"$c	c #8A2801",
"%c	c #310F00",
"&c	c #671D01",
"*c	c #882F0B",
"=c	c #90330D",
"-c	c #7F3919",
";c	c #552611",
">c	c #B45324",
",c	c #793719",
"'c	c #5C2A12",
")c	c #CD5D29",
"!c	c #8F330D",
"~c	c #832601",
"{c	c #5C1A01",
"]c	c #351000",
"^c	c #631C01",
"/c	c #872601",
"(c	c #97350B",
"_c	c #692509",
":c	c #532610",
"<c	c #C45A27",
"[c	c #532611",
"}c	c #090402",
"|c	c #B65425",
"1c	c #783618",
"2c	c #5E2B13",
"3c	c #CF5E28",
"4c	c #4F1C07",
"5c	c #A93D10",
"6c	c #C35A27",
"7c	c #552711",
"8c	c #291308",
"9c	c #612C13",
"0c	c #D2602A",
"ac	c #6B260A",
"bc	c #250E04",
"cc	c #361205",
"dc	c #421606",
"ec	c #A53C0E",
"fc	c #863D1A",
"gc	c #C15926",
"hc	c #572811",
"ic	c #0C0603",
"jc	c #B95525",
"kc	c #753618",
"lc	c #622D13",
"mc	c #D3612A",
"nc	c #682609",
"oc	c #7D2B09",
"pc	c #310D00",
"qc	c #8F320B",
"rc	c #421806",
"sc	c #883E1B",
"tc	c #4E2410",
"uc	c #C15928",
"vc	c #592912",
"wc	c #0D0603",
"xc	c #616363",
"yc	c #2B1409",
"zc	c #BA5626",
"Ac	c #632E14",
"Bc	c #602207",
"Cc	c #481A07",
"Dc	c #A5370A",
"Ec	c #8A3F1B",
"Fc	c #C05927",
"Gc	c #A2A8A8",
"Hc	c #483228",
"Ic	c #743618",
"Jc	c #782C0B",
"Kc	c #612107",
"Lc	c #772202",
"Mc	c #582108",
"Nc	c #8B401C",
"Oc	c #4C2310",
"Pc	c #C15A27",
"Qc	c #5B2A13",
"Rc	c #524D49",
"Sc	c #A3A8A8",
"Tc	c #483328",
"Uc	c #8C340E",
"Vc	c #2E1003",
"Wc	c #4B1601",
"Xc	c #230E04",
"Yc	c #8C401C",
"Zc	c #C05926",
"`c	c #6E3D25",
" d	c #76716D",
".d	c #A3A9A9",
"+d	c #B95526",
"@d	c #A73E10",
"#d	c #782302",
"$d	c #90350F",
"%d	c #8D401C",
"&d	c #A4A9A9",
"*d	c #B85526",
"=d	c #4C1D07",
"-d	c #1F0A03",
";d	c #2E0E00",
">d	c #391506",
",d	c #A5390C",
"'d	c #6E3D26",
")d	c #76726E",
"!d	c #A5ABAB",
"~d	c #463228",
"{d	c #753617",
"]d	c #86310E",
"^d	c #712A0C",
"/d	c #4D2410",
"(d	c #C25928",
"_d	c #6D3D26",
":d	c #777370",
"<d	c #A6ACAC",
"[d	c #453229",
"}d	c #763718",
"|d	c #632D14",
"1d	c #842E0A",
"2d	c #7F2502",
"3d	c #A53E11",
"4d	c #C15927",
"5d	c #6C3D26",
"6d	c #787572",
"7d	c #A8ADAD",
"8d	c #B45224",
"9d	c #471601",
"0d	c #2C0D01",
"ad	c #68270B",
"bd	c #893F1C",
"cd	c #6B3D27",
"dd	c #797774",
"ed	c #AAAFAF",
"fd	c #423128",
"gd	c #B25223",
"hd	c #5F2C13",
"id	c #4E1802",
"jd	c #531D06",
"kd	c #502510",
"ld	c #6A3D27",
"md	c #7B7977",
"nd	c #ACB1B1",
"od	c #403028",
"pd	c #D05F28",
"qd	c #89340F",
"rd	c #782909",
"sd	c #832803",
"td	c #2A1004",
"ud	c #522511",
"vd	c #683C27",
"wd	c #7C7C7A",
"xd	c #AEB4B4",
"yd	c #3E2F27",
"zd	c #7C3919",
"Ad	c #5B2912",
"Bd	c #CE5E28",
"Cd	c #210B02",
"Dd	c #7D2604",
"Ed	c #4B1C08",
"Fd	c #542611",
"Gd	c #673C27",
"Hd	c #7E7F7D",
"Id	c #B0B6B6",
"Jd	c #3C2E27",
"Kd	c #AB4D21",
"Ld	c #7E3919",
"Md	c #582711",
"Nd	c #8B300B",
"Od	c #8B2B05",
"Pd	c #562711",
"Qd	c #C95C27",
"Rd	c #653B27",
"Sd	c #818381",
"Td	c #B3B9B9",
"Ud	c #392D26",
"Vd	c #A84C20",
"Wd	c #813A19",
"Xd	c #C75B26",
"Yd	c #9E3D12",
"Zd	c #9F370D",
"`d	c #4E1803",
" e	c #1B0903",
".e	c #270F05",
"+e	c #9B3B12",
"@e	c #CA5C27",
"#e	c #623A27",
"$e	c #838685",
"%e	c #B6BCBC",
"&e	c #A54A20",
"*e	c #833B19",
"=e	c #51240F",
"-e	c #C35725",
";e	c #250D04",
">e	c #8B3611",
",e	c #5C2912",
"'e	c #603926",
")e	c #868A8A",
"!e	c #BAC0C0",
"~e	c #362B25",
"{e	c #873D1A",
"]e	c #C05624",
"^e	c #641F04",
"/e	c #82320F",
"(e	c #763516",
"_e	c #5D3826",
":e	c #898E8E",
"<e	c #BDC4C4",
"[e	c #392E28",
"}e	c #8A3D1A",
"|e	c #7B2F0F",
"1e	c #662104",
"2e	c #3C1402",
"3e	c #813210",
"4e	c #733315",
"5e	c #622C12",
"6e	c #5A3726",
"7e	c #8C9191",
"8e	c #C1C8C8",
"9e	c #3C322C",
"0e	c #8E3F1B",
"ae	c #7F320F",
"be	c #662105",
"ce	c #9E3308",
"de	c #883510",
"ee	c #6E3114",
"fe	c #652D13",
"ge	c #583525",
"he	c #909595",
"ie	c #C5CCCC",
"je	c #403630",
"ke	c #92411B",
"le	c #401D0C",
"me	c #B14E20",
"ne	c #250F04",
"oe	c #622005",
"pe	c #351103",
"qe	c #983209",
"re	c #632308",
"se	c #973B13",
"te	c #692F13",
"ue	c #6A2F14",
"ve	c #C25725",
"we	c #543424",
"xe	c #939999",
"ye	c #C9D0D0",
"ze	c #443A34",
"Ae	c #97431C",
"Be	c #AD4C1F",
"Ce	c #9F3E14",
"De	c #571D05",
"Ee	c #AC4416",
"Fe	c #652C12",
"Ge	c #6D3014",
"He	c #BE5322",
"Ie	c #52382B",
"Je	c #979D9D",
"Ke	c #CED5D5",
"Le	c #493F39",
"Me	c #9B441C",
"Ne	c #A6491D",
"Oe	c #7B2C0A",
"Pe	c #451703",
"Qe	c #822B08",
"Re	c #602A11",
"Se	c #723315",
"Te	c #BB5222",
"Ue	c #4E362B",
"Ve	c #9CA1A1",
"We	c #D3DADA",
"Xe	c #4E443E",
"Ye	c #8A3C18",
"Ze	c #A0471D",
"`e	c #301509",
" f	c #A1471D",
".f	c #712607",
"+f	c #59230B",
"@f	c #CB5A25",
"#f	c #5A2710",
"$f	c #4A352A",
"%f	c #A0A5A5",
"&f	c #D8DFDF",
"*f	c #534944",
"=f	c #A5481D",
"-f	c #9A431B",
";f	c #521B05",
">f	c #8D3813",
",f	c #C55623",
"'f	c #7C3617",
")f	c #B14E1F",
"!f	c #A5AAAA",
"~f	c #DDE5E5",
"{f	c #584F4A",
"]f	c #803816",
"^f	c #AB4A1E",
"/f	c #A44116",
"(f	c #5A2008",
"_f	c #5F2006",
":f	c #2C0E02",
"<f	c #401705",
"[f	c #260F04",
"}f	c #BF5321",
"|f	c #4E220E",
"1f	c #813817",
"2f	c #AD4B1E",
"3f	c #AAB0B0",
"4f	c #E3EBEB",
"5f	c #5E5651",
"6f	c #7B3617",
"7f	c #8D300A",
"8f	c #632108",
"9f	c #B85020",
"0f	c #873B17",
"af	c #A8491D",
"bf	c #3D2F27",
"cf	c #AFB5B5",
"df	c #E9F1F1",
"ef	c #645D59",
"ff	c #77371A",
"gf	c #B74F20",
"hf	c #471F0C",
"if	c #883613",
"jf	c #832F0C",
"kf	c #6F280A",
"lf	c #8D3D19",
"mf	c #A2461C",
"nf	c #382C25",
"of	c #B5BBBB",
"pf	c #6A6461",
"qf	c #BD5220",
"rf	c #4E220D",
"sf	c #7E3615",
"tf	c #351507",
"uf	c #591F08",
"vf	c #A73C0F",
"wf	c #421706",
"xf	c #5E270D",
"yf	c #AA491D",
"zf	c #9D441B",
"Af	c #342924",
"Bf	c #BAC1C1",
"Cf	c #716D6A",
"Df	c #6D3820",
"Ef	c #C35421",
"Ff	c #55240F",
"Gf	c #110701",
"Hf	c #240D02",
"If	c #A2451B",
"Jf	c #974119",
"Kf	c #3A2F29",
"Lf	c #C0C7C7",
"Mf	c #787673",
"Nf	c #683822",
"Of	c #3E1908",
"Pf	c #6D2C10",
"Qf	c #9B421A",
"Rf	c #A1451B",
"Sf	c #40352F",
"Tf	c #C7CECE",
"Uf	c #7F7F7D",
"Vf	c #633824",
"Wf	c #642A11",
"Xf	c #672C11",
"Yf	c #B74B1A",
"Zf	c #933F18",
"`f	c #A7471C",
" g	c #463C36",
".g	c #CDD4D4",
"+g	c #878988",
"@g	c #5C3725",
"#g	c #5F280F",
"$g	c #662A0F",
"%g	c #8A3B17",
"&g	c #401B0B",
"*g	c #863916",
"=g	c #4D433D",
"-g	c #D4DCDC",
";g	c #8F9494",
">g	c #573526",
",g	c #743113",
"'g	c #56240E",
")g	c #311408",
"!g	c #481F0C",
"~g	c #B64D1D",
"{g	c #544A45",
"]g	c #DCE3E3",
"^g	c #979C9C",
"/g	c #503326",
"(g	c #B74D1C",
"_g	c #BD501E",
":g	c #7A3516",
"<g	c #5C534E",
"[g	c #9FA4A4",
"}g	c #4A3125",
"|g	c #441C0A",
"1g	c #AA461A",
"2g	c #59250E",
"3g	c #733519",
"4g	c #645C57",
"5g	c #EBF3F3",
"6g	c #A7ACAC",
"7g	c #432E24",
"8g	c #8F3C16",
"9g	c #A64419",
"0g	c #963E16",
"ag	c #622910",
"bg	c #6E361C",
"cg	c #6C6661",
"dg	c #3C2B23",
"eg	c #A44419",
"fg	c #983F18",
"gg	c #BE4D1C",
"hg	c #5A250E",
"ig	c #853714",
"jg	c #5D260E",
"kg	c #75706D",
"lg	c #B8BEBE",
"mg	c #352822",
"ng	c #A24318",
"og	c #53220D",
"pg	c #743012",
"qg	c #613420",
"rg	c #7E7C79",
"sg	c #392D27",
"tg	c #933D16",
"ug	c #AC4719",
"vg	c #B34B1C",
"wg	c #B54A1B",
"xg	c #7D3412",
"yg	c #5A3423",
"zg	c #CBD2D2",
"Ag	c #423731",
"Bg	c #8B3814",
"Cg	c #4B1F0B",
"Dg	c #7A3111",
"Eg	c #AB4619",
"Fg	c #BB4C1B",
"Gg	c #543325",
"Hg	c #929797",
"Ig	c #4C423D",
"Jg	c #833513",
"Kg	c #57230D",
"Lg	c #6E2D0F",
"Mg	c #A04016",
"Ng	c #B24819",
"Og	c #4C3226",
"Pg	c #DFE6E6",
"Qg	c #574E49",
"Rg	c #301307",
"Sg	c #AA4518",
"Tg	c #453026",
"Ug	c #625C58",
"Vg	c #723216",
"Wg	c #AD491B",
"Xg	c #733112",
"Yg	c #893712",
"Zg	c #3C2D25",
"`g	c #6E6B68",
" h	c #6A331A",
".h	c #B34817",
"+h	c #B34C1D",
"@h	c #7E3211",
"#h	c #461C0A",
"$h	c #B04719",
"%h	c #983E15",
"&h	c #342823",
"*h	c #B9C0C0",
"=h	c #7B7C7A",
"-h	c #63331E",
";h	c #A74317",
">h	c #BB4F1E",
",h	c #843816",
"'h	c #51210B",
")h	c #3B302B",
"!h	c #C4CBCB",
"~h	c #888C8C",
"{h	c #5A3220",
"]h	c #943B14",
"^h	c #983C13",
"/h	c #5F2810",
"(h	c #903E17",
"_h	c #65280E",
":h	c #853512",
"<h	c #463C37",
"[h	c #CFD6D6",
"}h	c #513022",
"|h	c #B64818",
"1h	c #A24016",
"2h	c #8A3611",
"3h	c #524A45",
"4h	c #DBE2E2",
"5h	c #493329",
"6h	c #7B300F",
"7h	c #491F0C",
"8h	c #B04B1E",
"9h	c #4B1E0A",
"0h	c #752F0F",
"ah	c #722E11",
"bh	c #5F5955",
"ch	c #E7EFEF",
"dh	c #ACB2B2",
"eh	c #402F28",
"fh	c #54210B",
"gh	c #964019",
"hh	c #2E1308",
"ih	c #A84115",
"jh	c #3E1808",
"kh	c #823311",
"lh	c #6A2F16",
"mh	c #6D6A67",
"nh	c #352A24",
"oh	c #963A12",
"ph	c #62270C",
"qh	c #5D240B",
"rh	c #3A1909",
"sh	c #8F3812",
"th	c #61301A",
"uh	c #7B7D7C",
"vh	c #3C332E",
"wh	c #4E1E09",
"xh	c #C25320",
"yh	c #964018",
"zh	c #8C3610",
"Ah	c #331406",
"Bh	c #9C3C14",
"Ch	c #572F1D",
"Dh	c #D5DCDC",
"Eh	c #4A423D",
"Fh	c #A63F13",
"Gh	c #A94214",
"Hh	c #503529",
"Ih	c #59524E",
"Jh	c #742C0E",
"Kh	c #913812",
"Lh	c #963911",
"Mh	c #311608",
"Nh	c #6E2A0C",
"Oh	c #463229",
"Ph	c #696663",
"Qh	c #A13E13",
"Rh	c #381506",
"Sh	c #BA4F1E",
"Th	c #58250E",
"Uh	c #A23508",
"Vh	c #9A3B12",
"Wh	c #3A2D26",
"Xh	c #7A7C7A",
"Yh	c #602E17",
"Zh	c #732B0C",
"`h	c #823815",
" i	c #2D1207",
".i	c #8E3610",
"+i	c #372D28",
"@i	c #C2C8C8",
"#i	c #8B9090",
"$i	c #562F1E",
"%i	c #5B230A",
"&i	c #401C0A",
"*i	c #A84012",
"=i	c #3F1807",
"-i	c #82310F",
";i	c #463D38",
">i	c #D1D8D8",
",i	c #9BA1A1",
"'i	c #AC4113",
")i	c #6D290C",
"!i	c #341708",
"~i	c #A14419",
"{i	c #97380F",
"]i	c #8C350F",
"^i	c #752C0D",
"/i	c #564F4B",
"(i	c #E1E8E8",
"_i	c #402E26",
":i	c #7E2F0E",
"<i	c #3C1606",
"[i	c #A43C10",
"}i	c #2B1107",
"|i	c #9C3B12",
"1i	c #6A2B0F",
"2i	c #686461",
"3i	c #BDC3C3",
"4i	c #332722",
"5i	c #913610",
"6i	c #92360E",
"7i	c #B24F21",
"8i	c #BA4F1D",
"9i	c #3C190A",
"0i	c #8D3F1A",
"ai	c #9F3306",
"bi	c #742B0B",
"ci	c #AC4012",
"di	c #602E19",
"ei	c #413631",
"fi	c #83300D",
"gi	c #A43C11",
"hi	c #3D1606",
"ii	c #7D2E0C",
"ji	c #291207",
"ki	c #2C1408",
"li	c #93421B",
"mi	c #8D3B16",
"ni	c #140905",
"oi	c #99441D",
"pi	c #62240A",
"qi	c #582109",
"ri	c #553020",
"si	c #8D9292",
"ti	c #E0E7E7",
"ui	c #534A45",
"vi	c #511E08",
"wi	c #69260A",
"xi	c #37190A",
"yi	c #AD4E21",
"zi	c #63290F",
"Ai	c #311507",
"Bi	c #C65824",
"Ci	c #6F3115",
"Di	c #200F06",
"Ei	c #A83D10",
"Fi	c #4A3127",
"Gi	c #67615D",
"Hi	c #692C12",
"Ii	c #541E07",
"Ji	c #1F0F06",
"Ki	c #C15724",
"Li	c #321508",
"Mi	c #BD4F1D",
"Ni	c #49200E",
"Oi	c #A53B0F",
"Pi	c #99380F",
"Qi	c #B1B7B7",
"Ri	c #7C7B79",
"Si	c #5E2F1B",
"Ti	c #7B2D0C",
"Ui	c #3E1606",
"Vi	c #A63B0F",
"Wi	c #B54C1C",
"Xi	c #2B1106",
"Yi	c #91350D",
"Zi	c #2B1004",
"`i	c #8D340E",
" j	c #352B26",
".j	c #C4CACA",
"+j	c #512F20",
"@j	c #90350D",
"#j	c #A2491F",
"$j	c #261207",
"%j	c #2E1509",
"&j	c #743011",
"*j	c #9E461E",
"=j	c #652E13",
"-j	c #7E2D0B",
";j	c #9F3A10",
">j	c #7C2D0B",
",j	c #483E39",
"'j	c #D7DEDE",
")j	c #A6ABAB",
"!j	c #432B21",
"~j	c #A13A0F",
"{j	c #A63C0F",
"]j	c #772A0A",
"^j	c #682F14",
"/j	c #BC4F1C",
"(j	c #451C0A",
"_j	c #9F4217",
":j	c #B55123",
"<j	c #4D1C07",
"[j	c #6C2709",
"}j	c #5D5551",
"|j	c #EAF2F2",
"1j	c #B9BFBF",
"2j	c #342620",
"3j	c #92340D",
"4j	c #581F08",
"5j	c #5F2107",
"6j	c #B45222",
"7j	c #CC5B25",
"8j	c #9B3F17",
"9j	c #853614",
"0j	c #251008",
"aj	c #96441D",
"bj	c #622309",
"cj	c #74706D",
"dj	c #3F342F",
"ej	c #70290A",
"fj	c #B74B1B",
"gj	c #BF5423",
"hj	c #743316",
"ij	c #723416",
"jj	c #762A0A",
"kj	c #542C1B",
"lj	c #8B8E8E",
"mj	c #E2EAEA",
"nj	c #564E49",
"oj	c #2E1004",
"pj	c #A74418",
"qj	c #2B1206",
"rj	c #722F10",
"sj	c #120904",
"tj	c #48210E",
"uj	c #90330B",
"vj	c #462C21",
"wj	c #A1A6A6",
"xj	c #706D6B",
"yj	c #642D15",
"zj	c #3C1505",
"Aj	c #B85424",
"Bj	c #2C1409",
"Cj	c #0E0603",
"Dj	c #703214",
"Ej	c #110803",
"Fj	c #792909",
"Gj	c #362821",
"Hj	c #B7BDBD",
"Ij	c #8A8F8F",
"Jj	c #7D3717",
"Kj	c #B14819",
"Lj	c #A7491E",
"Mj	c #773415",
"Nj	c #37180A",
"Oj	c #632207",
"Pj	c #511C07",
"Qj	c #822E0A",
"Rj	c #3E342E",
"Sj	c #473127",
"Tj	c #50210B",
"Uj	c #BD5120",
"Vj	c #4B1905",
"Wj	c #702708",
"Xj	c #57504B",
"Yj	c #E4ECEC",
"Zj	c #BBC1C1",
"`j	c #352A25",
" k	c #90310A",
".k	c #8D2F09",
"+k	c #4C240F",
"@k	c #B64E1E",
"#k	c #953F19",
"$k	c #341204",
"%k	c #632C17",
"&k	c #737371",
"*k	c #D4DBDB",
"=k	c #463E39",
"-k	c #461805",
";k	c #6F2507",
">k	c #773214",
",k	c #341408",
"'k	c #B84B1B",
")k	c #B84D1C",
"!k	c #AB481A",
"~k	c #9C4119",
"{k	c #451E0B",
"]k	c #251006",
"^k	c #4A210F",
"/k	c #812B08",
"(k	c #97330B",
"_k	c #532F20",
":k	c #63605E",
"<k	c #642207",
"[k	c #511B05",
"}k	c #893E1B",
"|k	c #2D1508",
"1k	c #1F0E05",
"2k	c #321407",
"3k	c #50210D",
"4k	c #58240D",
"5k	c #180904",
"6k	c #C45928",
"7k	c #662206",
"8k	c #433128",
"9k	c #A9AFAF",
"0k	c #828787",
"ak	c #5E3625",
"bk	c #842D0A",
"ck	c #7B3819",
"dk	c #892E09",
"ek	c #342B27",
"fk	c #4C352B",
"gk	c #A3370B",
"hk	c #762606",
"ik	c #261208",
"jk	c #AE5022",
"kk	c #742707",
"lk	c #524C48",
"mk	c #DFE7E7",
"nk	c #BCC3C3",
"ok	c #362C27",
"pk	c #903009",
"qk	c #602006",
"rk	c #972D02",
"sk	c #D16029",
"tk	c #A34920",
"uk	c #782706",
"vk	c #3A1304",
"wk	c #60240B",
"xk	c #747675",
"yk	c #DAE2E2",
"zk	c #4B4541",
"Ak	c #792707",
"Bk	c #832B08",
"Ck	c #311002",
"Dk	c #BD5626",
"Ek	c #5A1E05",
"Fk	c #54372A",
"Gk	c #939898",
"Hk	c #707170",
"Ik	c #732405",
"Jk	c #A74114",
"Kk	c #9D3D13",
"Lk	c #A13F13",
"Mk	c #B04E21",
"Nk	c #AB4D20",
"Ok	c #7F3918",
"Pk	c #90401A",
"Qk	c #AA4316",
"Rk	c #67280C",
"Sk	c #69290C",
"Tk	c #863310",
"Uk	c #3B1303",
"Vk	c #3E312A",
"Wk	c #B2B8B8",
"Xk	c #553629",
"Yk	c #4D1903",
"Zk	c #6C290B",
"`k	c #2A1005",
" l	c #4E1E0A",
".l	c #A03F15",
"+l	c #652D14",
"@l	c #6E3216",
"#l	c #1B0D05",
"$l	c #170B05",
"%l	c #833B1A",
"&l	c #9D471F",
"*l	c #993D15",
"=l	c #6C2B0F",
"-l	c #371508",
";l	c #311206",
">l	c #A13D12",
",l	c #812906",
"'l	c #7F2A07",
")l	c #423B37",
"!l	c #D2D9D9",
"~l	c #3D2F29",
"{l	c #963108",
"]l	c #8D2E08",
"^l	c #260C02",
"/l	c #411807",
"(l	c #7C3211",
"_l	c #0C0602",
":l	c #C05725",
"<l	c #833C19",
"[l	c #391608",
"}l	c #552009",
"|l	c #9B3910",
"1l	c #531B04",
"2l	c #662004",
"3l	c #686766",
"4l	c #463F3B",
"5l	c #4F1904",
"6l	c #641F03",
"7l	c #91350F",
"8l	c #140703",
"9l	c #6F2D0F",
"0l	c #AF4718",
"al	c #7E3311",
"bl	c #64250B",
"cl	c #AE4112",
"dl	c #593729",
"el	c #8E9393",
"fl	c #63250C",
"gl	c #5B2109",
"hl	c #803A19",
"il	c #B65324",
"jl	c #582812",
"kl	c #31160A",
"ll	c #3D1809",
"ml	c #2A0F05",
"nl	c #7D2704",
"ol	c #983007",
"pl	c #3F312A",
"ql	c #9A9F9F",
"rl	c #3E1402",
"sl	c #381808",
"tl	c #763515",
"ul	c #2A1309",
"vl	c #5A2911",
"wl	c #BC5525",
"xl	c #C75925",
"yl	c #3F1D0C",
"zl	c #4D220F",
"Al	c #CC5B26",
"Bl	c #9E4820",
"Cl	c #130904",
"Dl	c #9F471E",
"El	c #BD4E1C",
"Fl	c #6A2C0F",
"Gl	c #220D05",
"Hl	c #561B03",
"Il	c #5C1D05",
"Jl	c #7C2705",
"Kl	c #D9E0E0",
"Ll	c #C3C9C9",
"Ml	c #332823",
"Nl	c #8D2C05",
"Ol	c #6E2306",
"Pl	c #B05124",
"Ql	c #53240F",
"Rl	c #773717",
"Sl	c #3C1809",
"Tl	c #822906",
"Ul	c #62260D",
"Vl	c #7D2602",
"Wl	c #B2491A",
"Xl	c #210E07",
"Yl	c #873B19",
"Zl	c #C35624",
"`l	c #B55225",
" m	c #4C230F",
".m	c #B35021",
"+m	c #481703",
"@m	c #4D3227",
"#m	c #A0A6A6",
"$m	c #542614",
"%m	c #6E2304",
"&m	c #9E4118",
"*m	c #411E0D",
"=m	c #9D451D",
"-m	c #501802",
";m	c #491601",
">m	c #672E13",
",m	c #3C1202",
"'m	c #352B27",
")m	c #CCD3D3",
"!m	c #37261F",
"~m	c #9D471E",
"{m	c #BE5725",
"]m	c #9D3308",
"^m	c #5B1D04",
"/m	c #49200D",
"(m	c #33180B",
"_m	c #180C05",
":m	c #BF5624",
"<m	c #431807",
"[m	c #676260",
"}m	c #71290B",
"|m	c #522510",
"1m	c #C05826",
"2m	c #8F3F1A",
"3m	c #471703",
"4m	c #9A3209",
"5m	c #8F2C04",
"6m	c #BC5222",
"7m	c #D35F2A",
"8m	c #733416",
"9m	c #4C1F0C",
"0m	c #4B281A",
"am	c #9EA4A4",
"bm	c #919696",
"cm	c #532817",
"dm	c #631D01",
"em	c #872F0B",
"fm	c #783213",
"gm	c #883B18",
"hm	c #3F1A0B",
"im	c #BB5120",
"jm	c #B14A1C",
"km	c #411B0A",
"lm	c #C8CECE",
"mm	c #2F231F",
"nm	c #912C03",
"om	c #8B2802",
"pm	c #1E0D04",
"qm	c #36190A",
"rm	c #1D0C06",
"sm	c #6C2608",
"tm	c #35180A",
"um	c #763517",
"vm	c #3D190A",
"wm	c #391001",
"xm	c #5F1D03",
"ym	c #350F00",
"zm	c #281207",
"Am	c #602A10",
"Bm	c #972C03",
"Cm	c #421D0B",
"Dm	c #B7501F",
"Em	c #AF4A1D",
"Fm	c #3F190A",
"Gm	c #2F150B",
"Hm	c #3E2A22",
"Im	c #6A1E00",
"Jm	c #733113",
"Km	c #753214",
"Lm	c #4A1905",
"Mm	c #421C0C",
"Nm	c #9F380C",
"Om	c #1D0F09",
"Pm	c #601A00",
"Qm	c #1D0D04",
"Rm	c #893E1A",
"Sm	c #6D2F12",
"Tm	c #812502",
"Um	c #6A2407",
"Vm	c #753516",
"Wm	c #B84E1E",
"Xm	c #4A1F0B",
"Ym	c #691F01",
"Zm	c #621B00",
"`m	c #551800",
" n	c #561F07",
".n	c #7E3515",
"+n	c #2F1608",
"@n	c #7E3918",
"#n	c #672C12",
"$n	c #8C2A03",
"%n	c #682205",
"&n	c #B14B1D",
"*n	c #612C12",
"=n	c #6F1E00",
"-n	c #581900",
";n	c #170B04",
">n	c #833A19",
",n	c #602910",
"'n	c #461603",
")n	c #652004",
"!n	c #B75122",
"~n	c #4B220F",
"{n	c #A74B1F",
"]n	c #5E280F",
"^n	c #361000",
"/n	c #6A1E01",
"(n	c #822602",
"_n	c #361E15",
":n	c #73655F",
"<n	c #762200",
"[n	c #C85A25",
"}n	c #200901",
"|n	c #A84B1F",
"1n	c #91330B",
"2n	c #752000",
"3n	c #35160A",
"4n	c #562610",
"5n	c #C45624",
"6n	c #C1521F",
"7n	c #471E0B",
"8n	c #2E1002",
"9n	c #B74D1D",
"0n	c #A1471E",
"an	c #793414",
"bn	c #842501",
"cn	c #8C2800",
"dn	c #B34C1E",
"en	c #AB4B20",
"fn	c #291108",
"gn	c #5A260E",
"hn	c #4F1A05",
"in	c #A23A0F",
"jn	c #4E200C",
"kn	c #411C0A",
"ln	c #2F1409",
"mn	c #C65724",
"nn	c #421805",
"on	c #58270F",
"pn	c #241005",
"qn	c #6E280A",
"rn	c #802906",
"sn	c #8C3E19",
"tn	c #832400",
"un	c #461300",
"vn	c #7D3515",
"wn	c #C25422",
"xn	c #853A17",
"yn	c #4D210C",
"zn	c #612207",
"An	c #5D2107",
"Bn	c #6C2C10",
"Cn	c #85300D",
"Dn	c #7F2B09",
"En	c #7B3515",
"Fn	c #662D12",
"Gn	c #3F1100",
"Hn	c #4D1500",
"In	c #B54E1E",
"Jn	c #8E340C",
"Kn	c #72280A",
"Ln	c #783414",
"Mn	c #8B3B17",
"Nn	c #251106",
"On	c #702000",
"Pn	c #7E2400",
"Qn	c #51230E",
"Rn	c #291206",
"Sn	c #7A2907",
"Tn	c #A6471B",
"Un	c #591800",
"Vn	c #812A06",
"Wn	c #962C02",
"Xn	c #6B2E12",
"Yn	c #C55321",
"Zn	c #832E0A",
"`n	c #4E210D",
" o	c #B94F1F",
".o	c #2B1205",
"+o	c #852903",
"@o	c #912901",
"#o	c #89320E",
"$o	c #662C10",
"%o	c #2B0B00",
"&o	c #B24B1D",
"*o	c #A1461B",
"=o	c #8F2801",
"-o	c #B54D1D",
";o	c #531800",
">o	c #8D2701",
",o	c #58260D",
"'o	c #421C0B",
")o	c #A4451A",
"!o	c #9D3E14",
"~o	c #5E1900",
"{o	c #682D12",
"]o	c #651C00",
"^o	c #7E3716",
"/o	c #491D09",
"(o	c #A54015",
"_o	c #642A0F",
":o	c #7B3413",
"<o	c #B54717",
"[o	c #290F06",
"}o	c #B74E1E",
"|o	c #1A0803",
"1o	c #8C300B",
"2o	c #7E2401",
"3o	c #702F12",
"4o	c #271005",
"5o	c #160803",
"6o	c #3A180A",
"7o	c #642B10",
"8o	c #7D2A08",
"9o	c #933810",
"0o	c #66290F",
"ao	c #984018",
"bo	c #1D0902",
"co	c #6A2D10",
"do	c #9B3C12",
"eo	c #391607",
"fo	c #301206",
"go	c #A33E12",
"ho	c #7B3312",
"io	c #611B01",
"jo	c #912A02",
"ko	c #9A4119",
"lo	c #AF4214",
"mo	c #813512",
"no	c #641E03",
"oo	c #A8461B",
"po	c #551E06",
"qo	c #712001",
"ro	c #AE491B",
"so	c #441402",
"to	c #802F0C",
"uo	c #893713",
"vo	c #983F17",
"wo	c #7B2402",
"xo	c #441703",
"yo	c #962C03",
"zo	c #83310E",
"Ao	c #8B340F",
"Bo	c #913A14",
"Co	c #6A2307",
"Do	c #341203",
"Eo	c #5B1B01",
"Fo	c #461804",
"Go	c #A53D11",
"Ho	c #521E09",
"Io	c #4B1C07",
"Jo	c #A03A10",
"Ko	c #9A3E15",
"Lo	c #6D2508",
"Mo	c #371001",
"No	c #6A1F01",
"Oo	c #C04F1E",
"Po	c #922B03",
"Qo	c #772B0C",
"Ro	c #A44215",
"So	c #361708",
"To	c #260D02",
"Uo	c #4D1A05",
"Vo	c #8C2701",
"Wo	c #270F03",
"Xo	c #B14617",
"Yo	c #3F1A0A",
"Zo	c #5A1A02",
"`o	c #321408",
" p	c #732A0B",
".p	c #9B370E",
"+p	c #6D2001",
"@p	c #892601",
"#p	c #A74014",
"$p	c #99370D",
"%p	c #541D07",
"&p	c #5F260C",
"*p	c #321304",
"=p	c #6B2407",
"-p	c #862F0C",
";p	c #702B0E",
">p	c #2E0D01",
",p	c #6E2002",
"'p	c #B5491A",
")p	c #321002",
"!p	c #491C0A",
"~p	c #3F1705",
"{p	c #813110",
"]p	c #BD4D1C",
"^p	c #8A3915",
"/p	c #4B1602",
"(p	c #A24217",
"_p	c #200E04",
":p	c #822A06",
"<p	c #7A2A08",
"[p	c #903711",
"}p	c #842905",
"|p	c #1C0C03",
"1p	c #742F10",
"2p	c #772E0E",
"3p	c #652107",
"4p	c #A33E13",
"5p	c #942F06",
"6p	c #080302",
"7p	c #742F11",
"8p	c #A0360B",
"9p	c #421A08",
"0p	c #972F05",
"ap	c #7E2C09",
"bp	c #772303",
"cp	c #93340C",
"dp	c #301002",
"ep	c #9E340A",
"fp	c #862904",
"gp	c #5D2008",
"hp	c #551A02",
"ip	c #8B320D",
"jp	c #2F1206",
"kp	c #A63F12",
"lp	c #8D2F08",
"mp	c #6A2306",
"np	c #7A2E0D",
"op	c #3A1405",
"pp	c #471602",
"qp	c #812F0D",
"rp	c #943710",
"sp	c #562008",
"tp	c #752B0B",
"up	c #190A02",
"vp	c #60240A",
"wp	c #2D0E03",
"xp	c #A93D11",
"yp	c #511902",
"zp	c #912B04",
"Ap	c #8C2A04",
"Bp	c #230C04",
"Cp	c #4A1602",
"Dp	c #8A330E",
"Ep	c #8A2D07",
"Fp	c #531801",
"Gp	c #692205",
"Hp	c #A13B10",
"Ip	c #8E2D07",
"Jp	c #471401",
"Kp	c #250C01",
"Lp	c #842703",
"Mp	c #9C3006",
"Np	c #983006",
"Op	c #5D1E04",
"Pp	c #561A01",
"Qp	c #7C2603",
"Rp	c #672509",
"Sp	c #270D01",
"Tp	c #8E2E07",
"Up	c #7E2D0C",
"Vp	c #270E04",
"Wp	c #762605",
"Xp	c #2A1003",
"Yp	c #2C1003",
"Zp	c #621E03",
"`p	c #361101",
" q	c #9A370E",
".q	c #341102",
"+q	c #922F07",
"@q	c #280D04",
"#q	c #3F1605",
"$q	c #6D2305",
"%q	c #4B1703",
"&q	c #732909",
"*q	c #902D06",
"=q	c #772404",
"-q	c #531A02",
";q	c #521C07",
">q	c #94340C",
",q	c #902E06",
"'q	c #8E320B",
")q	c #1A0701",
"!q	c #8C310C",
"~q	c #95350C",
"{q	c #632408",
"]q	c #411502",
"^q	c #962E04",
"/q	c #582007",
"(q	c #6E2305",
"_q	c #4E1904",
":q	c #762808",
"<q	c #8D330C",
"[q	c #3F1606",
"}q	c #6F2103",
"|q	c #601E04",
"1q	c #300F02",
"2q	c #8D2D06",
"3q	c #2D0D01",
"4q	c #952F07",
"5q	c #431603",
"6q	c #250D02",
"7q	c #892A04",
"8q	c #702305",
"9q	c #902E07",
"0q	c #91320C",
"aq	c #602108",
"bq	c #8F2E07",
"cq	c #4D1905",
"dq	c #481A06",
"eq	c #852B07",
"fq	c #8B2D07",
"gq	c #331103",
"hq	c #280C02",
"iq	c #200A03",
"jq	c #100600",
"kq	c #922C03",
"lq	c #8E2F09",
"mq	c #A0350A",
"nq	c #321103",
"oq	c #852C07",
"pq	c #932B03",
"qq	c #461704",
"rq	c #912F08",
"sq	c #652105",
"tq	c #441603",
"uq	c #471603",
"vq	c #932A02",
"wq	c #9A3106",
"xq	c #371202",
"yq	c #2A0E01",
"zq	c #862602",
"Aq	c #451502",
"Bq	c #5D1B01",
"Cq	c #361002",
"Dq	c #451301",
"Eq	c #932A01",
"Fq	c #7F2501",
"Gq	c #260C01",
"Hq	c #641C01",
"Iq	c #902901",
"Jq	c #561900",
"                                                                                                                                                                                                                                                                                                                                                                                                                                                                                                                                                                                                                                                                                                                                                                                                                                                                                                                                                                                                                                                                ",
"                                                                                                                                                                                                                                                                                                                                                                                                                                                                                                                                                                                                                                                                                                                                                                                                                                                                                                                                                                                                                                                                ",
"                                                                                                                                                                                                                                                                                                                                                                                                                                                                                                                                                                                                                                                                                                                                                                                                                                                                                                                                                                                                                                                                ",
"                                                                                                                                                                                                                                                                                                                                                                                                                                                                                                                                                                                                                                                                                                                                                                                                                                                                                                                                                                                                                                                                ",
"                                                                                                                                                                                                                                                                                                                                                                                                                                                                                                                                                                                                                                                                                                                                                                                                                                                                                                                                                                                                                                                                ",
"                                                                                                                                                                                                                                                                                                                                                                  . + @ #                                                                                                                                                                                                                                                                                                             $ % & * =                                                                                                                                                                                                                                                                                                                                                                 ",
"                                                                                                                                                                                                                                                                                                                                                              - ; > , , ' )                                                                                                                                                                                                                                                                                                         ! ~ , { ] ^ / (                                                                                                                                                                                                                                                                                                                                                             ",
"                                                                                                                                                                                                                                                                                                                                                          _ : < < [ } } { |                                                                                                                                                                                                                                                                                                         1 } } } 2 < < 3 4 5                                                                                                                                                                                                                                                                                                                                                         ",
"                                                                                                                                                                                                                                                                                                                                                      _ 6 7 < < } } } } , 8                                                                                                                                                                                                                                                                                                         9 { { } } < < < 0 a b                                                                                                                                                                                                                                                                                                                                                       ",
"                                                                                                                                                                                                                                                                                                                                                    c d e e f f < < < < } g _                                                                                                                                                                                                                                                                                                     h i } } < < 0 0 f e j k l                                                                                                                                                                                                                                                                                                                                                     ",
"                                                                                                                                                                                                                                                                                                                                                  m n j e e f f < < < < } } o                                                                                                                                                                                                                                                                                                     p } } } < < q 0 f e j j r s .                                                                                                                                                                                                                                                                                                                                                 ",
"                                                                                                                                                                                                                                                                                                                                              t u v w x r r j j f f 0 0 < < y z                                                                                                                                                                                                                                                                                                 A B < < < f f e e C r x x w w D E                                                                                                                                                                                                                                                                                                                                               ",
"                                                                                                                                                                                                                                                                                                                                            c F w w x x G G e e q f 0 0 < < H _                                                                                                                                                                                                                                                                                                 I J K < < 0 q e e j j r r w w L M N                                                                                                                                                                                                                                                                                                                                             ",
"                                                                                                                                                                                                                                                                                                                                          O P Q R R L L w w r r j j e f 0 0 < S                                                                                                                                                                                                                                                                                                 T < < f f e e r r x x v w R R R R U V                                                                                                                                                                                                                                                                                                                                           ",
"                                                                                                                                                                                                                                                                                                                                        W X Q Q R R L L w w r r j j e f 0 0 < Y Z                                                                                                                                                                                                                                                                                             ` y < 0 f f e e r G x x w w R R R R Q Q  .                                                                                                                                                                                                                                                                                                                                        ",
"                                                                                                                                                                                                                                                                                                                                      ..+.@.#.#.Q Q R R R R v v x x r C e e f f h                                                                                                                                                                                                                                                                                             + $.f f j j r r w w v L R R Q Q Q Q @.@.%.&.                                                                                                                                                                                                                                                                                                                                      ",
"                                                                                                                                                                                                                                                                                                                                    *.=.#.#.Q Q -.-.R R L v w w r r j j f f 0 0 ;.                                                                                                                                                                                                                                                                                            >.< q q e e G G x x w w R R R -.Q Q #.#.@.@.,.'.                                                                                                                                                                                                                                                                                                                                  ",
"                                                                                                                                                                                                                                                                                                                                  ).!.~.{.{.@.@.#.#.Q Q R R R R w w x r j j e e ].Z                                                                                                                                                                                                                                                                                         ^./.f e j r r x w L v R R Q Q Q Q @.#.%.{.{.{.(._.                                                                                                                                                                                                                                                                                                                                  ",
"                                                                                                                                                                                                                                                                                                                                :.<.~.~.{.{.%.@.#.#.Q Q R R R R w w x r j j e e 0 [.                                                                                                                                                                                                                                                                                        }.f f e j r r x w L v R R Q Q Q |.@.#.%.{.{.{.(.(.1.                                                                                                                                                                                                                                                                                                                                ",
"                                                                                                                                                                                                                                                                                                                              2.3.4.5.5.(.(.{.6.{.%.@.@.Q Q Q Q R R v v x x r C e 7.8.                                                                                                                                                                                                                                                                                    9.0.j j r r w w L R R R Q Q #.#.@.@.{.{.~.~.(.(.4.4.a.b.                                                                                                                                                                                                                                                                                                                              ",
"                                                                                                                                                                                                                                                                                                                            c.d.e.e.5.5.~.~.{.{.%.@.#.#.Q Q -.R R R w w r r j j e f f.                                                                                                                                                                                                                                                                                    g.h.e e G r x w v L R R Q Q |.|.#.@.{.{.i.i.(.(.5.5.a.j.k.                                                                                                                                                                                                                                                                                                                            ",
"                                                                                                                                                                                                                                                                                                                          l.m.n.a.a.a.a.5.5.(.(.i.{.{.{.@.@.Q Q Q o.R R v w x x j j p.                                                                                                                                                                                                                                                                                    q.j r r w w L L R R Q Q #.#.@.@.{.{.(.(.(.5.4.4.a.a.n.r.s.t.                                                                                                                                                                                                                                                                                                                          ",
"                                                                                                                                                                                                                                                                                                                          u.n.n.v.a.a.a.5.5.(.(.i.{.{.{.#.#.Q Q -.w.R R w w x x j j k x.                                                                                                                                                                                                                                                                                y.z.j r r w w L R R R Q Q #.#.@.%.{.{.(.(.5.5.4.4.a.a.r.r.n.A.B.                                                                                                                                                                                                                                                                                                                        ",
"                                                                                                                                                                                                                                                                                                                        C.D.E.E.n.n.n.n.a.a.4.4.5.(.~.~.{.{.@.@.|.Q Q Q R R v v x x r F.                                                                                                                                                                                                                                                                                G.r r w w L R R R Q Q @.#.%.{.6.{.(.(.5.5.a.a.v.v.n.n.E.E.H.H.I.                                                                                                                                                                                                                                                                                                                        ",
"                                                                                                                                                                                                                                                                                                                      J.K.E.E.E.n.n.v.v.a.a.5.5.(.(.i.{.{.%.#.#.Q Q -.R R R w w r r j L.M.                                                                                                                                                                                                                                                                            N.O.G G x x w L R R Q Q #.#.@.%.{.{.~.(.5.5.4.4.a.a.r.r.P.n.E.E.Q.R.                                                                                                                                                                                                                                                                                                                      ",
"                                                                                                                                                                                                                                                                                                                    t S.Q.Q.Q.Q.E.E.P.P.n.n.a.a.4.4.5.(.~.~.{.{.@.@.Q Q Q w.R R w w x r T.                                                                                                                                                                                                                                                                            U.r x w L L R R Q Q #.#.%.%.{.{.(.(.5.5.a.a.v.v.n.n.E.E.H.H.Q.Q.V.W.X.                                                                                                                                                                                                                                                                                                                    ",
"                                                                                                                                                                                                                                                                                                                    Y.V.Q.Q.Q.Q.E.E.P.P.r.r.a.a.e.e.5.(.i.i.{.{.#.#.Q Q -.w.R R w w r r Z.y.                                                                                                                                                                                                                                                                        `. +G x w v L R R Q Q #.#.%.%.{.{.(.(.5.5.a.a.v.v.n.n.E.E.H.H.Q.Q.V..+++@+                                                                                                                                                                                                                                                                                                                  ",
"                                                                                            #+$+%+                                                                                                                                                                                                                &+*+=+V.V.V.V.Q.Q.H.H.E.E.n.n.v.a.4.4.5.5.(.(.{.{.@.@.Q Q Q Q R R v w x l                                                                                                                                                                                                                                                                         -+x w L L R R Q Q #.#.%.{.6.i.(.(.4.4.a.a.n.r.n.P.H.E.Q.Q.Q.Q.V.V.;+;+>+,+                                                                                                                                                                                                              '+)+!+~+{+c.                                                                                        ",
"                                                                                    ]+:.^+/+!.(+_+:+<+                                                                                                                                                                                                            [+=+=+V.V.}+}+Q.Q.E.E.P.P.r.r.a.a.e.e.5.(.i.i.{.%.#.#.Q Q -.R R L w w r |+h                                                                                                                                                                                                                                                                     9.1+x x w w R R -.Q |.#.@.%.{.{.(.(.5.5.a.a.v.v.n.n.E.E.H.Q.Q.Q.V.V.;+;+=+2+X.                                                                                                                                                                                                        3+4+a.a.5.5.(.<.5+6+7+                                                                                  ",
"                                                                                8+9+0+(.5.4.4.a.a.n.a+b+                                                                                                                                                                                                        c+d+e+e+=+>+;+V.V.V.Q.Q.H.H.E.E.n.n.v.a.4.4.5.5.~.~.{.{.@.@.Q Q w.R R L w w f+                                                                                                                                                                                                                                                                    g+x v v R R Q Q #.#.@.%.{.{.(.(.5.e.a.a.v.n.P.P.E.H.Q.Q.Q.}+V.V.=+=+e+e+d+d+h+                                                                                                                                                                                                      i+j+n.n.n.a.a.4.4.(.(.k+l+                                                                                ",
"                                                                            m+n+o+i.~.5.5.4.4.a.a.n.n.p+q+                                                                                                                                                                                                      r+d+e+e+=+=+;+;+V.V.Q.Q.H.H.E.E.n.n.v.a.4.4.5.5.~.i.{.{.#.#.Q Q R R R L w w s+h                                                                                                                                                                                                                                                                 t+u+x w w R R Q Q |.#.@.%.{.{.(.(.5.e.a.a.v.r.n.n.E.E.Q.Q.Q.}+V.V.=+=+e+e+d+d+v+w+                                                                                                                                                                                                    x+E.P.n.n.a.a.e.e.(.(.i.{.y+z+                                                                            ",
"                                                                          A+B+(.(.5.5.4.a.v.v.n.n.E.E.Q.C+'+                                                                                                                                                                                                  X.D+E+F+F+d+d+e+e+=+;+V.V.Q.Q.Q.Q.E.E.n.n.v.v.a.4.5.5.(.~.{.{.@.@.Q Q w.R R L w U.                                                                                                                                                                                                                                                                G+v v R R Q Q #.#.@.%.{.{.(.(.4.4.a.a.n.n.P.E.H.H.Q.Q.V.V.V.;+>+>+e+d+F+H+E+E+I+J+                                                                                                                                                                                                  w+K+Q.H.E.E.n.n.v.a.4.4.5.(.~.L+n+                                                                          ",
"                                                                        ..M+{.i.i.(.5.4.4.a.v.n.n.E.E.H.Q.N+                                                                                                                                                                                                  O+E+E+H+H+e+e+=+=+;+;+V.V.Q.Q.H.H.E.P.n.n.a.a.e.e.(.(.i.{.%.%.#.#.Q Q R R w w x P+Q+                                                                                                                                                                                                                                                            R+S+w w R R R -.Q Q #.@.{.{.~.(.5.5.4.a.v.v.n.n.E.E.Q.Q.Q.}+V.V.=+=+e+e+d+d+F+F+I+T+                                                                                                                                                                                                  U+Q.E.E.E.E.r.r.a.a.e.5.(.(.{.{.%.!+                                                                        ",
"                                                                      V+W+~.(.5.5.4.a.v.v.n.n.E.E.Q.Q.Q.}+X+Y+                                                                                                                                                                                                Z+`+ @I+I+F+F+d+d+e+>+=+=+V.V.Q.Q.Q.H.E.E.n.n.v.a.4.4.(.(.i.{.{.%.#.#.Q Q R R v v .@                                                                                                                                                                                                                                                            +@w L R R -.Q Q @.@.{.{.(.(.5.5.a.a.v.r.n.P.E.H.Q.Q.@@V.V.V.>+>+d+e+H+F+E+E+I+I+#@$@                                                                                                                                                                                                  %@V.Q.Q.Q.D.E.E.n.n.a.a.4.4.(.(.~.6.&@*@                                                                    ",
"                                                                    =@-@{.~.(.5.5.4.a.v.v.n.n.E.E.Q.Q.}+}+V.;@                                                                                                                                                                                                  >@,@'@I+F+F+d+d+e+>+=+;+V.V.Q.Q.Q.H.E.E.n.n.a.a.e.e.(.(.i.{.%.%.#.#.Q Q R R w w )@!@                                                                                                                                                                                                                                                        ~@{@w L R R R Q Q @.#.{.{.~.(.5.5.a.a.v.r.n.n.E.E.Q.Q.}+.+V.;+=+=+d+e+H+H+E+E+]@^@/@                                                                                                                                                                                                  (@_@V.Q.Q.Q.Q.E.E.n.n.v.a.4.4.5.(.i.i.{.,.*@                                                                  ",
"                                                                  :@-@(.(.5.5.a.a.v.n.P.P.H.H.Q.Q.V.V.;+;+>+<@c+                                                                                                                                                                                                  [@}@|@1@I+E+E+H+d+e+e+=+=+V.V.Q.Q.Q.Q.E.E.n.n.a.a.4.4.(.(.~.6.%.@.#.#.Q Q R R w 2@                                                                                                                                                                                                                                                        3@L L R w.Q Q @.@.{.{.~.(.5.5.a.a.4@r.n.P.H.H.Q.Q.V.V.;+;+>+>+d+d+F+F+I+5@6@7@8@                                                                                                                                                                                                      9@>+>+V.V.V.V.Q.Q.H.E.n.n.v.v.4.4.5.(.~.~.0@                                                                  ",
"                                                                E a@{.~.~.5.5.4.a.v.r.n.n.E.E.Q.Q.}+.+V.;+=+>+b@                                                                                                                                                                                                        c@d@e@f@d+d+e+e+;+;+V.V.Q.Q.H.H.E.P.r.r.a.a.e.5.(.(.{.{.@.#.|.Q -.R R L w g@t                                                                                                                                                                                                                                                     h@i@w w R R Q Q #.#.%.{.i.i.(.5.4.a.v.v.n.n.E.E.Q.Q.}+}+V.;+=+=+e+d+H+j@k@O+                                                                                                                                                                                                          l@m@=+=+V.V.}+Q.Q.Q.E.E.n.n.v.a.e.e.5.(.i.{.%.n@                                                                ",
"                                                              <+o@~.(.5.5.a.a.v.r.n.P.H.H.Q.Q.V.V.;+=+>+e+d+d+p@q@                                                                                                                                                                                                            r@s@E+H+d+e+e+=+=+V.V.Q.Q.D.H.E.E.n.n.a.a.5.5.(.(.{.{.@.@.Q Q -.R L L t@                                                                                                                                                                                                                                                    u@v R R Q Q #.#.%.{.~.~.(.5.4.4.v.v.n.n.E.H.Q.Q.@@V.V.;+>+>+d+d+F+v@w@$@                                                                                                                                                                                                              x@y@d+d+>+>+;+V.V.}+Q.Q.E.E.n.n.v.a.4.4.5.(.~.z@A@                                                              ",
"                                                              B@{.~.(.5.5.a.a.r.r.n.E.H.H.Q.Q.V.V.;+=+e+e+d+H+E+C@Y+                                                                                                                                                                                                            D@E@F@d+e+e+=+=+V.V.Q.Q.H.H.E.E.r.r.a.a.5.5.(.(.{.{.@.#.Q Q R R L v G@~@                                                                                                                                                                                                                                                H@I@w R R -.Q #.#.%.{.{.i.(.5.4.4.a.v.n.n.E.E.Q.Q.}+V.V.;+=+>+d+d+J@K@                                                                                                                                                                                                                l.L@F+d+d+>+>+;+;+.+}+Q.Q.E.E.n.n.v.a.a.4.5.(.~.i.M@N@                                                            ",
"                                                            O@(.(.5.5.a.a.n.n.P.E.H.Q.Q.Q.V.V.=+=+e+e+F+F+E+E+ @ @P@                                                                                                                                                                                                                Q@R@S@F+d+e+=+=+V.V.Q.Q.Q.H.E.P.n.n.a.a.5.5.(.~.{.{.@.@.Q Q R R L T@:.                                                                                                                                                                                                                                            {+F R R Q Q Q #.@.%.{.~.(.(.4.4.v.v.n.n.H.E.Q.Q.V.V.V.;+>+>+d+d+U@V@T+                                                                                                                                                                                                                  E@I+I+E+E+d+d+e+e+;+;+V.V.Q.Q.H.H.P.n.v.v.a.4.5.(.~._.                                                            ",
"                                                          c.W@i.i.(.5.4.a.v.r.n.n.E.E.Q.Q.V.V.;+;+>+e+d+d+F+E+I+I+X@Y@                                                                                                                                                                                                                  Z@`@e+>+;+;+V.V.Q.Q.E.E.n.n.v.v.a.4.5.(.i.{.%.%.#.|.Q -.R R w w [.                                                                                                                                                                                                                                            U.x w L R R Q Q #.#.{.{.(.(.5.5.a.a.r.n.E.E.H.Q.Q.Q.V.V.=+=+e+ #.#                                                                                                                                                                                                                    +#@#I+I+F+F+d+d+>+>+;+V..+}+Q.Q.E.E.n.n.v.a.e.e.(.(.{.##t                                                           ",
"                                                          9+~.5.5.4.a.v.r.n.P.H.H.Q.Q.V.V.=+=+e+e+d+H+E+E+ @$##@#@%#&#*#                                                                                                                                                                                                                  =#-#d+e+>+=+;+V.V.Q.Q.E.E.n.n.v.a.4.4.(.(.i.{.%.@.#.Q Q w.R R L.E                                                                                                                                                                                                                                         ;#>#v R R Q Q #.@.{.{.~.(.5.5.a.a.n.n.P.E.D.Q.Q.}+V.V.=+>+d+d+,#K@                                                                                                                                                                                                                      '#)##@#@I+I+E+E+d+d+e+>+;+;+V.V.Q.Q.E.E.n.n.v.a.4.4.(.(.!#                                                          ",
"                                                        E ~#~.5.5.4.a.v.r.n.E.H.H.Q.Q.V.V.=+=+e+e+H+H+E+I+I+$##@#@)#%#{#]#                                                #+x.)                                                                                                                                                             [@^#e+>+;+;+V..+Q.Q.E.E.n.n.v.a.4.4.(.(.i.{.%.@.|.Q -.R R L w /#                                                                                                                                                                                                                                        (#w w R R Q Q #.#.{.{.~.(.5.5.a.a.r.r.P.E.H._#Q.Q.V.V.=+=+e+:#q@                                                                                                                                                            <#[#= }#                                                  |#1#)##@#@I+I+E+E+H+d+e+>+;+;+V..+Q.Q.E.E.n.n.v.a.4.4.(.(.2#3#                                                        ",
"                                                        4#(.5.4.a.v.n.P.P.H.D.Q.Q.V.V.=+=+e+d+F+F+E+I+$##@#@5#%#%#6#6#7#8#                                            <+9#0#x a#y b#                                                                                                                                                          c#d#d+e+>+;+;+V.V.Q.Q.H.E.n.n.v.a.4.4.(.(.{.{.@.@.Q Q w.R L e#f#                                                                                                                                                                                                                                    g#h#R R Q Q #.#.%.{.~.~.5.5.a.a.v.n.P.E.H.Q.Q.Q.V.V.>+>+e+d+i#                                                                                                                                                            # j#k#r C l#m#                                              n#o#6#6#%#%##@#@$# @I+E+H+d+e+e+=+;+V.V.Q.Q.H.H.n.n.v.a.4.4.(.p#                                                        ",
"                                                        q#(.5.4.4.a.v.n.n.E.E.Q.Q.V.V.;+=+e+e+H+H+E+I+r#r##@#@%#%#6#6#7#s#t#                                        u#v#e.e.~.@.R e w#                                                                                                                                                            R@>+=+V.V.}+Q.Q.H.E.E.r.r.a.a.5.5.(.~.{.{.#.#.Q Q R R w w x#y#                                                                                                                                                                                                                                y#z#w L R R -.Q Q @.%.{.{.(.5.4.4.a.v.n.n.E.E.Q.Q.V.V.;+=+e+A#                                                                                                                                                            B#C#x -.{.(.5.5.D#                                            E#6#6#F#)#)##@#@I+I+E+E+d+d+e+>+;+V..+}+Q.Q.E.E.n.n.a.a.e.5.(.G#                                                        ",
"                                                      _ H#4.4.v.v.n.P.H.H.Q.Q.V.V.=+=+e+e+F+F+I+I+$##@#@#@%#%#6#6#7#I#I#J#K#L#                                    u#X+d+d+e+V.Q.a.%.w M#                                                                                                                                                            k@d+>+>+V.V.Q.Q.Q.H.E.P.n.n.a.4.5.5.~.~.{.%.#.#.Q Q R R w F.                                                                                                                                                                                                                                N#v L R R Q Q @.@.{.{.(.(.4.4.a.a.n.n.E.E.Q.Q.V.V.;+=+e+e+O#                                                                                                                                                            . P#R (.n.Q.;+e+e+Q#R#                                        .#S#I#7#T#6#6#%#%##@#@$# @E+E+H+d+e+>+=+;+V.@@Q.Q.E.E.n.n.a.a.4._+U#                                                      ",
"                                                      Z+V#e.4.v.v.n.n.E.E.Q.Q.V.V.=+=+e+e+H+F+I+I+$##@#@5#%#%#6#6#I#I#J#J#W#X#Y#                                *#Z#6#I#I#7#%#I+V.n.%.`#[#                                                                                                                                                            ^#=+=+V.V.Q.Q.Q.H.E.n.r.v.a.4.5.(.i.{.%.%.#.Q Q -.R L w  $H@                                                                                                                                                                                                                            .$+$w w R R Q Q #.#.{.{.(.(.5.e.a.a.n.n.E.E.Q.Q.V.V.;+=+e+:#                                                                                                                                                              @$-.5.Q.e+#@%#I#7#6##@#$                                    L#$$I#I#I#7#6#6#%#%##@#@$#I+E+E+H+d+e+>+=+;+.+}+Q.Q.E.E.n.n.a.a.e.V#%$                                                      ",
"                                                      #+4.a.v.n.n.H.H.Q.Q.V.V.=+=+e+d+F+F+I+I+#@#@5#)#%#%#T#T#I#I#&$W#*$*$=$-$;$                              >$,$'$)$!$!$~${$*$%#d+n.%.]$                                                                                                                                                            X.^$d+>+>+V.V.Q.Q.H.H.P.n.v.v.4.4.(.(.~.{.@.@.|.Q w.R L L /$z                                                                                                                                                                                                                         ($_$w R R Q Q #.@.{.{.~.(.5.5.a.a.n.n.E.E.Q.Q.@@V.;+;+>+e+:$<$                                                                                                                                                            y.[$}$Q.I+T#-$|$1$1$~${$*$2$3$                                4$=$W#W#&$&$I#I#6#6#%#%#5##@$#$#I+E+H+d+e+e+;+;+V.V.Q.Q.E.E.n.n.a.5$6$                                                      ",
"                                                      #+6.a.a.n.n.E.E.Q.Q.}+V.;+;+e+e+H+H+E+I+$#r##@#@%#%#6#6#I#I#J#J#W#*$7$7$-$8$                          9$0$|$a$b$c$c$d$e$~$*$#@V.5.I@*@                                                                                                                                                            f$g$=+;+.+}+Q.Q.E.E.n.n.a.a.e.5.(.~.{.{.#.#.Q Q R R w w r h$                                                                                                                                                                                                                        N#x x v R R -.Q |.@.%.{.i.(.5.4.a.v.r.n.E.H.H.Q.Q.V.V.=+i$i+                                                                                                                                                              j$#.E.H+7#k$!$l$d$d$d$l$m$-$n$z+                            o$7$*$W#W#J#I#7#T#6#6#)#)##@#@I+I+E+E+d+d+e+>+;+V.}+Q.Q.H.E.P.r.v.a.p$                                                        ",
"                                                        q$n.n.E.E.Q.Q.V.V.;+=+e+e+d+F+E+I+$##@#@#@%#%#6#6#I#I#&$W#*$*$=$-$'$'${$r$s$                      t$W#!$b$u$v$w$x$v$u$b$~$W#I+H.#.y$                                                                                                                                                              z$A$e+;+V.V.@@Q.Q.E.E.n.n.a.a.5.5.(.~.{.%.#.#.Q Q R R w B$C$                                                                                                                                                                                                                    g#D$v v R R Q Q @.@.{.{.(.(.4.4.a.v.n.n.E.H.Q.Q.V.V.=+=+A$J.                                                                                                                                                              - E$5.=+%#{$F$c$G$H$I$H$G$J$F${$K$z+                        L$M$-$-$7$7$*$W#J#I#I#7#6#6#%#%##@#@$# @E+E+d+d+>+>+;+V.}+Q.Q.H.E.P.n.N$                                                        ",
"                                                        O$r.n.E.E.Q.Q..+.+;+=+e+e+d+H+E+I+$##@#@5#%#%#6#6#I#I#&$P$*$*$-$-$'$'${${$Q$R$                S$T$T#|$b$U$w$V$W$X$Y$H$Z$a$'$#@.+{.`$                             %.%+%                                                                                                                              @%>+;+V..+Q.Q.H.E.E.r.v.a.a.5.(.~.i.%.@.#.Q -.R R L w x #%_                                                                                                                                                                                                                 y#$%r w w R R Q Q #.#.{.{.(.(.5.e.a.v.n.n.E.E.Q.Q.V.V.=+=+%%                                                                                                                            &%*%=%-%                            [#;%v.H+I#~$>%,%'%)%!%X$~%v$c${%*$]%z+                    L$^%k$'$-$7$7$*$W#J#J#I#I#6#6#%#%##@#@r#I+E+E+d+d+>+=+;+V.}+Q.Q.H.E.n./%U#                                                        ",
"                                                          (%E.Q.Q.@@V.;+;+>+e+F+F+E+I+$##@#@)#%#%#T#T#I#I#W#W#*$*$-$-$'$k$_%_%:%|$~$<%[%            }%|%$#-$a$u$w$W$1%2%3%4%Y$v$5%~$T#>+5.6%                          7%8%u$9%0%a%                                                                                                                            b%>+>+;+V.Q.Q.Q.H.P.n.r.v.4.4.5.(.{.{.@.@.Q Q R R L v x c%                                                                                                                                                                                                                d%x w R R Q Q #.#.%.{.~.(.5.5.a.a.n.n.E.E.Q.Q.V.V.;+=+e+e%                                                                                                                            f%g%u$u$h%i%                          x.@.E.#@-$e$j%k%l%1%m%3%n%Y$o%5%:%T#p%m+                q%r%|$|${${$'$'$-$=$*$W#W#&$I#I#6#6#%#%##@#@$# @E+E+d+d+>+>+V.V.}+Q.H.s%3+                                                          ",
"                                                            t%u%Q.Q.}+V.;+=+e+d+d+E+E+I+r##@#@%#%#6#6#I#I#J#W#*$*$=$-$'$'${${$|$|$~$~$v%c@        w%x%}+)#{$y%,%Y$z%A%B%C%D%)%E%d$~$6#=+(.F%                          G%H%u$H%u$0%                                                                                                                            X.I%=+V.V.Q.Q.E.E.n.n.a.a.e.5.(.(.{.{.#.#.Q Q R R w w r G g+                                                                                                                                                                                                            J%j r x v L R -.Q Q @.%.{.i.(.5.4.a.v.r.P.E.H.Q.Q.}+V.;+K%$@                                                                                                                            L%H%u$u$u$M%                          . N%E.$#-$e$u$O%n%P%Q%Q%3%W$x$J$m$J#d+R%N               S%~$|$|${${$'$-$7$7$*$W#J#J#I#7#6#6#)#)##@#@I+I+E+F+d+e+=+=+V.V.Q.T%U%V%                                                            ",
"                                                              W%*.X%Y%>+>+d+d+E+E+ @$##@#@%#%#6#6#I#I#W#W#*$*$-$-$'$k$_%_%|$:%~$~$m$!${%Z%      ( `%(.=+6#~$d$H$X$3% &.&B%+&X$I$d$~$T#>+(.g#                          @&U$G$U$G$u$#&                                                                                                                            4#$&=+;+V.V.Q.Q.E.E.n.n.a.a.5.5.~.~.{.%.#.Q Q o.R L w x %&Z                                                                                                                                                                                                         3#&&r w v R R Q Q @.@.{.{.(.(.4.4.v.v.n.P.H.H.Q.Q.V.V.>+>+*&                                                                                                                            =&G$U$G$-&G$;&                          *@>&E.#@-$e$U$,&4%A%'&)&!&4%'%u$a$=$I+P.~&{&          ]&^&m$~$~$|$|${${$'$'$=$=$*$W#J#J#I#I#6#6#%#%##@#@I+I+F+F+d+d+=+/&(&u#                                                                ",
"                                                                    _&c#:&<&H+E+E+I+$##@#@%#%#6#6#I#I#W#W#*$*$-$-$'$k$_%|$|$|$~$~$m$!${%{%[&}&- |&r (.;+6#:%>%v$V$1%1&Q%P%z%2&,%y%{$)#}+3&                            4&-&G$-&G$U$5&6&                                                                                                                            7&=+;+.+}+Q.Q.E.E.n.r.a.4.5.5.i.{.%.@.|.Q -.R L v x x j 8&9&                                                                                                                                                                                                    0&a&r r w w R R Q Q #.#.{.{.(.(.5.e.a.a.n.n.E.E.Q.Q.V.V.=+b&x@                                                                                                                          c&d&G$U$G$-&G$e&f&                          g&v.F+W#{%Z$w$W$+&h&h&m%i&j&9%F$7$E+P.Q < k&      l&m&m$m$~$~$|$|${${$'$'$-$=$*$*$J#J#I#I#6#6#%#%##@#@I+I+F+F+d+n&7&&+                                                                    ",
"                                                                          o&p&q&$##@#@%#%#6#T#I#I#W#W#*$7$-$-${${$_%|$:%)$~$~$!$!$F$F$a$a$r&g#' s&x (.;+6#|$b$,%O%i&1%t&u&X$w$j%F$=$I+v&V+                          w&x&o%o%o%o%,%o%y&                                                                                                                            &+z&>+;+V.V.Q.Q.H.E.P.v.v.a.4.(.(.{.{.@.@.Q Q R R v v r r A&                                                                                                                                                                                                    B&C x w L R o.Q Q #.%.{.~.(.5.5.a.a.n.n.E.H.Q.Q.V.V.=+=+2+}@                                                                                                                          C&D&,%o%,%o%o%E&o%F&                          B#G&e+T#~$5%E&2&H&1%3%4%)%I$Z${%*$E+P.Q < s&I&  J&K&L&F${%!$!$~$~$:%|$_%_%'$'$-$=$*$W#W#&$I#7#6#6#%#%##@#@I+I+M&x@                                                                        ",
"                                                                              $@N&#@#@)#)#6#6#I#I#J#J#*$*$=$-$'$k${$_%|$|$~$~$m$m${%F$L&O&e$P&Q&R&e @.Q.I+7$!$c$o%'%Y$S&O%H$Z$l$k$F#T&u#                            U&V&,%o%,%o%,%,%,%W&                                                                                                                            X&=+V.V.Q.Q.E.E.n.n.a.a.5.5.~.i.{.%.#.|.Q -.R L w x G j e G+                                                                                                                                                                                                y$e e r r w w R R Q Q #.#.{.{.(.(.e.a.v.r.n.E.H.Q.Q.}+V.;+Y&                                                                                                                            Z&,%,%o%,%o%o%o%o%`&                             *.*I+*$!$c$o%'%Y$)%,&w$u$y%|$6#=+a.v { R&+*@*#*F$F${%!$m$1$~$~$|$|${${$'$-$7$7$W#W#J#I#7#6#6#%#)#5##@#@$*#$%*                                                                          ",
"                                                                                _&&***6#6#7#I#&$&$*$*$-$-$'$k$_%_%|$:%~$~$!$!$F$F$a$a$e$l$y%y%=*Q&< Q n.d+I#|$e$c$G$o%v$G$Z$l$~$I#-*u#                              ;*>*v$E%v$E%v$v$v$,*'*                                                                                                                          c@)*=+;+V.V.Q.Q.E.E.n.r.a.a.5.(.~.{.%.@.|.Q R R L v x r j !*+                                                                                                                                                                                             0&~*j r x w R R Q Q #.#.{.{.~.(.5.4.a.v.n.n.H.H.Q.Q.V.V.>+{*$@                                                                                                                          C&]*v$v$E%v$E%E%E%E%C&                              '.^*%#'$F$d$U$o%E%o%u$b$!$7$#@}+(.x , /*(*_*y%e$e$a$L&{%{%!$!$~$~$|$|${${$'$'$=$=$*$W#I#I#7#T#6#%#)#:*<*                                                                              ",
"                                                                                    [*}*|*7#I#J#J#*$*$-$-$'$k$_%|$|$)$~$~$!$!$F$F$a$a$l$l$y%y%b$1*2*x (.Q.I+I#_%!$l$b$b$e$!$k$I#-*u#                                 %3*E%E%E%E%v$v$v$v$4*                                                                                                                            5*;+;+.+}+Q.H.E.P.r.v.a.4.(.(.{.{.@.#.Q Q R R w w r r e e 6*5                                                                                                                                                                                         7*8*f j j x w L R w.-.Q #.%.{.i.(.5.5.a.a.n.n.E.E.Q.Q.V.V.=+9*                                                                                                                            @&v$E%v$E%v$E%E%H$E%0*                                '.a*%#-$~$e$b$5%b$e$~$-$%#e+v.Q 0 R&b*c*y%y%e$e$a$a${%{%m$m$~$~$|$|${${$'$'$7$7$*$W#J#I#7#T#F#%#d*e*                                                                                ",
"                                                                                        f*g*W#*$*$=$-$'$k$_%|$:%)$~$~$!$!$F$F$e$e$l$h*b$b$5%5%d$d$i*< Q a.V.I+I#7$_%|$|$k$*$6#-*u#                                  j*k*x$x$x$x$I$I$H$I$H$l*                                                                                                                          8@m*>+;+V.Q.Q.H.H.P.n.v.a.4.5.(.(.{.{.@.#.Q Q R R w x r C e n*-                                                                                                                                                                                     ! o*e j r x v v R R Q Q @.%.{.i.(.5.4.a.4@n.E.E.Q.Q.V.V.;+=+z&|#                                                                                                                          p*q*H$I$I$x$I$w$x$w$x$r*                                  '.^*5#J#'$|$~$|${$W#%#d+H.{.w { s*t*d$>%b$y%y%l$e$a$a$F$F$!$!$~$~$|$|$_%{$'$'$=$=$W#W#J#I#u*v*                                                                                    ",
"                                                                                          l@w*W#*$7$-$'$'${$_%|$|$~$~$!$!$F$F$a$a$l$l$y%b$b$>%d$d$c$x*e Q e.Q.e+I+)#%#%##@F+C+u#                                    y*z*I$x$I$x$H$I$H$H$H$A*B*                                                                                                                          C*=+V.V.Q.Q.E.E.n.r.a.a.5.5.i.{.%.@.|.Q R R L w x r j e q 0 ;.                                                                                                                                                                                  ! D*0 f e j G w w R R Q Q #.#.{.{.(.(.e.e.a.v.n.P.E.Q.Q.}+V.;+Y&                                                                                                                          E*F*H$H$I$H$x$H$w$x$w$x$G*                                    H*I*e+#@)#6#%##@F+;+n.{.w }   J*d$d$b$b$y%y%l$e$a$F${%{%m$m$~$~$|$|${${$-$-$7$7$W#W#I#K*l.                                                                                      ",
"                                                                                              L*M*'$'${$_%|$:%~$~$!$!$F$F$a$e$h*l$y%b$5%5%d$N*J$J$Z$Z$O*f Q ~.n.H.V.V.V.Q.A.u#                                      P*Q*w$'%w$k%w$w$w$w$w$w$R*                                                                                                                          S*T*=+;+V.Q.Q.D.E.P.n.v.4.4.(.(.{.{.@.@.Q Q R R w w r r e f 0 U*                                                                                                                                                                                V*q f j j r x v L R Q Q #.@.{.~.~.5.5.a.a.n.n.E.E.Q.Q.V.V.=+W*w+                                                                                                                          X*w$w$w$w$w$'%w$'%k%'%Y*Z*                                      H*`*Q.V.;+V.V.E.a.%.L 0    =.=c$c$d$d$>%b$y%y%l$e$a$a$F${%!$!$~$~$|$|${${$'$-$7$*$+=@=                                                                                        ",
"                                                                                                #=$='${$_%|$|$~$~$!$!$F$F$a$e$l$l$b$b$5%d$d$N*J$J$Z$Z$9%%=< r -.#.{.{.{.M+}%                                          &=j&'%j&'%w$w$w$w$w$w$*===                                                                                                                          -=;+V.}+Q.Q.H.P.n.v.a.e.5.(.(.{.{.#.#.Q -.R R w x G j e f < $.;=                                                                                                                                                                            >=< 0 q e e r r w w R R Q Q @.%.{.i.(.5.a.a.r.n.E.E.Q.Q.V.V.=+[+                                                                                                                          ,='=w$w$w$w$w$'%)='%'%'%!=~=                                        z {={.(.i.{.Q R e }   ]=^=Z$c$c$d$d$>%b$b$y%l$e$a$a$F${%!$m$~$~$|$|${$k$-$-$/=(=_=                                                                                          ",
"                                                                                                  :=<=:%:%~$~$!$!$F$F$e$e$h*y%b$b$d$d$N*c$J$J$Z$Z$u$u$U$U$[={ < f C r {@*@                                            }=O%,&O%,&'%'%'%'%'%'%'%|=1=                                                                                                                        b+>+>+V.V.Q.Q.H.E.n.n.a.a.5.5.~.6.{.@.#.Q Q R L v x r j e f q 2=3=                                                                                                                                                                        1 4=< f e C r x w R R Q Q #.@.{.{.(.(.4.4.v.v.n.E.H.Q.Q.V.;+=+e+5=                                                                                                                        6=7='%'%'%'%'%'%,&O%,&O%,&8=                                            9=0=r r r f 2 R&  a=b=u$u$Z$Z$J$J$N*d$d$5%b$y%l$l$a$a$F$F$!$!$~$~$|$|${$c=d=                                                                                              ",
"                                                                                                    +#e=f=~$~$m$m${%F$a$a$l$l$b$b$>%g=d$d$J$J$Z$Z$9%u$u$U$G$h=R&R&R&i=*@                                              j=~%O%~%O%'%'%'%'%j&'%w$)=k=                                                                                                                        l=m=;+.+}+Q.Q.E.P.r.v.4.e.(.(.{.{.#.#.Q Q R R w w r G e f 0 < } n=o=                                                                                                                                                                    9.p=[ < 0 q e j r x w L R -.Q |.@.%.i.i.5.5.a.a.r.n.E.E.Q.Q.V.V.q=$@                                                                                                                        r=w$'%j&'%'%'%'%O%'%O%O%O%s=                                              9=t=R&R&R&R&  u=v=u$9%9%Z$Z$c$c$d$d$>%b$y%y%l$e$O&F${%!$1$~$~$)$|$_%w=x=                                                                                                ",
"                                                                                                        y=z=!${%F$a$a$l$l$y%b$5%d$d$c$J$J$Z$Z$u$u$U$-&G$,%o%o%A=R&B=*@                                                C=2&Y$2&Y$,&,&,&,&O%O%'%'%D=E=                                                                                                                        F=>+;+V.Q.Q.H.H.P.n.a.a.4.5.(.~.{.%.#.Q Q R R v x x j j f f < < G=Q+                                                                                                                                                                o=H=} < 0 f e r r w w R R Q Q @.@.{.{.(.(.4.a.v.r.P.E.Q.Q.V.V.=+=+I=                                                                                                                        J=K='%O%O%,&,&,&,&Y$2&Y$Y$Y$L=                                                - M=, s&  N=O=G$G$U$u$u$9%Z$Z$J$J$d$d$>%b$y%y%e$e$a$L&{%!$m$~$~$P=Q=                                                                                                  ",
"                                                                                                          R=S={%F$a$a$l$l$b$b$5%d$d$c$J$J$Z$Z$u$u$U$-&,%,%o%o%v$T=U=                                                  V=Y$Y$Y$Y$2&2&,&,&O%O%O%O%'%W=7%                                                                                                                      X==+V.V.Q.Q.E.E.n.n.a.a.5.5.i.{.%.@.|.Q R R v w x r e e q 0 < } } Y=0&                                                                                                                                                            b#Z=} } < < q f j G x w R R -.Q #.#.{.{.(.(.5.4.v.v.n.E.H.Q.Q..+;+;+5=                                                                                                                      `=|='%'%O%O%,&,&2&2&Y$2&Y$Y$Y$6=                                                  -  -  C&.-o%G$G$U$U$u$u$Z$Z$J$J$d$d$>%b$y%y%e$e$a$F${%!$1$~$;$+-                                                                                                    ",
"                                                                                                            [%@-a$e$h*b$b$5%d$N*c$J$Z$j%j%u$u$G$G$,%o%v$v$E%E%I$#-$-                                                  0*%-)%)%)%S&S&Y$&-Y$Y$2&Y$,&,&*-                                                                                                                      n#{*=+;+V.V.Q.Q.E.P.n.v.a.4.(.(.{.{.@.#.Q Q R R w w r j e f < < } } =-x.                                                                                                                                                        b#--} 2 < 0 q e j r x v L R R Q #.@.%.6.~.5.5.a.a.n.n.E.H.Q.Q.V.V.>+;-*#                                                                                                                    >-,-,&2&,&Y$Y$&-Y$S&S&)%S&)%)%'-)-                                                      !-~-E%E%E&E&,%,%-&U$u$u$Z$Z$J$J$d$d$5%5%y%y%l$e$L&L&{-]-^-                                                                                                      ",
"                                                                                                              /-(-e$l$y%b$>%g=d$d$J$J$Z$Z$u$u$-&-&,%,%o%_-E%E%H$H$:-<-                                                  [-)%S&)%V$S&Y$Y$Y$Y$2&2&O%O%'%W&                                                                                                                      }-;+V.}+Q.E.E.n.n.a.a.e.5.~.i.{.%.#.Q -.R L w x r j e q 0 < K } ] , |-x.                                                                                                                                                    ` 1-, , } } < < f e j G x w R R Q Q #.#.{.{.(.(.4.a.v.r.P.E.Q.Q..+V.=+S.                                                                                                                      2-k%O%,&,&Y$Y$Y$Y$V$V$)%S&)%)%3-                                                      4-5-H$E%v$o%o%,%G$U$U$u$u$Z$Z$c$c$d$d$b$b$y%l$e$e$F$6-(*                                                                                                          ",
"                                                                                                                7-8-9-5%5%d$N*J$J$Z$Z$u$u$G$G$,%,%v$v$E%H$I$x$w$w$'%0-a-                                                b-l%X$l%X$X$)%)%)%)%S&S&Y$Y$2&c-`&                                                                                                                    d->+=+V.V.Q.Q.E.E.n.v.a.4.5.(.i.{.@.@.Q Q R R w w r C e f 0 < } } { { e-<#                                                                                                                                                f-g-, { } [ < 0 q e j r x v L R -.Q #.%.{.~.(.5.e.a.v.n.n.H.H.Q.}+V.;+e+h-                                                                                                                    i-j-Y$Y$&-Y$)%)%)%)%X$X$l%X$l%l%k-                                                    `=l-w$w$I$I$E%E%v$E&,%G$-&U$u$u$Z$Z$J$J$d$d$b$b$y%h*m-n-                                                                                                            ",
"                                                                                                              o-p-  q-r->%d$N*J$J$Z$Z$u$u$-&G$,%,%v$v$H$H$x$w$w$w$'%'%s-t-                                              u-l%!%l%X$X$X$X$)%)%S&S&Y$Y$2&2&}=B*                                                                                                                  &+=+;+V..+Q.Q.E.P.r.v.a.4.(.(.{.{.#.#.Q Q R L w x G j f f < < } } , , R&v-w-                                                                                                                                            1 x-R&R&{ { } K < 0 e e r r w w R R Q Q @.%.{.i.5.5.a.a.n.n.E.E.Q.Q.V.V.>+y-                                                                                                                  z-}=,&Y$Y$S&Y$)%)%X$)%X$X$l%X$l%l%A-                                                  B-C-'%w$w$I$I$E%E%v$E&,%,%-&U$u$u$Z$Z$c$c$d$d$b$b$y%p%I&#                                                                                                             ",
"                                                                                                            Z D-s&s&  E-F-J$J$Z$Z$u$u$G$G$,%o%v$v$H$H$w$w$G-'%'%'%,&,&2&H-p*                                            I-J-K-L-W$W$W$W$l%l%X$X$)%)%S&S&Y$M-                                                                                                                  7+N->+;+V.Q.Q.H.H.n.n.a.a.5.5.(.~.%.@.#.Q w.R L v x r j e q 0 < 2 } { s&, O-P-                                                                                                                                        >=Q-s&, { } } < < f f j r x w L R Q Q #.@.{.{.(.(.4.4.v.n.P.E.Q.Q.V.V.=+>+R-S-                                                                                                                  T-&-Y$)%)%X$)%l%l%W$l%W$W$K-W$L-U-V-                                                W-X-O%O%'%'%w$w$x$x$H$E%v$E&,%,%G$U$u$u$Z$Z$J$J$d$d$C+, s&Y-                                                                                                            ",
"                                                                                                          ) Z-} , R&R&  `- ;c$Z$Z$u$u$U$-&,%,%v$_-E%H$x$x$w$w$'%'%O%O%,&2&.;+;                                            @;W$K-W$W$l%W$X$X$X$X$)%)%Y$Y$2&#;V=                                                                                                                  X+=+V.V.Q.Q.E.E.r.v.a.4.(.(.{.{.#.#.Q Q R R w x G j f f < < } } , , R&R&R&$;%;                                                                                                                                  + &;2*R&R&R&R&{ { } K < 0 e e r r w w R R Q |.@.%.{.i.5.5.a.a.n.n.E.E.Q.Q.V.;+*;+#                                                                                                                u-#;Y$Y$S&S&)%)%X$X$l%l%W$W$W$W$K-=;                                                -;;;,&O%~%'%'%w$w$H$H$E%E%o%o%,%G$U$u$u$H%Z$J$c$c$d$>;R&, , } o                                                                                                           ",
"                                                                                                        ,;';Q Q R w f }   );!;u$u$U$G$,%,%v$v$H$H$x$w$w$)='%'%,&,&2&Y$&-S&)%%-~;                                          {;i&H&i&i&];i&W$W$W$W$X$^;)%)%S&S&/;`&                                                                                                                :$>+;+V.}+Q.D.H.n.n.v.a.5.5.(.~.%.@.#.Q w.R L v x r j e q 0 < 2 } { s&, R&, R&(;<#                                                                                                                            ! _;, R&, R&, , } } < < f f j r x w L R Q Q #.@.{.{.(.(.4.a.v.n.E.E.Q.Q.V.V.=+>+:;                                                                                                                i-/;Y$)%)%X$X$l%l%W$W$L-K-i&i&i&i&H&<;                                              i-[;Y$Y$2&2&O%O%'%'%w$w$x$I$E%E%v$E&,%G$U$u$9%j%Z$J$};< j v R Q |;1;                                                                                                        ",
"                                                                                                      2;3;v.n.n.a.(.#.v <   4;5;u$U$-&,%,%v$v$H$H$x$w$w$j&'%'%,&O%Y$Y$S&V$)%)%6;~;                                        7;i&H&i&i&];i&W$K-W$W$!%X$X$)%S&S&Y$8;                                                                                                                Y&=+V.V.Q.Q.E.E.n.r.a.a.5.(.i.{.@.#.Q Q R R w w r G e f 0 < } } { , R&R&R&R&R&R&9 _                                                                                                                         Z 9;R&R&R&R&R&R&, { } K < 0 q e j r x v R R -.Q #.%.{.~.(.5.e.a.v.n.E.H.Q.}+.+;+=+[+                                                                                                                0;Y$V$)%)%X$X$l%l%W$W$];K-i&i&H&i&n%`=                                            a;b;)%Y$Y$Y$2&O%O%'%'%w$w$x$I$E%E%_-o%,%G$U$u$H%Z$Z$X e R %.5.a.r.a.c;d;                                                                                                      ",
"                                                                                                      e;e+E+I+I+d+V.E.5.Q f   C&f;,%,%v$v$E%H$x$w$G-'%'%'%,&,&Y$Y$S&)%X$X$l%l%W$g;h;                                      i;j;z%4%4%n%n%i&i&i&i&W$W$l%l%X$X$)%)%k;                                                                                                              l;e+=+=+V.V.Q.Q.E.P.r.v.4.4.(.(.{.{.#.#.Q o.R L x x j j f q < < } m;, , s&, s&, s&n;+                                                                                                                     o;p;, s&, s&, s&{ { } } < 0 f e C r w w R R Q Q @.@.{.i.(.5.a.a.n.n.E.H.Q.Q.V.V.>+e+p&                                                                                                              q;S&)%)%l%l%W$W$L-K-i&i&n%n%4%4%u&4%r;s;                                          t;u;l%l%)%)%S&S&Y$Y$,&,&'%'%w$w$x$I$E%E%E&o%,%G$u$v;w;w @.a.Q.>+d+E+E+d+p%J.                                                                                                    ",
"                                                                                                    x;)#7#W#*$W#7#5#d+Q.5.R <   y;z;,%o%_-E%H$x$x$w$w$'%'%O%,&Y$Y$S&S&X$X$l%l%W$W$A;B;                                      C;4%n%n%n%n%i&i&];];W$W$l%l%X$)%S&S&D;E;                                                                                                            F;>+;+V.Q.Q.E.E.n.n.a.a.5.5.i.{.%.@.Q Q R R w w r G e e 0 < K } { , R&R&R&R&R&R&R&R&G;H;9&                                                                                                            0&I;+*R&R&R&R&R&R&R&R&, ] } K < 0 q e j x x v R w.-.|.#.{.{.~.(.e.e.a.r.P.E.H.Q.}+V.;+=+x;                                                                                                            J;K;Y$)%)%X$X$W$W$K-K-i&i&H&H&n%n%4%n%L;                                          a;M;W$!%!%)%)%V$V$2&2&O%O%'%'%w$w$H$H$E%v$o%o%G$G$N;O;G @.v.;+I+F#I#W#P$I#%#1@'+                                                                                                  ",
"                                                                                                  P;J#{$~$F$L&F$~$'$I#I+Q.(.v }   C&Q;E%E%I$x$w$w$'%'%,&,&Y$Y$)%)%X$X$l%W$K-K-i&i&n%R;S;                                    T;U;z%z%z%z%4%4%n%n%i&i&K-K-l%l%X$X$S&V;j*                                                                                                          W;d+>+=+V.V.Q.Q.E.P.n.v.4.4.(.(.{.{.#.#.Q Q R L w x j j f q < < } } , , R&, s&, R&, R&, X;b                                                                                                         5 Y;R&, s&, R&, R&, R&{ { } } < 0 f e r r w w R R Q Q @.%.{.~.(.5.a.a.n.n.E.H.Q.Q.V.;+>+e+Z;                                                                                                           %V;)%)%^;l%W$W$L-i&i&i&n%n%u&4%z%z%`;z%~;                                         >.>i&i&K-W$l%l%X$)%S&S&Y$Y$O%O%'%'%w$w$I$I$E%v$o%+>i e #.n.>+%#W#|$1$F$F$!$|$7$@>7+                                                                                                ",
"                                                                                                %%#>~$l$d$Z$Z$Z$b$F$k$T#d+n.Q q R&  $>%>E%I$w$w$w$'%'%,&,&Y$Y$)%)%X$X$W$W$K-];i&i&n%n%&>*>                                  f%=>z%z%z%z%n%4%n%n%i&i&K-K-l%l%X$X$S&S&->;>                                                                                                        E@e+=+;+.+Q.Q.H.P.n.v.a.e.5.(.~.{.%.#.Q -.R L v x r j e q 0 < } ] { s&R&R&R&R&R&R&R&R&R&R&|&t+                                                                                                  x.>>x-R&R&R&R&R&R&R&R&R&R&, , } } < < f f j G x w R R Q Q #.@.{.{.(.5.4.a.v.n.E.E.Q.Q.V.V.=+>+V@                                                                                                        ,>'>Y$)%)%X$!%W$W$];i&H&i&n%n%z%z%z%z%U;)>!>                                      ~>{>n%i&i&K-K-l%l%X$X$S&S&Y$Y$O%O%'%'%w$w$I$H$v$v$]>n=, w (.V.#@*$~$l$d$Z$Z$J$y%!$-$^>/>                                                                                              ",
"                                                                                              >$(>!$5%G$H$'%'%w$,%J$F$'$)#V.(.x s&,   y*_>w$k%'%'%,&,&Y$Y$)%)%^;l%W$W$i&i&H&n%4%4%z%z%`;:><>                                  [>1%1%1%1%z%z%z%z%n%n%i&i&K-K-W$l%X$)%)%}>                                                                                                        W;d+e+>+V.V.Q.Q.E.E.n.n.a.4.5.(.{.{.@.@.Q Q R R w x r C f f < < } } { , s&, s&, s&, s&, s&, s&X;_                                                                                             N.|>, s&, s&, s&, s&, s&, s&{ { 2 [ < q e e r x v v R w.Q #.@.{.~.(.5.4.a.v.n.P.H.Q.Q.V.;+=+e+d+1>                                                                                                        2>)%)%l%l%W$W$i&i&H&n%4%4%z%z%1%U;1%1%D%3>                                      4>5>z%z%4%4%H&i&L-K-W$W$X$X$)%S&Y$Y$,&,&'%'%w$w$I$6>7>, < Q n.E+I#~$y%u$v$k%'%w$,%J$a${$8>                                                                                              ",
"                                                                                            =#9>{$y%u$)=)%i&];X$j&G$b$|$6#=+5.w , R&i=  0*0>w$'%'%O%O%Y$Y$S&)%X$X$l%W$K-];i&i&n%n%z%z%z%z%a>b>                                t;1%1%c>c>z%z%4%4%n%n%i&i&W$W$l%!%)%)%Y$d>C=                                                                                                      e>e+=+;+.+Q.Q.H.P.n.v.a.e.5.(.~.%.@.#.Q R R L w r r e e 0 < K } { { R&R&R&R&R&R&R&R&R&R&R&R&R&R&' f>9&                                        g>|&                                        x.h>+*R&R&R&R&R&R&R&R&R&R&R&R&R&s&, } } < < q f j G x w L R Q Q #.#.{.{.(.5.4.a.v.r.E.E.Q.Q.V.V.=+>+i>                                                                                                      j>k>S&)%X$X$l%W$K-];i&H&n%n%z%z%z%z%1%1%1%l>                                    m>n>z%z%z%n%n%i&i&K-W$l%l%X$)%V$Y$2&,&O%~%j&)=w$x$5-o>R&R&0 #.E.$#*$F$J$H$2&W$];l%O%v$d$!$J#p>                                                                                            ",
"                                                                                          <*q>*${%Z$w$W$1%P%r>1%X$x$J$!$&$F+v.R } B=s>    t>u>O%O%2&Y$S&)%X$X$W$W$L-i&H&H&4%4%z%z%1%1%1%1%t&v>w>                                x>3%D%D%1%1%z%z%z%u&n%n%i&i&K-W$l%^;)%)%y>z>                                                                                                    V@d+e+>+V.V.Q.Q.E.E.n.n.a.4.5.(.{.{.@.#.Q Q R R w x r j f f < < } } , , R&, R&, R&, R&, R&, R&, R&, |-| x.                                    ) { }                                   Z A>B>R&, R&, R&, R&, R&, R&, R&, R&{ { } K < 0 e e r r v v R R Q |.@.{.~.~.5.e.a.v.n.P.H.Q.Q.V.;+=+e+d+,#                                                                                                    C>D>S&)%X$l%W$K-i&H&H&4%4%z%z%1%1%1%1%t&t&E>F>                                  G>H>1%1%1%U;z%z%4%4%i&i&K-K-l%l%X$)%S&Y$2&,&O%'%'%I>J>K>I&, e 6.}+%#{$y%G$,&i&+&r>m%H&,&G$b${$%#L>M>                                                                                        ",
"                                                                                        2;N>#@'$e$-&O%u&P%O>B%P>W$w$Q>!$J#H+a.R B=s>        i-R>O%2&Y$S&S&X$X$W$W$];i&H&n%4%4%z%z%1%1%D%D%t&t&S>T>                              U>3%D%D%1%1%z%z%z%4%n%n%i&i&W$W$!%X$)%)%Y$V>W>                                                                                                  :#d+=+=+V..+Q.Q.E.P.r.v.4.e.(.(.{.%.#.#.-.R R v x r j e q 0 < [ } { , R&R&R&R&R&R&R&R&R&R&R&R&R&R&R&R&R&|-X>-                               , ! Y>} }                           w-w-Z>`>R&R&R&R&R&R&R&R&R&R&R&R&R&R&R&R&R&, , } } < < f e j r w w R R Q Q #.@.{.i.(.5.a.a.n.n.E.E.Q.Q.V.;+>+e+ ,                                                                                                  0*j-Y$V$)%X$l%W$K-];i&H&n%4%z%z%1%1%1%1%t&t&.,                                E;+,@,t&1%1%1%1%z%z%n%n%i&i&];K-W$l%X$)%V$Y$2&,&~%'%#,$,      I&e {.Q.%#{$b$,%Y$z%%,O>Q%t&X$H$N*~$7#&,D#                                                                                        ",
"                                                                                      . o@V.%#|$b$o%Y$1%h&*,=,2%K-w$-,!$J#H+a.;,[#            >,,,S&)%X$X$W$W$i&i&H&n%u&z%z%z%1%1%t&t&+&+&m%m%2%',),                            !,~,+&+&t&3%1%1%c>z%z%z%n%n%i&i&W$W$l%X$)%S&[;`&                                                                                                -#F+e+>+;+V.Q.Q.H.E.n.n.a.a.5.(.~.{.@.@.Q Q R R w w r C e f < < } } { , s&, s&, s&, s&, s&, s&, s&, s&, s&, {,],^,9&                    /,} } ,;(,[ < < _,        I       o=z :,<,, s&, s&, s&, s&, s&, s&, s&, s&, s&, s&{ } 2 < 0 q e j r x v L R Q Q #.%.{.(.(.5.4.v.v.n.E.D.Q.@@V.=+=+d+d+[,Y+                                                                                              },|,&-)%)%l%l%K-K-i&H&4%4%z%z%1%1%D%t&3%3%m%1,2,                              3,4,2%m%m%3%3%t&D%1%1%z%z%4%4%H&i&K-K-W$l%)%)%S&Y$,&5,},          6,{.Q.%#{$b$o%S&1%h&7,O>2%i&w$Z$!$W#d+v.8,                                                                                      ",
"                                                                                      9,@.Q.#@k$l$-&O%n%m%A%2%z%Y$o%b$|$F#;+0,a,                i-b,V$)%X$l%W$K-];i&n%4%4%z%z%1%1%D%t&3%+&m%m%2%P>2%c,                            d,+&+&t&D%1%1%z%z%4%4%n%i&];K-W$l%X$)%V$Y$2&e,i%                                                                                            x@f,d+=+=+V..+Q.Q.E.P.r.v.4.5.(.(.{.%.#.|.-.R R v x r j e q 0 < K } { , R&R&R&R&R&R&R&R&R&R&R&R&R&R&R&R&R&R&R&R&R&R&D-g,k&o=<#h,` b#0&Q+ -} } i,w%j,} K < <  -k,Q+,;l,, |>m,i=n,R&R&R&R&R&R&R&R&R&R&R&R&R&R&R&R&R&R&R&R&R&R&, , } } < < f e j G w w R R Q Q #.@.{.i.(.5.a.a.r.n.E.E.Q.Q.V.;+>+e+o,|#                                                                                            $>p,Y$Y$S&)%X$!%W$W$i&i&n%n%z%z%c>q,1%D%3%t&+&r,                              s,t,P>P>m%m%3%3%D%D%1%q,z%z%n%n%i&i&W$W$l%!%)%)%Y$Y$u,v,              w,P.I+*$a$H%'%K-+&A%1&1%X$H$c$~$I#e+a.x,U=                                                                                    ",
"                                                                                      y,@.Q.#@-$a$j%w$)%n%z%n%)%w$9%a$-$#@z,z+                    7%A,l%l%K-i&H&H&4%4%z%z%1%1%3%t&+&+&2%P>r>r>P%P%!&!&d,                          B,P>C,+&+&3%t&1%1%z%z%4%4%H&i&K-K-l%l%)%)%Y$Y$D,E,                                                                                          Y+F,F+e+>+;+V.Q.Q.H.E.n.n.a.a.5.(.i.{.@.@.Q Q R R w w r C e f < < } } { , R&, s&, R&, R&, R&, s&, R&, R&, R&, s&, R&, R&, G,H,p-D-I,J,, 0 < < @$  K,8*0 f f e , L,M,{ } } { , s&, R&, R&, R&, s&, R&, R&, R&, s&, R&, R&, R&{ } 2 [ < q e j r x v L R Q Q #.%.{.~.(.5.4.a.v.n.E.D.Q.@@V.=+=+d+d+E+N,                                                                                          F&O,Y$&-S&X$X$W$W$i&i&n%n%z%z%U;1%1%D%3%3%m%m%2%P,                            Q,R,1&P%P%r>r>m%m%+&+&t&D%1%1%z%z%4%4%i&i&K-W$l%X$)%[-S,                  T,d+I#~$d$v$,&i&z%z%K-,&o%d$~$I#e+a.v -                                                                                     ",
"                                                                                      y -.n.H+J#~$b$u$I$'%,&'%H$Z$l$|$T#U,t.                        y;V,l%K-];i&H&4%4%z%z%1%1%t&t&+&m%P>P>r>r>P%P%1&1&A%r,s;                        W,P>+&+&t&t&1%1%z%z%4%n%i&i&K-W$l%!%)%)%Y$Y$O%X,                                                                                          b@H+d+>+=+V.V.Q.Q.E.E.n.v.a.4.(.(.{.{.#.#.Q -.R L w x j j q 0 < < } { , R&R&R&R&R&R&R&R&R&R&R&R&R&R&R&R&R&R&R&R&R&R&R&R&, B=Y-R&R&R&, q 0 < < Y,Z,`, '0 f f e f .'+'{ } } } { R&R&R&R&R&R&R&R&R&R&R&R&R&R&R&R&R&R&R&R&R&R&R&, { } } < 0 f e G r w w R R Q Q @.%.{.i.5.5.a.a.n.n.E.H.Q.}+V.;+e+d+F+J@                                                                                        @'#',&2&Y$V$)%X$l%W$];i&H&n%z%z%z%1%1%D%3%3%m%m%$'                            %'&'1&1&P%P%r>r>P>m%+&+&t&D%1%1%z%z%n%n%i&i&W$W$!%X$[;7%                      .*#@=${%c$,%)=,&2&j&v$J$a$-$)#}+(.G !                                                                                     ",
"                                                                                      *'L 4.;+%#-$!$b$j%-&G$u$J$e$~$J#=''+                            -';'i&H&4%4%z%z%1%1%3%3%m%m%2%2%P%P%1&1&A%A%%,%,h&h&>','                      ''r>2%2%m%+&t&t&1%1%z%z%4%4%i&i&W$W$X$X$)%S&Y$,&b,                                                                                      t#1@E+F+d+e+=+V.V.Q.H.H.P.n.a.a.5.5.~.{.%.@.Q Q R R v w r r e f 0 < } } { { s&, s&, s&, s&, s&, s&, s&, s&, s&, s&, s&, m;2 )'!'s&, m;C e e f ~'{']']'^'/'j j r r ('_'4=< < < f } , s&, s&, s&, s&, s&, s&, s&, s&, s&, s&, s&{ } [ < 0 f e j r x L R R Q #.#.{.{.(.(.4.4.v.n.P.E.Q.Q.V.V.>+>+d+H+E+:'&+                                                                                      <',&Y$Y$)%)%l%l%K-i&H&H&4%z%z%U;1%D%3%3%m%m%r>r>['                        }'|'1'h&%,2'A%A%1&1&P%r>2%2%+&+&t&t&1%1%z%z%n%n%i&i&W$3'7%                          4'6#k$L&d$u$G$,%u$J$e$)$I#E+E.@.~*,;                                                                                    ",
"                                                                                      y.5'#.r.e+)#7$|$F$a$e$F$~$-$7#q>'+                                '*6'i&n%n%z%z%1%1%D%t&+&+&P>P>r>P%P%7'A%A%A%A%h&C%h&8'9'                     >0'm%m%+&3%D%1%q,z%z%4%n%H&];K-W$l%)%)%Y$Y$O%O%'%a'                                                                                    b'E+H+d+=+=+V.V.Q.Q.E.P.r.v.4.e.(.(.{.%.#.#.-.R R v x r j e q 0 < K } { , R&R&R&R&R&R&R&R&R&R&R&R&R&R&R&R&R&R&R&R&R&R&{ } } @$9 R&{ e j e f $.c'd']']'e'f'e e G r x g'(,} < < q q } R&R&R&R&R&R&R&R&R&R&R&R&R&R&R&R&R&R&R&R&R&, , } } < < f e j G w w R R Q Q #.@.{.i.(.5.a.a.n.n.E.E.Q.}+V.;+e+e+H+F+7&                                                                                    h''%O%,&2&V$S&X$X$W$W$i&i&n%n%z%z%1%1%t&t&+&m%2%i'j'                      k'l'm'C%C%A%A%A%A%P%P%r>r>P>m%+&3%D%D%q,z%z%z%n%H&];K-n'7%                              o')#7$|$F$e$l$a$!$k$I#I+Q.(.v p'                                                                                      ",
"                                                                                        q'v i.H.e+)#I#=$'$'$=$&$)#r''+                                    ;*s'z%z%1%1%D%t&+&m%2%2%P%P%1&A%A%A%h&h&h&h&Q%Q%t'Q%u'Q,                    v'r>r>m%m%3%3%1%1%z%z%4%4%i&i&K-W$l%X$)%S&Y$2&O%'%a'                                                                                w'x'I+F+F+e+e+;+V.}+Q.H.E.n.n.a.a.5.5.i.{.@.@.Q Q R R w w r C e f < < } } { , R&, R&, R&, R&, R&, R&, R&, R&, R&, R&, } q < < %;y'{ x x x r C z'A']']']']'B'C'r w w L D U.< f f e j r 2 , R&, R&, R&, R&, R&, R&, R&, R&, R&, R&{ } 2 [ < q e j r x v L R Q Q #.%.{.~.(.5.4.v.v.P.E.Q.Q.V.V.=+=+d+d+E+I+D'S*                                                                                *-'%,&,&Y$Y$)%X$l%W$K-i&n%n%z%z%1%1%D%t&+&+&2%2%P%E'                      F'G'Q%t'Q%Q%h&h&h&h&A%A%1&!&P%r>P>m%+&3%D%1%1%z%u&4%H&H'},                                  4'#@7#=$'${$-$*$6#$#V.a.Q I'w%                                                                                      ",
"                                                                                        J'D*w {.r.V.d+I+#@#@I+d+z,'+                                        K'L'z%c>1%D%t&+&m%2%2%P%P%A%A%A%%,h&h&Q%Q%Q%Q%t'Q%t'M'N'                  a;O'2%m%m%t&t&1%1%z%z%4%n%i&i&W$W$X$X$S&V$2&,&~%'%w$P'                                                                              Q'I+I+H+d+e+=+V.V.Q.Q.E.E.n.r.a.4.5.(.{.{.#.#.Q -.R L w x j j q 0 < < } { , R&R&R&R&R&R&R&R&R&R&R&R&R&R&R&R&R&R&R&R&} q q < R'S'T'x w x x G /.U'V']']']']'W'X'Y'w w L L Z'Y f f e j r r [ R&R&R&R&R&R&R&R&R&R&R&R&R&R&R&R&R&R&R&, { } } < 0 f e j r w w R R Q Q @.%.{.i.5.5.a.a.n.n.E.H.Q..+;+;+e+d+F+E+I+`' )                                                                          f%.)'%'%O%O%Y$Y$)%)%l%l%W$];H&n%4%z%z%q,D%t&+&+&P>2%+)@)                    #)$)t'Q%t'Q%Q%Q%Q%h&h&A%A%1&1&P%r>P>m%+&3%D%1%c>z%4%4%%)-;                                      &)=+E+#@#@#@I+=+Q.5.Q z.f.                                                                                        ",
"                                                                                          z 6 *)#.5.n.H.Q.Q.E.=)'+                                            -);)1%t&+&+&2%2%P%P%A%A%2'h&h&>)t't'B%B%B%B%B%B%=,B%,)')                  ['P%r>2%m%+&3%t&1%1%z%z%n%H&i&L-W$l%)%)%Y$Y$,&,&'%'%#'))                                                                        !)~)$# @E+F+d+e+=+;+V.Q.H.H.P.n.a.a.5.5.~.{.%.@.Q Q R R w w r r e f 0 < } } { { s&, s&, s&, s&, s&, s&, s&, s&, s&, < r j e f {)])R R R v v x ^)/)]']']']']']'()_)L R R R :)<)j j r r w w L < , s&, s&, s&, s&, s&, s&, s&, s&, s&{ } 2 < 0 f e j r x L L R Q #.#.{.{.(.(.4.4.v.n.P.E.Q.Q.V.V.>+>+d+H+E+I+#@#@[)d@                                                                      E,})w$'%'%,&2&&-S&X$X$W$W$i&i&4%4%z%z%1%1%3%+&m%P>r>P%|)                    %'1)B%=,B%=,B%B%B%B%Q%Q%h&h&%,A%A%1&r>r>m%m%3%3%1%1%z%2)3)                                          T,E.Q.Q.Q.H.a.(.Q y,_                                                                                           ",
"                                                                                              - q'4)5)|.#.6)7)2;                                                8)9)1%3%3%m%P>r>P%1&A%A%%,h&h&Q%Q% & &B%B%B%B%B%B%B%0)a)|)              b)c)P>P>+&3%D%1%c>z%4%4%i&i&W$W$X$X$)%S&2&,&O%'%w$w$x$d)j*                                                                    e)f)#@I+I+H+d+>+=+V.V.Q.Q.E.E.r.v.a.e.(.(.{.{.#.#.-.R R L x r j e q 0 < K } { , R&R&R&R&R&R&R&R&R&R&R&R&R&R&R&R&R&R&< r r e e q g)E$R R R w w h)i)]']']']']']']']'j)k)L R R Q l)7.j r r w w L R < R&R&R&R&R&R&R&R&R&R&R&R&R&R&R&R&R&, , } } < < f e j r w w R R Q Q #.%.{.i.(.5.a.a.n.n.E.E.Q.}+V.;+e+e+F+F+I+r##@m)L#                                                                  n)o)x$w$'%'%O%O%Y$Y$)%)%l%W$K-];n%n%z%z%1%1%t&t&m%m%2%p)a;                  q)r)s)B%s)B%s)B%B% & &Q%Q%h&h&A%A%7'P%r>2%m%m%t&t&1%1%t)T;                                            U#u)v)@.#.Q w)x)y)z)                                                                                            ",
"                                                                                                  - a,0&<#[#                                                      A)B)m%m%r>r>1&1&A%%,h&h&t't'B%B%=,=,O>O>C)O>C)O>O>=,D)E)F)              G)P%r>m%m%3%3%1%1%z%z%n%n%i&i&W$l%X$)%Y$Y$,&,&'%'%w$w$5-H)                                                                t#I)5##@$#I+E+F+d+e+;+V.}+Q.H.E.n.n.a.a.5.5.~.{.@.@.Q Q R R w w r C e f < < } } { , R&, s&, R&, R&, R&, s&, R&, R&, 0 L w w r r  +J)Q Q Q Q R K)L)M)]']']']']']']']'N)O)E$Q Q #.P)g&r w w R R R -.Q Q), s&, R&, R&, R&, s&, R&, R&, R&{ ] 2 [ < q e j r x v L R Q Q #.%.{.(.(.5.4.v.v.P.E.Q.Q.V.V.=+>+d+d+E+I+$##@%#%#R)L#                                                              -;S)I$w$w$'%'%,&Y$S&S&X$l%W$W$i&H&4%4%z%U;1%D%3%+&2%2%P%|'                T)U)V)O>C)O>C)O>C)O>O>=,=,B%B%Q%Q%h&h&A%A%P%P%r>2%m%+&t&W)X)                                                  U=<#Y)+ .                                                                                                   ",
"                                                                                                                                                                    Z)`)m%2%r>!&1&A%%,h&h&Q%t'B%B%=,O>O>O>C)C)C)O>O>O>O>B% !Z)              .!2%m%+&t&t&1%c>z%z%n%i&];K-l%X$)%)%Y$2&O%~%'%w$w$I$E%+!@!                                                            #!9>%##@#@I+I+H+d+e+>+V.V.Q.Q.E.E.n.r.a.4.(.(.{.{.#.#.Q -.R L x r j j q 0 < [ } { , R&R&R&R&R&R&R&R&R&R&R&R&R&R&R&R&f R L w w r r V P |.Q Q Q R $!%!]']']']']']']']']']'&!*!Q Q #.#.=!-!w w R R R -.Q Q f R&R&R&R&R&R&R&R&R&R&R&R&R&R&R&, , } } < < f e j r w w R R Q Q @.%.{.i.5.5.a.a.n.n.H.H.Q..+;+=+e+d+F+E+I+$##@)#%#;!R=                                                        >!,!'!H$H$w$w$'%'%O%,&Y$Y$)%X$W$W$i&i&n%n%z%z%1%1%3%+&m%P>)!!!              9'~!s)O>O>C)C)C)C)C)O>O>s)=,B%B%Q%Q%h&h&A%A%P%P%2%2%+&+&{!]!                                                                                                                                                                ",
"                                                                                                                                                                      v'^!P%!&A%A%h&h&t't'B%B%O>O>C)/!)&(!)&)&)&(!(!C)C)O>O>_!P,            A):!2%C,+&3%D%1%z%z%4%4%i&i&W$W$X$)%S&Y$,&,&'%'%w$w$H$H$<![!1=                                                      }!s#6#%#)##@$# @E+F+d+e+=+V.V.Q.H.H.P.n.a.a.5.5.~.{.%.@.Q Q R R w w r C e f < < } } { , s&, s&, s&, s&, s&, s&, s&, j Q Q o.R R w z#|!{.@.@.#.#.1!2!]']']']']']']']']']']']'3!4!#.%.{.5!k.6!R Q Q Q #.@.@.{.j , s&, s&, s&, s&, s&, s&, s&{ } 2 < 0 f e j r x v L R Q #.#.%.{.(.(.4.4.v.n.P.E.Q.Q.V.V.>+>+d+H+E+I+#@#@%#%#6#T#7!8!                                                    9!g%v$E%I$x$w$'%'%O%2&Y$S&)%^;l%K-K-i&n%u&z%U;1%t&3%+&m%r>0!a!              b!c!O>O>(!(!)&)&)&)&)&(!(!C)C)O>=,B%B%Q%Q%h&h&A%1&P%r>2%d!e!                                                                                                                                                                  ",
"                                                                                                                                                                        f!g!P%A%A%C%h&Q%Q%B%B%O>O>C)C)(!/!)&)&)&/!/!C)O>s)s)B%h!i!            j!m%+&t&t&1%c>z%z%n%i&];W$!%X$)%S&Y$2&O%'%j&w$x$I$E%v$o%,%k!l!                                                +#m!n!6#%#)##@#@I+E+H+d+=+=+V.V.Q.Q.E.P.r.v.4.5.(.(.{.%.#.|.-.R R v x r j e 0 0 < } ] { R&R&R&R&R&R&R&R&R&R&R&R&R&R&R&e Q Q R R R L w o!o@{.#.#.Q p!q!r!]']']']']']']']']']']']'s!t!:)@.%.{.B+u!R R R Q Q #.#.{.{.e R&R&R&R&R&R&R&R&R&R&R&R&R&s&, } } < < q f j G x w R R Q Q #.@.{.{.(.5.a.a.r.n.E.E.Q.Q.V.;+>+e+H+F+I+I+#@#@%#6#T#v!x=                                                w!x!G$o%_-E%H$w$w$'%'%O%,&Y$Y$)%X$l%W$];i&n%n%z%z%1%1%3%+&m%y!            z!A!B!B%O>O>C)/!)&)&)&)&)&/!/!C)O>s)B%B%t'Q%h&C%A%1&P%r>2%C!''                                                                                                                                                                    ",
"                                                                                                                                                                          c,1&%,C%h&Q% &B%=,O>C)C))&)&'&'&*,7,*,'&'&)&(!C)O>s)B%D!E! >        W>F!m%+&3%D%1%z%z%4%n%i&i&W$l%X$)%Y$Y$,&,&'%'%w$w$H$E%v$o%G$G!H!0*                                          o&I!&$I#T#6#%##@#@$#I+F+F+e+e+;+V.Q.Q.H.E.n.n.a.a.5.(.{.{.@.@.Q Q R R w x r j f f < < } } , , R&, R&, R&, R&, R&, R&, j {.@.@.Q Q -.R J!K!(.~.{.{.L!M!N!]']']']']']']']']']']']']']'O!P!Q!i.(.R!S!P Q Q @.@.{.{.~.(.5.j , R&, R&, R&, R&, R&, R&{ { } } < 0 e e r r v v R w.Q #.@.{.~.(.5.4.a.v.n.E.H.Q.}+V.=+=+d+d+E+E+$##@)#%#6#6#I#I#(>T!n#                                        U!V!j%,%,%v$v$I$I$w$)='%O%,&Y$S&)%X$l%W$K-i&n%4%z%`;1%D%t&+&m%W!n)          8)X!B%=,O>C)/!)&)&*,7,*,*,*,'&'&)&(!C)O>s)B%t't'h&h&A%A%P%F!~>                                                                                                                                                                      ",
"                                                                                                                                                                          ]!Y!A%A%h&Q%t' &s)O>C)C))&)&7,7,*,*,*,'&)&(!/!O>O>B%B%Q%Q%X!z!        Z!m%3%t&1%1%z%z%n%H&];K-l%!%)%)%Y$2&O%O%'%w$w$I$E%v$o%,%-&U$u$`! ~.~                                  +~@~#~J#I#6#6#%#%##@#@I+E+H+d+>+=+V.V.Q.Q.E.P.r.v.4.e.(.(.{.%.#.|.-.R R v x r j e q 0 < } ] { R&R&R&R&R&R&R&R&R&R&R&R&R&r {.{.#.#.Q Q -.0#6+5!(.~.{.{.$~%~]']']']']']']']']']']']']']']']'&~*~i.(.(.=~-~o.Q #.@.{.{.~.(.5.5.C R&R&R&R&R&R&R&R&R&R&R&, , } } < < f f j G w w R R Q Q #.@.{.i.(.5.a.a.n.n.E.E.Q.}+V.;+e+e+F+F+I+r##@#@%#6#7#I#J#W#;~l&                                  >~,~'~u$u$G$G$o%v$H$H$w$w$'%'%O%,&Y$V$)%X$W$W$i&i&n%n%z%c>1%D%3%+&)~        !~~~{~t' &B%s)C)C))&)&7,7,*,*,*,'&'&)&(!C)O>B%B%Q%Q%h&h&A%A%]~4>                                                                                                                                                                        ",
"                                                                                                                                                                            T;^~h&Q%t'B%B%O>C)(!)&'&*,/~/~.&/~/~*,*,'&)&/!C)O>=,B%t'Q%(~_~:~    <~2%+&+&D%1%U;z%4%4%i&i&W$W$X$)%S&Y$,&,&'%'%w$w$H$E%v$E&G$G$u$u$Z$`![~}~                          [%|~1~7$*$W#&$I#T#6#%#5##@$#I+F+F+e+e+;+V.}+Q.H.E.n.n.a.a.5.(.{.{.@.@.Q Q R R w x r j f f < < } } , , s&, s&, s&, s&, s&, x 5.(.~.{.{.@.@.|.2~3~4.5.5.(.4~5~]']']']']']']']']']']']']']']']']']'6~7~4.4.a.7~T,@.{.{.(.(.5.5.a.a.v.x , s&, s&, s&, s&, s&{ { } 2 < 0 e e r x v v R w.Q #.@.{.~.(.5.4.a.v.n.E.D.Q.@@V.=+=+d+d+E+E+$##@%#%#6#6#I#I#W#W#=$-$8~9~0~                      ))a~b~c~j%9%u$U$,%,%v$E%I$x$w$'%'%O%,&Y$S&)%^;l%K-K-i&n%u&z%1%1%t&3%m%m%d~      3,e~Q%t'B%B%O>O>(!)&'&*,f~/~.&/~.&f~*,'&'&(!/!O>O>B%B%Q%Q%h&g~h~                                                                                                                                                                          ",
"                                                                                                                                                                              a;i~h&Q%B%B%=,O>/!/!'&7,f~/~/~/~/~7,'&)&(!C)O>B%B%Q%Q%h&C%A%j~k~l~b!m~t&t&1%q,z%z%n%i&];W$l%X$)%S&Y$2&O%'%j&w$x$I$v$v$,%,%U$u$9%Z$J$J$d$n~o~p~#=J&            q~r~s~t~-$=$*$W#I#I#6#6#%#)##@$#I+E+d+d+=+=+V.}+Q.Q.E.n.v.a.e.5.(.~.{.%.#.Q R R L w r r e e 0 < K } { , R&R&R&R&R&R&R&R&R&R&R&w 5.5.i.i.{.{.#.#.u~O$j.4.5.5.M+v~w~]']']']']']']']']']']']']']']']']']'x~y~z~5.a.A~B~C~{.{.~.(.5.5.a.a.v.v.r R&R&R&R&R&R&R&R&R&R&, } } [ < q q j j x w L R Q Q #.#.{.{.(.5.4.a.r.n.E.E.Q.Q.V.V.>+e+H+H+I+I+#@#@%#%#6#7#I#J#*$*$-$'$D~E~`-i%R$#=F~;*J&#=G~H~I~>%d$c$Z$Z$u$u$-&G$o%_-E%H$x$w$'%'%O%,&Y$Y$)%X$l%W$];i&n%n%z%z%1%D%3%J~K~L~M~N~O~A%h&P~t' &B%s)C)C))&'&*,*,/~/~/~*,*,)&)&C)C)s)B% &Q%h&h&!&Q~                                                                                                                                                                            ",
"                                                                                                                                                                                3),)t'B%s)O>C))&)&*,*,/~.&R~R~.&f~*,'&)&/!C)O>=, &t'h&h&A%A%!&S~T~2%+&3%1%1%z%z%4%n%i&i&W$l%X$)%Y$Y$,&,&'%'%w$x$H$E%E&o%G$G$u$u$Z$-,c$N*5%b$9-U~V~W~X~Y~Z~`~ {:%_%{$'$-$*$*$&$I#7#T#%#%##@#@I+I+F+d+e+>+V.V.Q.Q.E.E.n.n.a.4.5.(.{.{.@.#.Q Q R L w x j j f q < < } { , , R&, s&, R&, R&, v v.a.4.5.5.(.~.{.{.B~A=v.v.a..{+{@{]']']']']']']']']']']']']']']']']']']']'Z,#{${n.n.%{&{z@(.5.5.a.a.4@r.n.P.H.x , s&, R&, R&, R&, { } } < 0 f e C r w w R R Q Q @.%.6.~.5.5.a.a.n.P.H.Q.Q.V.;+=+e+d+F+E+ @#@5#)#6#6#I#I#W#W#=$=$'$k$|$|$~$*{={-{;{K&>{e$y%b$d$d$J$J$Z$Z$u$U$G$,%v$v$H$I$w$w$'%'%,&Y$S&S&X$l%W$K-i&H&4%z%z%1%D%t&+&m%E>,{!&A%%,h&Q%Q%B%B%O>O>(!(!'&*,/~/~R~R~R~/~/~*,'&(!(!O>O>B%B%Q%Q%'{                                                                                                                                                                              ",
"                                                                                                                                                                                  ){!{B%B%O>O>(!)&'&7,/~/~.&/~/~7,7,)&(!C)O>B%B%Q%Q%h&h&A%1&P%r>m%m%3%t&1%1%z%z%n%i&];K-l%X$)%S&Y$2&O%'%j&w$x$I$v$v$o%,%U$u$9%Z$J$J$d$d$b$b$l$l$a$F$!$!$~$~$|$|$k$k$-$=$*$W#I#I#6#6#%#)##@$#I+E+d+d+=+=+V..+Q.Q.E.n.v.a.e.5.(.~.{.%.#.Q w.R L w r r e e 0 < K } { , R&R&R&R&R&R&R&R&R&R v.v.a.a.5.5.(.~.{.~{{{n.v.a.a.]{^{]']']']']']']']']']']']']']']']']']']']']']'/{({r.r.P._{:{(.5.5.a.a.r.r.n.E.E.E.w R&R&R&R&R&R&R&R&, } } [ < q q j j x w L R Q Q #.#.{.{.(.5.4.a.r.n.E.E.Q.Q.V.V.>+e+H+H+I+I+#@#@%#%#T#7#I#J#*$*$-$'${${$|$~$~$m${%F$a$e$h*y%b$>%d$c$Z$Z$u$u$-&G$o%o%E%H$x$w$'%'%O%,&Y$Y$)%X$l%W$];i&n%n%z%z%1%D%3%+&P>2%P%P%A%A%h&h&t' &B%=,C)C))&'&*,*,/~/~/~f~*,'&)&/!C)O>s)B%t'Q%<{                                                                                                                                                                                ",
"                                                                                                                                                                                    [{B%=,C)/!)&)&*,*,/~/~.&/~/~*,*,)&)&C)C)=,B%t't'h&h&A%A%!&P%2%C,+&3%1%1%z%z%4%n%i&i&W$l%X$)%Y$Y$,&,&'%'%w$x$H$E%E&o%G$G$u$u$Z$-,c$N*5%b$y%h*e$a$F${%m$~$~$:%_%{$'$-$*$*$&$I#7#T#%#%##@#@I+I+F+d+e+>+V.V.Q.Q.E.E.n.n.a.4.5.(.{.{.@.#.Q Q R L w x j j f q < < } { , , s&, s&, s&, w.H.P.n.n.n.a.a.5.5.}{|{1{H.n.n.2{3{]']']']']']']']']']']']']']']']']']']']']']']']'4{5{E.H.H.6{7{a.a.n.n.P.E.H.D.Q.Q.V.L , s&, s&, s&, { } } < < f e C r w w R R Q Q @.%.6.~.5.5.a.a.n.P.H.D.Q.V.;+=+e+d+F+E+ @#@5#)#n!6#I#I#W#W#=$=$'$k$_%|$~$~$!$!$F$L&e$l$y%b$d$d$J$J$Z$Z$u$U$G$,%E&v$I$I$w$w$'%'%,&2&&-S&X$l%W$K-i&H&4%z%z%1%D%t&+&m%2%r>!&1&%,h&h&Q%B%B%O>O>(!(!)&'&*,f~/~/~.&/~f~*,'&)&(!O>O>B%B%>'8{                                                                                                                                                                                ",
"                                                                                                                                                                                      9{B%s)O>C)/!)&)&7,7,*,7,7,)&)&/!C)0{s)B% &Q%h&C%A%7'P%r>2%+&+&t&D%c>z%z%4%i&i&W$W$X$X$S&Y$2&,&'%'%w$w$H$H$v$o%,%G$u$u$Z$Z$c$c$d$d$b$y%l$e$F$F$!$m$~$~$|$_%k$'$7$7$W#J#I#7#6#%#)##@r#I+E+F+d+e+=+;+}+Q.Q.E.n.n.a.a.5.5.i.{.%.#.Q Q R R w w G j e f < < } } , , R&R&R&R&R&R&R&R E.E.n.n.v.v.a.4.5.5.a{b{E.E.n.c{d{e{]']']']']']']']']']']']']']']']']']']']']']']']']'f{g{E.E.h{*.${a.v.r.n.n.E.E.Q.Q.}+.+v R&R&R&R&R&R&R&{ { } < 0 0 e j r x w R R -.Q #.%.{.~.(.e.4.v.r.P.E.Q.Q.V.V.=+=+d+H+E+I+#@#@)#%#6#6#I#J#W#*$-$-$k$k$|$|$~$~$!${%a$a$l$l$b$b$d$d$J$Q>Z$u$U$-&,%o%v$E%H$w$w$j&'%O%Y$Y$S&)%!%l%K-];H&n%z%z%1%1%t&3%m%m%r>P%A%A%C%h&Q%Q%B%B%O>O>/!/!)&)&7,7,*,'&'&)&(!C)O>s)B%t'i{j{                                                                                                                                                                                  ",
"                                                                                                                                                                                      k{l{O>O>(!(!)&'&*,7,*,7,*,)&)&/!C)O>O>B%B%Q%Q%h&h&A%1&P%r>m%m%3%t&1%1%z%z%n%H&];K-l%^;)%)%Y$2&O%'%'%w$x$I$E%v$o%,%-&u$u$j%J$J$d$d$b$b$h*l$a$L&{%!$~$~$|$|${$k$-$=$*$W#I#I#6#6#%#%##@$#I+E+d+d+>+=+V.V.Q.Q.E.P.r.v.4.5.(.(.{.%.#.Q Q R L v x r j e q < < 2 { { R&, R&, R&, Q V.Q.Q.H.E.P.n.r.v.a.m{n{Q.Q.Q.o{p{q{]']']']']']']']']']']']']']']']']']']']']']']']']']'r{s{%{Q.V.t{N$r.P.E.H.H.Q.Q.V.V.;+=+>+R , R&, R&, , } } < < f f j r x w R R Q Q #.@.{.{.(.5.a.a.n.n.E.E.Q.Q.V.;+>+e+F+F+I+I+#@#@%#6#T#7#J#W#*$7$-$'${$_%:%~$1$m${%F$e$e$h*y%5%d$N*c$Z$Z$u$u$G$G$o%v$E%H$x$w$'%'%O%,&Y$Y$)%X$l%W$i&i&n%4%z%z%1%1%3%+&2%2%P%P%A%A%h&h&t't'B%B%O>O>(!(!'&'&*,7,*,'&'&)&)&C)C)O>=,u{F'                                                                                                                                                                                    ",
"                                                                                                            R$y*v{w{$,c&x{y{z{                                                          A{B{s)C)C)/!(!)&)&)&)&)&/!C)O>O>B%B%t'Q%h&h&A%A%P%P%2%2%+&3%D%1%z%z%4%n%i&i&W$W$X$)%V$Y$,&O%'%'%w$w$H$H$v$o%,%G$u$u$Z$Z$c$c$d$5%b$y%e$e$F$F$!$m$~$~$|$_%'$-$7$7$W#J#I#7#6#%#)##@r#I+E+F+e+e+=+;+}+Q.H.E.n.n.a.a.5.5.i.{.@.#.Q Q R R w w G j e f < < } } , , R&R&R&R&R&Q .+.+Q.Q.E.E.P.n.r.v.C{D{E{Q.Q.F{G{/)]']']']']']']']']']']']']']']']']']']']']']']']']']']']'H{I{J{.+V.K{L{P.E.H.H.Q.Q.V.V.;+=+e+e+R R&R&R&R&R&{ { } [ 0 0 e j r x w L R -.Q #.%.{.~.(.5.4.a.r.P.E.Q.Q.V.V.=+=+d+d+E+I+#@#@)#%#6#6#I#I#W#*$=$-$k$k$|$|$~$~$!${%L&a$l$l$b$b$d$d$J$J$Z$9%u$U$,%o%v$v$H$x$w$j&'%O%2&Y$S&)%X$!%W$K-i&n%4%z%c>1%D%t&m%m%2%r>!&1&A%C%h&Q%t'B%B%s)O>C)(!/!)&)&)&(!)&/!C)O>O>B%M{N{                                                      O{P{Q{R{S{T{U{Z&==R=;*                                                                                                          ",
"                                                                                                      <~V{W{X{Y{E&E%H$w$Z{`{ ].]+]@]#]!>$]                                                %]&]C)C)(!(!)&)&)&)&)&/!/!O>O>B%B% &t'h&h&%,A%1&!&r>2%m%+&t&D%1%`;z%4%H&i&K-W$l%X$)%S&Y$,&O%'%)=w$x$I$v$v$,%,%U$u$9%j%J$J$d$d$b$b$h*l$a$L&!$!$~$~$|$|${$k$-$=$*$W#I#I#6#6#%#%##@$#I+E+d+d+>+=+V.V.Q.Q.E.P.r.v.4.5.(.~.{.%.#.Q Q R L v x r j e 0 < < 2 { { s&, s&, @.e+=+;+V.V.Q.Q.H.H.E.*]R.g$V.V.V.=]-]]']']']']']']']']']']']']']']']']']']']']']']']']']']']']']';]>]V.=+,]e>']Q.Q.Q.V.V.=+=+e+e+F+H+E+w., s&, , } } < < f f j C x w L R Q Q #.@.{.{.(.5.4.a.n.n.E.E.Q.Q.V.V.>+e+F+F+I+I+#@#@%#%#T#7#I#W#*$*$-$'${$_%:%~$~$m${%F$a$e$h*y%>%5%d$c$Z$Z$u$u$G$G$o%E&E%E%x$w$'%'%O%,&Y$Y$)%)%l%W$L-i&n%n%z%z%1%1%3%3%m%m%r>P%1&A%2'h&Q%Q% &B%=,=,O>C)(!(!)&)&)&(!(!/!(!O>O>)]!]                                              ~]{]]]^]/](]'%'%w$x$I$E%v$o%,%_]:]<]                                                                                                      ",
"                                                                                                    a%[]Z$u$U$,%,%v$v$H$H$w$w$'%~%,&2&,&}]|]1]2]3]                                          4]s)s)O>O>C)O>C)O>O>0{O>B%B%t'Q%Q%h&C%A%A%1&r>r>m%m%t&t&1%1%z%z%n%n%];K-W$l%)%)%Y$Y$O%O%'%j&w$x$H$E%o%,%G$-&u$9%Z$Q>c$d$>%b$y%l$e$a$F${%m$~$5]|$_%{$-$-$*$*$J#I#7#6#%#%##@#@I+I+F+H+e+>+;+V.Q.Q.E.E.n.r.a.4.5.(.{.{.#.#.Q Q R L w x j j f q < < } } , R&R&R&R&@.e+>+;+;+V.V.Q.Q.E.E.n.6]7&=+V.V.7]8]]']']']']']']']']']']']']']']']']']']']']']']']']']']']']']']']'9]0];+=+a]b+b]Q.Q.V.V.;+=+e+e+d+d+E+E+R R&R&R&, , } } < 0 f e r r w w R R Q |.@.%.{.~.5.5.a.v.n.n.E.Q.Q..+;+=+e+d+F+E+I+#@#@)#6#6#7#I#W#W#7$c]'$k$_%|$~$~$m$!$F$F$e$l$y%b$d$d$c$c$Z$Z$u$u$G$,%o%v$H$H$w$w$'%'%,&,&Y$V$)%X$W$W$i&i&n%n%z%z%1%D%3%+&m%P>P%P%A%A%C%C%Q%Q% & &B%s)O>O>O>O>C)O>O>O>O>B%d]e]                                        }'f]g]h]'-Y$Y$,&O%'%'%w$w$H$E%_-o%G$-&u$u$'~}~                                                                                                    ",
"                                                                                                    [%u$u$G$G$o%o%E%H$x$w$k%'%O%O%Y$Y$)%)%l%l%K-i]j]k]t;                                      l]=,O>O>C)O>C)O>O>O>O>B%B%t't'Q%h&C%%,A%1&P%r>2%m%3%3%1%1%z%z%4%n%i&i&W$l%X$)%S&Y$,&,&'%'%w$w$H$H$v$o%,%G$u$u$Z$Z$J$c$d$5%b$y%e$e$F$F$!$!$~$~$|$_%k$'$=$7$W#W#I#I#6#%#)##@$# @E+F+d+e+=+;+V.Q.Q.H.n.n.v.a.5.5.~.6.%.@.Q Q R R v w r C e f < < } } { , R&, {.E+H+d+e+>+=+;+V.V.Q.Q.m]n]o]e+=+t{p]q]]']']']']']']']']']']']']']']']']']']']']']']']']']']']']']']']']'r]s]d+d+t]n]V.V.=+=+e+e+d+F+E+E+ @$##@Q , s&{ } 2 < 0 q e j r x v R w.Q |.#.{.{.(.(.4.4.v.n.E.E.Q.Q.V.V.=+>+d+H+E+I+#@#@%#%#6#6#I#I#W#*$=$-${${$|$|$~$~$!${%L&a$l$h*b$b$d$d$J$J$Z$9%u$U$,%o%v$v$I$x$w$)='%O%,&Y$S&)%X$l%W$K-i&H&4%z%z%U;1%t&+&+&2%2%P%P%A%A%h&h&Q%Q% &B%B%B%O>O>O>O>C)O>O>O>O>B%u]                                   >v]w]x]y]W$W$X$X$S&&-Y$,&'%'%w$w$I$H$v$v$,%G$U$u$j% ~                                                                                                    ",
"                                                                                                    z]A]H%u$U$,%,%v$v$H$I$w$w$'%~%,&2&S&S&X$X$W$W$i&i&B]C]D]7;                                B,E]B%B%s)B%s)B%B%B%B%t't'Q%h&h&h&A%A%P%P%2%P>+&+&D%1%q,z%z%4%n%i&K-W$l%X$)%S&Y$2&O%'%j&w$x$I$E%v$o%,%-&U$u$Z$Z$J$N*d$>%b$h*l$e$a${%!$1$~$|$|${${$-$-$*$*$J#I#7#6#%#%##@#@I+I+H+d+e+=+V.V.Q.Q.E.E.r.v.a.4.(.(.{.{.#.#.Q Q R L w x j j f q < [ } } , R&R&{.E+E+H+d+e+e+=+=+V.V.Q.J{c#F]e+e+m=G]H]]']']']']']']']']']']']']']']']']']']']']']']']']']']']']']']']']']'V'I]J]d+F+K]K{V.=+=+e+e+H+H+E+I+I+$##@#@Q R&, , } } < < f e G r w w R R Q Q @.%.{.~.5.5.a.a.n.n.E._#Q.}+;+=+e+d+F+E+I+r##@)#%#6#7#I#&$W#*$7$'$'${$|$~$~$m$!$F$F$e$e$y%b$>%d$c$c$Z$Z$u$u$G$G$o%_-E%H$w$w$'%'%O%O%Y$Y$)%)%l%W$K-];n%n%z%z%1%1%t&t&+&m%2%r>P%1&A%A%h&h&Q%Q%t' &B%B%B%B%s)B%B%B%B%L]M]                            N]O]P]z%n%n%i&K-W$l%X$)%Y$Y$,&O%'%'%w$w$H$E%v$o%G$G$u$u$Q]R]                                                                                                    ",
"                                                                                                      S]u$G$G$o%o%E%H$x$w$k%'%O%O%Y$Y$)%)%l%l%K-K-H&n%u&z%`;T]U]V]!,                            !!W]B%=,B%=,B%B%B%B%t't'Q%Q%h&h&A%A%!&P%2%2%m%+&t&D%1%1%z%u&n%H&i&K-l%l%)%)%Y$Y$,&O%'%'%w$x$H$E%E&o%G$G$u$u$Z$Z$c$N*d$5%y%y%e$e$F$F$!$!$~$)$|$_%'$-$=$*$W#&$I#7#6#%#)##@$#I+E+F+d+e+=+V.}+Q.D.H.n.n.a.a.5.5.~.6.@.@.Q Q R R v w r C e f < < } } { , (.#@$# @I+E+F+F+d+e+=+=+V.X]Y]E+F+U@Z]`]]']']']']']']']']']']']']']']']']']']']']']']']']']']']']']']']']']']']' ^.^+^I+I+A#[+e+d+F+F+I+I+$#$##@5#%#%#6#@^{ { } < 0 q e j r x v L R Q Q #.{.{.~.(.4.4.v.n.P.E.D.Q.V.V.=+>+d+d+E+I+$##@%#%#6#6#I#I#W#W#=$-$k${$|$|$~$~$!$!$L&a$e$l$b$b$d$d$J$J$Z$j%u$U$G$,%v$v$H$I$w$w$'%'%,&,&Y$S&)%X$W$W$i&i&n%4%z%z%1%1%3%3%m%m%r>r>!&1&A%A%h&h&Q%Q%t't'B%B%B%B%#^B%B%B%$^%^                          7;&^*^1%z%z%4%4%i&i&W$W$X$X$S&&-2&,&'%'%w$w$I$I$v$v$,%G$U$u$=^                                                                                                      ",
"                                                                                                        -^;^U$G$,%o%v$H$H$w$w$'%'%O%,&Y$Y$)%X$l%W$K-i&n%n%z%z%1%1%>^,^'^                          )^Q%t'Q%Q%Q%Q%Q%Q%h&h&%,A%A%A%P%P%2%2%m%+&t&t&1%q,z%z%n%n%i&];W$l%X$)%Y$Y$,&O%'%'%w$w$H$H$v$o%,%G$u$u$Z$Z$J$c$d$d$b$y%l$e$F$F$!$m$~$~$|$|$k$'$c]7$W#W#I#I#6#6#)#)##@$#I+E+d+d+=+;+V..+Q.H.E.n.v.a.e.5.(.i.{.%.#.Q -.R v w x r e e 0 < K } { { R&(.#@#@I+I+E+E+d+d+e+e+;+;+!^~^E+E+>+{^]^]']']']']']']']']']']']']']']']']']']']']']']']']']']']']']']']']']']']']']'^^/^$*I+(^*&)*e+d+H+E+I+I+I+#@#@)#)#F#6#@^, ] } < < q f j j x w R R -.Q #.#.{.{.(.5.4.a.r.r.E.E.Q.Q.V.V.>+e+d+H+I+I+#@#@%#%#6#7#I#J#W#*$-$-$k${$|$|$~$1$!${%a$a$l$l$b$b$d$d$J$Q>Z$H%u$-&,%,%v$E%H$I$w$)='%~%,&2&V$S&X$X$W$W$i&i&n%n%z%z%1%1%t&3%m%m%2%r>P%P%A%A%C%C%h&h&Q%Q%Q%Q%Q%Q%Q%_^:^                      <^[^}^D%1%c>z%|^4%i&i&K-W$!%X$)%S&Y$2&O%~%j&w$w$I$E%v$o%o%-&U$1^2^                                                                                                        ",
"                                                                                                          3^4^,%o%v$E%I$x$w$k%'%~%,&Y$S&S&X$X$W$W$i&i&4%4%z%z%1%1%3%3%m%S~5^!,                    A)X!t'Q%t'Q%t'Q%Q%h&h&%,%,A%A%P%P%r>2%m%+&3%t&1%1%z%z%n%n%i&i&W$W$X$X$S&Y$2&,&'%'%w$w$I$H$v$v$,%,%U$u$9%Z$J$J$d$d$b$b$h*l$a$L&{%!$~$~$|$|${${$-$-$*$W#J#I#T#T#%#%##@#@I+I+F+d+>+>+V.V.Q.Q.E.E.n.v.a.4.(.(.{.{.#.#.Q Q R L w x j j f q < [ } } e.F#%#%##@#@$# @E+E+H+d+e+i$6^7^$#I+8^9^]']']']']']']']']']']']']']']']']']']']']']']']']']']']']']']']']']']']']']']']']^0^a^#@b^c^d^E+I+$#$##@#@%#%#6#6#7#I#I#@.} } < < f e r r w w R R Q Q @.%.{.~.5.5.a.a.n.n.H.H.Q.}+V.=+e+e+F+E+I+$##@)#%#6#T#I#&$W#*$7$-$'${$|$:%~$1$!$F$F$a$e$y%y%>%d$N*c$-,Z$u$u$-&G$o%o%E%E%x$w$G-'%O%O%2&Y$S&)%X$l%W$K-i&H&4%4%z%z%1%1%3%3%m%m%r>r>!&P%A%A%h&C%h&h&Q%Q%Q%Q%t'Q%!{e^                    f^g^h^+&+&t&D%1%U;z%z%n%H&i&K-W$l%)%)%Y$Y$,&,&'%'%w$w$H$E%v$E&G$i^N]                                                                                                          ",
"                                                                                                            ;*j^k^o%v$H$H$w$w$'%'%O%,&Y$Y$)%)%l%l%K-];H&n%4%z%z%c>1%D%3%+&m%l^m^n^                  :^o^h&h&h&h&C%C%A%A%A%1&P%P%2%2%m%m%3%t&1%1%z%z%4%4%i&i&K-W$!%X$)%S&Y$2&O%O%'%)=w$x$H$E%o%o%G$-&u$u$Z$Z$c$c$d$>%b$y%e$e$F$F$m$m$~$~$|$_%k$'$7$*$W#W#I#7#6#6#)##@#@I+E+F+d+e+=+;+V.}+Q.H.E.n.v.a.e.5.~.i.{.@.|.Q R R w w r r e f 0 < } } { a.6#6#%#%##@#@$#I+E+E+H+d+N-p^q^#@I+r^s^]']']']']']']']']']']']']']']']']']']']']']']']']']']']']']']']']']']']']']']']']']'t^u^#@#@^>v^E+I+r##@#@#@%#%#6#6#7#I#I#J#%.} [ < 0 q j j r w L R w.Q #.#.{.{.(.(.4.a.v.r.E.E.Q.Q.V.V.=+>+d+H+E+I+#@#@%#%#6#6#I#I#W#*$-$-$k${$|$|$~$~$!$!$F$a$e$l$b$b$d$d$c$J$Z$Z$u$U$G$,%o%v$H$H$w$w$'%'%O%,&Y$Y$)%X$l%W$K-];H&n%4%z%c>q,1%D%3%+&m%P>r>r>P%P%A%A%A%A%h&C%h&h&h&h&w^                  n)x^T]m%+&t&t&1%1%z%z%n%n%i&i&W$W$X$X$)%S&Y$,&O%'%j&w$x$I$E%v$o%y^z^y*                                                                                                            ",
"                                                                                                                A^B^E%I$I$w$w$'%'%,&2&&-S&)%X$W$W$i&i&n%n%z%z%1%1%D%t&+&+&m%2%r>W!C^W>                D^h&h&h&h&%,h&A%A%A%1&P%P%r>2%m%m%3%3%D%1%z%z%z%4%H&i&L-K-l%l%)%)%Y$Y$,&,&'%'%w$w$H$E%v$E&G$G$u$u$Z$Z$J$J$d$d$b$b$l$e$a$L&!$!$~$~$|$|${$k$-$=$*$W#I#I#T#6#%#%##@#@I+E+H+d+>+=+V.V.Q.Q.E.E.n.v.4.4.(.(.{.{.#.#.Q o.R v x x j e f 0 < [ n.I#I#7#6#6#%#%##@#@$#$#I+E+E^F^%#%#G^H^I^]']']']']']']']']']']']']']']']']']']']']']']']']']']']']']']']']']']']']']']']']']']'J^K^%#6#L^M^$##@5#%#%#6#6#I#I#&$&$W#W#=$i.< < f e C r x w R R Q Q @.@.{.~.(.5.a.a.n.n.E.H.Q.Q.V.;+>+e+F+F+I+I+#@#@%#%#T#7#I#&$*$7$-$-${$_%:%)$~$m$!$F$a$e$h*y%b$>%d$N*J$Z$j%u$u$G$,%,%v$E%I$I$w$w$'%'%,&2&&-S&)%X$W$W$i&i&n%n%z%z%1%1%D%t&+&+&m%2%r>r>P%!&A%A%A%A%h&%,h&h&h&N^O^              z!P^Q^2%2%m%m%3%3%1%1%z%z%u&4%H&i&K-K-l%l%)%)%Y$Y$,&,&'%'%w$w$H$E%R^i%                                                                                                                ",
"                                                                                                                  v,S^T^E%I$w$w$j&'%O%2&Y$V$)%X$X$W$W$i&i&n%n%z%z%q,1%D%D%3%+&m%m%2%U^V^V=            W^X^A%A%A%7'1&P%P%r>r>P>2%m%+&t&t&1%1%c>z%4%4%n%i&];K-W$l%)%)%Y$Y$,&O%'%'%w$w$H$H$v$v$,%,%U$u$H%Z$J$J$d$d$b$b$l$l$a$a${%!$1$~$|$|${$k$-$-$*$*$J#I#7#6#%#%##@#@I+I+H+H+e+>+;+V.Q.Q.E.E.n.n.a.a.5.(.i.{.@.#.Q Q R R w x G j f q < < } P.I#I#7#T#6#6#)#)##@#@I+I+E+k@Y^%#)#Z^`^ /]']']']']']']']']']']']']']']']']']']']']']']']']']']']']']']']']']']']']']']']']']']']'./+/@/6##/$/Y]#@#@%#%#6#6#7#I#I#J#W#W#*$7$i.K < 0 e e r r w w R -.Q |.@.{.i.(.5.e.a.v.n.E.H.Q.Q.V.;+=+e+d+F+E+I+#@#@)#%#6#I#I#J#W#7$7$-$k$_%|$:%~$m$m${%F$e$e$y%y%>%g=d$c$Z$Z$9%u$-&-&,%o%v$E%I$x$w$j&'%O%,&2&Y$S&X$X$W$W$i&i&n%n%z%z%c>q,1%D%3%+&m%m%2%2%r>r>P%P%1&7'A%A%%/['            2]&/*/P>P>+&+&t&t&1%1%c>z%4%4%n%H&];K-W$l%)%)%Y$Y$,&O%'%'%w$w$H$H$=/-/;/                                                                                                                  ",
"                                                                                                                      j*>/w$w$'%'%O%,&Y$Y$)%)%l%l%W$K-i&i&4%4%z%z%1%1%t&t&+&+&m%m%2%r>P%,/'/4-          _~A%A%A%1&1&P%P%r>r>2%2%m%m%3%3%1%1%U;z%z%4%n%H&i&L-W$l%X$)%S&Y$2&,&'%'%w$w$x$I$E%v$o%,%-&U$u$9%Z$J$c$d$5%b$y%h*e$a$F$F$m$~$~$:%|${$'$'$7$*$W#&$I#7#6#%#)##@$# @E+F+d+e+=+;+V.Q.Q.H.P.n.v.a.e.5.~.~.{.@.Q Q R R v w r r e f 0 < E.7$W#W#J#I#I#7#6#6#%#%##@#@)/!/T#T#~/{/]/]']']']']']']']']']']']']']']']']']']']']']']']']']']']']']']']']']']']']']']']']']']']']']'^///(/I#_/:/</%#6#6#I#I#&$J#W#*$=$=$-$'${$5.0 f j j r x L R o.Q #.#.{.{.(.(.4.a.v.n.P.E.Q.Q.V.V.>+>+d+H+E+I+$##@%#%#6#6#I#I#W#*$=$-$'${$|$|$~$~$!$!$F$L&e$l$y%b$d$d$c$J$Z$Z$u$u$G$G$o%E&E%H$x$w$k%'%'%O%2&Y$S&)%X$X$W$W$i&i&n%n%z%z%1%1%D%D%3%+&m%m%2%2%r>r>P%P%1&!&A%1&[/}/        n^|/1/r>r>2%2%m%m%3%3%1%1%1%`;z%u&n%n%i&i&W$W$X$)%S&&-2&,&O%'%k%w$2/3/4/                                                                                                                      ",
"                                                                                                                        5/6/7/w$w$'%~%,&2&Y$V$)%X$l%W$K-];i&n%4%4%z%z%1%1%t&t&+&+&m%m%2%P>r>8/9/e!      O^0/P%P%r>r>2%2%m%m%+&+&t&t&1%1%c>z%z%z%n%n%i&i&W$W$X$X$S&S&Y$2&O%~%'%'%w$x$H$E%o%o%G$G$u$u$Z$Z$c$c$d$d$b$y%l$e$O&F$!$!$~$~$|$|$k$k$-$-$*$W#J#I#6#6#%#%##@#@I+I+H+d+e+>+V.V.Q.Q.E.E.n.r.a.4.5.(.{.{.#.#.Q -.R R w x G j f q < Q.7$7$*$W#J#I#I#I#6#6#%#%##@a/b/,$T#c/d/%!]']']']']']']']']']']']']']']']']']']']']']']']']']']']']']']']']']']']']']']']']']']']']']']']'e/f/g/J#i*b/h/6#6#I#I#J#J#W#*$=$7$-$'${${$5.0 f e G r w w R R Q Q @.%.{.i.5.5.a.a.n.n.E.H.Q.}+;+;+e+d+F+F+I+r##@#@%#6#T#I#J#W#*$*$-$'${$_%|$~$~$1$!$F$a$a$l$y%b$b$d$d$J$J$Z$9%u$U$G$,%v$v$H$H$w$w$'%'%O%O%Y$Y$)%)%X$l%W$K-i&i&n%n%z%z%1%1%1%D%3%3%+&m%P>m%2%2%r>r>P%i/O^      $,j/k/2%2%m%m%+&+&t&t&D%1%q,c>z%z%n%n%i&i&W$W$l%X$)%S&Y$Y$O%O%'%'%w$l/m/n/                                                                                                                        ",
"                                                                                                                            +%o/'%'%O%2&Y$S&)%X$X$W$W$i&i&H&n%u&z%z%`;1%1%t&3%+&+&m%m%2%2%r>r>P%S~b!      p/r>P%r>r>2%2%m%m%+&+&3%3%1%1%1%`;z%z%n%n%i&i&W$W$l%^;)%S&Y$Y$,&O%'%'%w$w$H$H$v$E&,%G$u$u$j%Z$J$J$d$d$b$b$h*h*a$L&{%!$~$~$:%|${${$'$-$*$*$W#I#7#T#6#%##@#@ @I+F+F+e+e+;+V.}+Q.H.H.n.n.a.a.5.5.~.{.%.@.Q Q R R w w r r e f V.{$'$-$=$=$*$W#W#&$I#I#6#6#q/r/s/W#t/u/v/]']']']']']']']']']']']']']']']']']']']']']']']']']']']']']']']']']']']']']']']']']']']']']']']']']'w/x/y/*$z/A/B/I#&$W#*$*$=$-$'$'${${$|$|$~$a.e j r x v L R Q Q #.%.{.~.(.}$4.v.v.n.E.D.Q.V.V.=+=+d+d+E+E+$##@5#%#6#6#I#I#W#W#=$=$'$k$_%|$)$~$!$!$F$F$e$e$y%y%5%5%d$c$J$Z$j%u$U$G$,%o%v$v$I$I$w$w$'%'%,&,&Y$&-)%)%l%l%K-K-i&H&4%4%z%z%1%1%1%D%3%3%+&m%C,m%2%2%r>r>P%C/D/  E/*>+)r>r>2%2%m%C,m%m%3%3%D%D%1%1%z%z%4%4%H&i&K-W$l%l%)%)%Y$Y$,&,&'%F/G/H/                                                                                                                            ",
"                                                                                                                              n/I/J/'%O%O%2&Y$S&S&X$X$W$W$];i&H&n%4%4%z%z%1%1%D%D%t&t&+&+&m%m%m%m%K/L/A)8{m~m%m%+&m%+&+&t&t&D%D%1%1%z%z%4%4%n%n%];];W$W$X$X$)%S&Y$2&O%O%'%'%w$w$H$H$v$v$,%G$U$u$H%Z$Q>J$d$d$>%b$l$l$e$a$F${%m$~$~$|$|${$'$-$7$*$P$J#I#7#6#%#)##@r#I+E+F+d+e+=+;+.+Q.Q.H.P.n.v.a.e.5.(.i.{.@.#.Q R R L w r r e e 0 V.k$k$-$-$7$7$W#W#J#I#7#T#6#6#M/N/P$J#O/P/]']']']']']']']']']']']']']']']']']']']']']']']']']']']']']']']']']']']']']']']']']']']']']']']']']']']'Q/>]R/*$S/T/7#I#J#W#*$7$7$-$-$k${$|$|$|$~$a.q j j x w L R -.Q #.#.{.{.(.(.4.a.v.r.E.E.Q.Q.V.V.=+>+d+H+E+I+#@#@)#%#6#6#I#I#W#W#7$-$'$k$|$|$~$~$m$!$F$F$e$e$y%b$>%d$N*c$Z$Z$u$u$U$-&,%o%v$E%H$H$w$w$'%'%O%,&Y$Y$)%)%!%!%W$W$i&i&n%n%z%z%z%z%1%1%D%D%3%t&+&+&m%+&m%J~-'W^U/m%m%+&m%+&+&t&3%D%D%1%1%c>z%z%z%n%n%i&i&K-W$l%!%)%)%Y$Y$,&,&'%'%V/W/X/                                                                                                                              ",
"                                                                                                                                  z>Y/,&,&Y$Y$)%)%X$l%W$W$i&i&n%n%4%z%z%z%1%1%D%D%3%3%+&+&m%m%m%m%m%m%Z/`/m%m%m%+&m%+&+&t&3%D%D%1%1%z%z%u&4%n%n%i&i&W$W$!%X$)%)%Y$Y$,&,&'%'%w$w$I$H$v$v$,%,%G$U$u$j%Z$J$c$d$d$5%y%y%e$e$F$F$!$!$~$~$|$_%k$'$-$=$W#W#I#I#6#6#%#%##@$#I+E+d+d+>+=+V.V.Q.Q.E.P.n.v.4.4.(.(.{.{.#.#.Q o.R L x x j j >+:%|$|${${$'$-$=$7$*$W#J#I#I# (.(=$*$+(@(]']']']']']']']']']']']']']']']']']']']']']']']']']']']']']']']']']']']']']']']']']']']']']']']']']']']']']'#($(-$-$%(w*W#*$=$=$'$'${${$|$|$~$~$~$m$!$n.j r w w R R Q Q @.@.{.i.(.5.a.a.n.n.E.H.Q.Q.V.;+>+e+F+F+I+I+#@#@%#%#T#T#I#J#W#*$-$-${${$|$|$~$~$!$!$L&a$e$l$b$b$d$d$c$J$Z$Z$u$u$G$G$o%o%E%E%I$x$w$k%'%'%,&2&Y$Y$)%)%l%l%W$K-i&i&n%n%z%z%z%z%1%1%D%D%3%3%+&+&m%+&m%m%&(m%m%m%m%+&m%+&+&3%3%t&t&1%1%U;U;z%z%4%4%i&i&K-K-W$l%X$)%S&&-Y$,&k%*(=(                                                                                                                                  ",
"                                                                                                                                    -(;(>(,&2&Y$Y$)%)%l%l%W$W$i&i&n%n%4%4%z%z%1%c>1%1%D%D%t&t&3%t&3%3%+&t&3%t&3%t&t&D%D%1%1%q,1%z%z%4%4%n%H&i&i&W$W$!%X$)%)%Y$Y$,&,&'%'%w$w$x$I$E%v$o%o%G$-&u$u$Z$Z$c$c$d$d$b$b$l$e$a$F$!$!$~$~$|$|${${$-$-$*$*$J#I#7#T#%#%##@#@I+I+F+H+e+e+;+V.}+Q.H.E.n.n.a.a.5.5.~.{.%.@.Q Q R R w w r G e e+~$)$|$|${${$'$-$7$7$*$W#J#I#,('(-$=$)(!(~(]']']']']']']']']']']']']']']']']']']']']']']']']']']']']']']']']']']']']']']']']']']']']']']']']']']']']']']'{(](-$^(/(I!*$=$=$'$'${${$|$|$~$~$1$m$!$!$n.j r x v R R -.|.#.%.{.~.(.e.e.a.r.P.E.H.Q..+V.;+=+d+d+F+E+$##@#@)#6#6#7#I#W#W#*$7$-$'${$|$:%~$~$m${%F$a$e$l$h*b$>%d$d$J$J$Z$Z$u$U$G$,%o%v$E%H$x$w$j&'%'%O%,&2&Y$V$)%X$l%l%W$K-i&i&n%n%4%z%z%z%1%q,1%1%D%D%t&t&3%t&3%t&3%t&3%t&t&D%t&1%1%1%1%z%z%z%z%n%n%H&i&];K-W$W$X$X$)%S&Y$Y$O%((-/W&                                                                                                                                    ",
"                                                                                                                                        i-;;Y$&-S&)%X$l%l%W$K-i&i&n%n%u&u&z%z%1%1%1%1%D%D%3%t&3%3%3%3%3%3%3%3%3%t&t&D%D%1%1%1%1%z%z%4%4%n%H&i&i&W$W$l%l%)%)%&-Y$,&,&O%'%'%w$w$x$E%E%E&o%G$G$u$u$Z$Z$J$J$d$d$b$b$h*l$e$a${%!$m$~$)$:%_%{$'$-$7$*$W#&$I#7#6#%#)##@$# @E+F+d+e+=+;+V.Q.Q.H.E.n.v.a.4.5.(.~.{.%.#.Q Q R L v x r H+!$m$~$~$~$|$|${${$'$'$-$=$*$s/_(:(k$<([(}(]']']']']']']']']']']']']']']']']']']']']']']']']']']']']']']']']']']']']']']']']']']']']']']']']']']']']']']']']'|(1(|$2(9~3('$'${$_%|$|$~$~$!$!$!${%L&L&e$H.x w R R Q Q #.@.{.{.(.5.4.a.v.n.E.E.Q.Q.V.V.>+>+d+H+E+I+#@#@%#%#6#6#I#I#W#W#=$-$'$k$_%|$~$~$!$!$F$F$e$e$y%y%b$5%d$c$J$Z$j%9%u$U$,%,%v$v$H$H$w$w$'%'%O%O%2&Y$&-S&)%X$l%l%K-K-i&i&n%n%4%z%z%z%1%1%1%1%D%D%3%t&3%t&3%t&3%3%3%t&3%D%t&1%1%1%1%z%z%z%z%4%4%H&H&i&L-W$W$X$X$)%)%Y$Y$4(4-                                                                                                                                        ",
"                                                                                                                                          B-5(6(2&Y$V$)%)%!%l%W$W$];i&H&H&n%n%z%z%z%z%c>z%1%q,1%1%1%1%1%1%1%1%1%c>1%z%z%z%z%4%4%n%n%i&i&];K-W$W$X$X$)%)%Y$Y$,&,&'%'%j&w$w$I$H$E%_-o%,%G$u$u$Z$Z$J$J$d$d$b$b$y%l$e$a$F${%m$1$~$~$|${$k$'$7$7$W#W#I#I#6#6#)#)##@$#I+E+H+d+=+=+V.V.Q.Q.E.E.r.v.a.4.(.(.{.{.#.#.Q Q R L w x j E+!$!$~$~$~$~$|$|${${$-$-$7$7$7(8(9({$0(G]a(]']']']']']']']']']']']']']']']']']']']']']']']']']']']']']']']']']']']']']']']']']']']']']']']']']']']']']']']']']'b(c(d(_%e(f(g(-$k${$|$|$~$~$1$m$!${%F$F$a$e$E.r w w R R Q Q @.%.{.i.5.5.a.a.n.n.E.E.Q.Q.V.;+>+e+H+F+I+I+#@#@%#%#6#T#I#J#W#*$-$-$k$k$|$|$~$~$!$!$F$F$e$e$y%b$>%g=N*c$Q>Z$Z$u$U$U$,%,%v$v$H$H$w$w$j&'%O%O%,&2&Y$V$)%)%!%!%W$W$];];i&H&n%n%4%z%z%z%z%z%1%c>1%1%1%1%1%1%1%q,1%c>c>z%z%z%z%n%4%n%n%i&i&K-K-W$l%X$X$)%S&Y$Y$h(i(l*                                                                                                                                          ",
"                                                                                                                                              j(k(S&S&)%X$l%l%W$W$i&i&H&H&4%4%z%z%z%z%U;z%1%1%1%1%1%1%1%1%1%1%1%c>1%z%z%z%z%4%4%n%n%i&i&K-K-W$W$X$X$)%)%Y$Y$2&,&~%'%'%k%w$x$H$E%v$E&,%G$U$u$u$j%Z$J$c$d$5%b$y%y%e$e$F$F$!$!$~$~$|$|${$'$-$=$*$W#I#I#T#6#%#%##@#@I+I+F+d+e+>+;+V.Q.Q.H.E.n.n.a.a.5.(.~.{.@.@.Q Q R R w w  @e$F$F$!$!$m$m$~$~$|$|${${$'$l(m(n(|$o(p(q(]']']']']']']']']']']']']']']']']']']']']']']']']']']']']']']']']']']']']']']']']']']']']']']']']']']']']']']']']']']']'r(s(t(~$u(v(w(|$|$~$~$m$!${%{%L&a$e$e$h*y%b$D.v L R -.Q #.%.{.~.(.5.e.a.v.n.P.H.Q.Q.V.;+=+e+d+F+E+I+$##@5#%#6#T#I#J#&$*$*$-$-${${$|$|$~$~$!$!$L&a$e$l$y%b$d$d$c$J$Z$Z$u$u$U$G$,%o%v$v$H$I$w$w$'%'%O%O%,&Y$&-S&)%)%l%l%W$W$i&i&i&H&4%n%4%u&z%z%z%z%1%z%1%1%1%1%1%1%1%1%1%z%1%z%z%z%z%4%4%n%n%i&i&K-L-W$W$X$X$)%)%Y$x( >                                                                                                                                              ",
"                                                                                                                                                S,D,Y$S&S&)%X$l%l%W$W$i&];i&i&n%n%4%n%z%4%z%z%z%z%z%z%z%z%z%z%z%z%z%4%4%n%n%H&H&i&i&K-K-W$W$X$X$)%)%Y$Y$,&,&O%'%'%j&w$w$H$H$v$v$,%,%-&U$u$9%Z$Z$c$c$d$d$b$y%l$e$a$F${%!$~$~$|$|${${$-$-$*$*$W#J#I#T#6#%#)##@$#I+E+F+d+e+=+;+V.}+Q.H.E.n.v.a.4.5.(.~.{.%.#.Q Q R L v x #@e$e$F$F${%!$m$m$~$~$|$|${${$'$y(z(~$A(B(C(]']']']']']']']']']']']']']']']']']']']']']']']']']']']']']']']']']']']']']']']']']']']']']']']']']']']']']']']']']']']']']'D(E(F(~$G(H(|$|$~$~$m$m${%{%F$a$e$e$h*y%b$b$Q.w R R Q Q #.#.{.{.(.5.4.a.r.n.E.E.Q.Q.V.V.=+>+d+H+E+I+$##@)#%#6#6#I#I#W#W#7$7$'$k$_%|$:%~$1$m${%F$a$a$l$h*b$b$d$d$J$J$Z$Z$u$u$G$G$o%o%v$E%H$I$w$w$'%'%O%O%2&2&Y$V$)%)%X$!%W$W$K-K-i&i&H&n%n%n%4%4%z%|^z%z%z%z%z%z%z%z%z%z%z%n%4%n%n%i&H&i&i&K-K-W$W$X$X$)%)%Y$k>I(J(                                                                                                                                                ",
"                                                                                                                                                  `=K(L()%X$X$l%l%W$W$i&i&i&i&n%n%4%4%z%4%z%z%z%z%z%z%z%z%z%z%z%u&z%4%4%n%n%H&H&i&i&K-K-W$l%^;^;)%)%Y$Y$2&,&O%O%'%'%w$w$I$H$v$v$o%,%G$G$u$u$Z$Z$J$c$d$d$b$b$h*l$a$L&F$!$m$~$~$:%_%{$'$-$=$*$W#W#I#I#6#6#%#5##@$#E+E+d+d+>+=+V.V.Q.Q.E.E.n.v.a.4.(.(.{.{.@.#.Q Q R L )#b$y%h*e$e$L&L&F${%!$!$~$~$|$|$M(N(m$O(P(&~]']']']']']']']']']']']']']']']']']']']']']']']']']']']']']']']']']']']']']']']']']']']']']']']']']']']']']']']']']']']']']']']'Q(R(={F$S(T(~$!$!${%F$a$a$e$l$y%y%b$b$d$d$N*@@R R Q Q @.%.{.~.5.5.a.a.n.n.E.H.Q.Q.V.;+>+e+d+F+I+I+#@#@%#%#6#T#I#I#W#*$=$-$'${$|$|$~$~$!$!$F$F$e$e$h*y%b$>%d$N*J$J$Z$j%u$u$G$G$o%o%E%E%I$x$w$w$'%'%O%,&Y$Y$&-S&)%)%^;l%W$W$K-K-i&i&H&H&4%n%4%4%z%4%z%z%z%z%z%z%z%z%z%u&z%4%4%n%4%H&H&i&i&K-K-W$W$^;^;)%)%U(V(                                                                                                                                                    ",
"                                                                                                                                                      W(X(Y$V$)%)%X$X$W$l%W$W$];K-i&i&i&i&n%H&n%n%n%n%n%n%n%H&n%i&i&i&i&];];W$W$W$W$!%X$)%)%S&S&Y$Y$,&,&'%'%j&)=w$x$H$H$v$v$,%,%-&U$u$u$Z$Z$c$c$d$d$b$b$l$l$a$a${%!$m$~$~$|$|$_%'$-$7$7$W#W#I#I#6#6#%#)##@#@I+E+H+d+e+=+V.V.Q.Q.E.E.n.r.a.4.5.(.i.{.@.#.Q Q R R w )#b$b$l$l$e$e$F$F${%!$1$~$~$~$|$Y(q-Z(~$`( _]']']']']']']']']']']']']']']']']']']']']']']']']']']']']']']']']']']']']']']']']']']']']']']']']']']']']']']']']']']']']']']']']']'`,._+_{%@_#_~$1$!${%F$F$e$e$h*l$b$b$d$d$d$N*}+v R -.Q #.@.{.i.~.5.e.a.a.n.P.E.H.Q.}+V.;+e+e+H+F+I+I+#@#@%#%#6#6#I#J#W#*$=$-$k$k$|$|$~$~$m$!$F$F$a$e$h*y%b$>%d$d$J$J$Z$Z$u$u$G$G$o%o%v$v$H$H$w$w$'%'%~%O%,&,&Y$Y$S&)%X$X$!%!%W$W$W$W$i&];i&i&H&i&n%H&n%H&n%n%n%i&n%i&H&i&i&];i&W$W$W$W$!%!%X$X$S&S&Y$u,0*                                                                                                                                                      ",
"                                                                                                                                                        S,O,S&)%)%X$X$W$l%W$W$i&K-i&i&H&i&H&H&n%H&n%n%n%H&n%H&n%i&i&i&i&K-i&W$K-W$W$l%l%)%)%S&S&Y$Y$,&,&'%'%'%k%w$w$H$H$v$v$o%,%G$G$u$u$Z$Z$J$J$d$d$b$b$y%h*e$a$F${%!$m$~$~$|$|$k$'$-$=$W#W#I#I#T#6#%#%##@#@I+I+F+H+e+>+;+V.}+Q.H.E.n.n.a.a.5.5.~.{.%.@.|.Q w.R 6#d$d$d$b$b$y%h*e$e$L&L&{%!$m$~$`~$_%_F$&_*_]']']']']']']']']']']']']']']']']']']']']']']']']']']']']']']']']']']']']']']']']']']']']']']']']']']']']']']']']']']']']']']']']']']']'=_-_;_>_,_'_{%F$L&e$e$y%y%b$b$d$d$c$c$J$J$Z$;+w.Q #.#.{.{.(.(.4.4.v.v.P.E.Q.Q.}+V.;+=+e+d+F+E+I+$##@5#%#6#T#7#I#&$*$*$-$-${${$|$|$~$~$!$!$F$F$e$e$y%y%>%5%d$N*J$-,Z$j%u$u$G$G$o%o%E%E%I$I$w$w$'%'%O%O%,&,&Y$Y$S&)%)%X$l%l%W$W$W$W$i&];i&i&H&i&H&H&n%H&n%H&n%i&H&i&H&i&i&i&i&W$K-W$W$l%l%X$X$)%)%,-)_                                                                                                                                                        ",
"                                                                                                                                                          !_~_{_Y$)%)%X$X$l%!%W$W$W$W$K-W$];K-i&K-i&];i&K-i&K-i&W$K-W$W$W$W$!%l%X$X$)%)%Y$Y$Y$Y$O%O%'%'%j&)=w$w$H$H$v$v$o%,%G$G$u$u$Z$Z$J$J$N*d$>%b$y%y%e$e$F$F$!$!$~$~$|$|${${$-$-$*$*$J#J#I#7#6#%#)##@$#I+E+F+d+e+=+=+V..+Q.Q.E.P.r.v.4.e.(.(.{.{.#.#.Q -.R 7#N*d$d$d$b$b$y%y%e$e$O&F${%!$m$]_^_I~F$/_(_]']']']']']']']']']']']']']']']']']']']']']']']']']']']']']']']']']']']']']']']']']']']']']']']']']']']']']']']']']']']']']']']']']']']']']'-]__e$:_<_[_F$a$e$e$y%y%b$b$d$d$c$c$J$Z$Z$Z$;+R Q Q #.%.{.i.(.5.a.a.r.n.E.E.Q.Q.V.V.=+e+d+H+E+I+#@#@)#%#6#6#I#I#W#W#*$7$-$'${$_%|$5]~$1$!${%F$a$e$l$y%b$d$d$N*c$J$Z$Z$u$u$U$G$,%o%o%E%E%I$H$w$w$'%'%'%O%,&,&Y$Y$S&V$)%)%X$X$l%l%W$W$W$W$K-W$K-K-i&K-i&K-i&K-K-K-K-W$W$W$W$!%l%X$X$)%)%S&S&}_|_1_                                                                                                                                                          ",
"                                                                                                                                                              2_3_)%)%X$X$l%l%W$l%W$W$K-W$L-K-i&K-i&L-i&K-i&K-i&W$K-W$W$l%l%l%l%X$X$)%)%Y$&-Y$Y$,&,&'%'%'%k%w$w$I$H$E%v$o%o%G$G$u$u$j%j%J$J$c$N*5%5%b$y%e$e$a$L&!$!$~$~$:%|$_%{$'$-$7$*$W#&$I#I#6#6#%#5##@$#I+E+d+d+>+>+V.V.Q.Q.E.E.n.n.a.4.5.(.{.{.@.@.Q Q I#Z$J$J$c$c$d$d$b$b$y%y%e$e$L&L&4_E-5_h*6_7_8_]']']']']']']']']']']']']']']']']']']']']']']']']']']']']']']']']']']']']']']']']']']']']']']']']']']']']']']']']']']']']']']']']']']']']']']'9_0_y%a_y=b_e$y%y%b$>%d$d$J$J$Z$Z$j%9%u$u$G$e+Q #.@.{.~.~.5.4.a.a.n.P.H.H.Q.}+V.;+>+e+F+F+I+I+#@#@%#%#6#T#I#I#W#W#=$-$'$k$_%|$)$~$~$!${%F$a$a$l$h*b$b$d$d$c$J$Z$Z$9%u$U$U$G$,%E&E&E%E%I$I$w$w$'%'%'%O%,&,&Y$Y$S&S&)%)%X$X$l%l%W$l%W$W$K-W$K-K-i&K-i&K-i&K-L-K-K-W$W$W$W$l%l%X$^;)%)%S&h]1_                                                                                                                                                              ",
"                                                                                                                                                                l!c_Y$V$V$)%)%)%)%X$X$l%X$l%!%W$!%l%l%W$!%l%!%l%X$X$X$X$)%)%)%)%Y$Y$Y$Y$,&,&O%O%'%'%w$w$w$x$H$H$v$v$o%,%G$-&u$u$Z$Z$J$J$N*d$g=>%b$y%l$e$O&F${%!$~$~$|$|$_%{$'$-$7$*$W#W#I#I#6#6#)#)##@#@I+E+H+d+e+=+;+V.Q.Q.E.E.n.n.a.a.5.5.i.{.%.@.|.Q R J#Z$Z$J$J$c$c$d$d$b$b$l$l$e$e$F$d_e_f_l$g_h_i_]']']']']']']']']']']']']']']']']']']']']']']']']']']']']']']']']']']']']']']']']']']']']']']']']']']']']']']']']']']']']']']']']']']']']']']']']'j_k_b$l_m_n_l$l$b$b$d$d$c$c$J$Z$Z$Z$u$u$U$-&=+-.|.#.{.{.~.(.5.e.a.v.n.E.H.Q.Q..+;+=+e+e+H+F+I+I+#@#@%#%#6#6#I#J#W#*$=$-$'$k$|$|$~$~$m$m${%F$a$a$l$l$b$b$d$d$c$c$Q>Z$9%H%u$U$G$G$o%o%v$v$H$H$w$w$w$j&'%'%O%O%,&,&Y$Y$V$Y$)%)%)%)%X$X$!%X$l%X$l%!%l%!%l%X$l%X$l%X$X$X$X$)%)%V$S&Y$Y$o_p_                                                                                                                                                                ",
"                                                                                                                                                                  q_r_S&Y$)%)%)%)%X$X$l%X$l%l%l%l%l%l%l%l%l%l%l%X$^;X$X$)%)%)%)%Y$Y$Y$Y$,&,&O%O%'%'%w$w$w$x$H$H$v$v$o%o%G$G$u$u$j%Z$Z$J$c$N*d$5%b$y%l$e$a$L&{%!$m$~$~$:%|$_%k$'$=$=$W#W#I#I#T#6#%#%##@#@I+I+F+F+e+>+;+V.}+Q.Q.H.P.n.v.a.4.5.(.~.{.%.#.Q *$U$u$u$Z$Z$Z$-,c$c$d$d$b$b$y%h*e$8-L%5%s_t_u_]']']']']']']']']']']']']']']']']']']']']']']']']']']']']']']']']']']']']']']']']']']']']']']']']']']']']']']']']']']']']']']']']']']']']']']']']']']'v_w_d$x_y_z_b$d$d$c$c$Z$Z$j%9%u$u$G$G$,%,%v$d+#.@.{.{.(.(.4.a.v.n.E.E.Q.Q.V.V.=+=+d+d+F+E+ @$##@)#%#F#T#7#I#J#W#*$-$-$k${$|$|$~$~$!$!$F$F$a$e$h*y%b$b$d$d$c$c$Z$Z$9%u$u$U$G$G$o%o%E%E%H$I$w$w$w$k%'%'%O%O%,&,&Y$Y$&-Y$)%)%)%)%X$X$^;X$l%X$l%!%l%l%l%X$l%X$l%X$X$)%X$)%)%S&S&Y$A_B_                                                                                                                                                                  ",
"                                                                                                                                                                    Z)C_2&Y$Y$S&Y$S&S&)%)%)%)%)%)%)%)%)%)%)%)%)%S&)%V$S&Y$Y$Y$Y$,&,&O%O%'%'%'%'%w$w$x$x$H$H$v$v$o%,%G$G$u$u$9%Z$Z$J$c$c$d$d$b$b$l$l$e$a$F${%m$m$~$~$|$|$k$k$-$-$*$W#J#I#7#T#6#%#5##@$#I+E+F+d+d+=+=+V.V.Q.Q.E.E.r.v.a.4.(.(.{.{.#.#.Q =$-&-&u$u$Z$Z$Z$Z$c$c$d$d$b$b$y%h*D_E_>%F_G_H_]']']']']']']']']']']']']']']']']']']']']']']']']']']']']']']']']']']']']']']']']']']']']']']']']']']']']']']']']']']']']']']']']']']']']']']']']']']']'q]I_J_N*K_L_b$d$d$c$c$Z$Z$j%9%u$U$G$G$,%o%v$v$d+|.@.%.{.~.5.5.a.a.n.n.E.E.Q.Q.V.V.>+>+d+H+E+I+$##@)#)#6#6#I#I#J#W#*$7$-$'${${$|$|$~$~$!$!$F$F$e$e$h*y%b$b$d$d$c$J$Z$Z$9%u$U$U$G$,%o%o%v$v$H$H$x$w$w$w$'%'%'%'%O%O%2&,&Y$Y$Y$Y$S&V$)%S&)%)%)%)%)%)%)%)%)%)%)%S&S&V$S&Y$Y$Y$Y$M_7%                                                                                                                                                                    ",
"                                                                                                                                                                      N_O_Y$Y$&-Y$S&S&)%)%)%)%)%)%)%)%)%)%)%)%)%S&)%S&S&Y$Y$Y$Y$,&,&O%,&'%'%'%'%w$w$x$x$H$H$v$v$o%o%G$G$u$u$u$j%Z$-,J$c$d$d$b$b$h*h*e$a$F$F$!$!$~$~$|$|${${$-$-$*$*$W#&$I#7#6#6#)#5##@$#I+E+d+d+>+>+V.V.Q.Q.H.E.n.n.a.a.5.(.~.{.@.@.'$v$o%,%G$G$u$u$u$j%Z$Z$J$J$d$d$b$P_Q_R_S_T_Q(]']']']']']']']']']']']']']']']']']']']']']']']']']']']']']']']']']']']']']']']']']']']']']']']']']']']']']']']']']']']']']']']']']']']']']']']']']']']']']'U_V_W_-,X_Y_c$J$Z$Z$j%u$u$U$G$G$o%o%v$v$H$H$x$Z_%.{.~.(.5.4.a.v.n.n.H.D.Q.}+V.;+>+e+H+F+I+I+#@#@%#%#6#6#I#I#W#W#=$=$-$'${$_%|$)$~$~$!$!$L&L&e$e$y%y%b$>%d$d$J$J$Z$Z$u$u$U$U$G$,%E&o%v$E%I$H$x$w$w$w$'%'%'%'%,&,&,&,&Y$Y$&-Y$S&S&)%S&)%)%)%)%)%)%)%)%)%)%)%S&S&&-S&Y$Y$d>`_                                                                                                                                                                        ",
"                                                                                                                                                                           :.:,&O%2&,&Y$2&Y$Y$Y$Y$Y$Y$Y$Y$Y$2&Y$,&2&,&,&O%O%~%O%'%'%j&'%w$w$w$x$H$H$E%E%o%o%,%,%-&U$u$u$Z$Z$Q>J$c$N*d$d$b$b$l$l$a$a$F$F$m$m$~$~$|$|${$k$-$-$*$*$J#J#I#7#6#F#)#)##@$#I+E+H+d+e+=+V.V.Q.Q.E.E.n.n.a.a.5.5.i.{.%.@.|.k$_-o%,%,%-&-&u$u$Z$Z$Q>J$c$N*d$>%+:@:#:$:%:&:]']']']']']']']']']']']']']']']']']']']']']']']']']']']']']']']']']']']']']']']']']']']']']']']']']']']']']']']']']']']']']']']']']']']']']']']']']']']']']']']'*:=:-:Z$;:b~c$J$Q>Z$Z$u$u$-&G$,%,%v$v$E%H$I$I$Z_#.%.{.(.(.5.e.a.v.n.E.H.Q.Q..+;+;+e+e+H+H+I+I+#@#@)#%#6#6#I#I#W#W#*$7$-$'${$_%|$|$~$~$!$!$F$F$e$e$l$y%b$b$d$d$c$c$Z$Z$Z$H%u$u$G$-&,%,%v$_-E%E%H$H$w$w$w$w$'%'%'%'%O%~%O%O%,&,&2&,&Y$2&Y$2&Y$Y$Y$2&Y$2&Y$,&2&,&,&O%>:,:                                                                                                                                                                          ",
"                                                                                                                                                                            i(':,&,&,&Y$2&Y$Y$Y$Y$Y$Y$Y$Y$Y$2&Y$,&2&,&,&O%,&~%O%'%'%'%'%w$w$w$x$H$H$E%E%E&E&,%,%G$G$u$u$Z$Z$Z$J$c$N*d$d$b$b$h*h*e$a$F$F$!$!$~$~$|$|${${$-$-$7$*$W#&$I#I#6#6#%#%##@#@I+I+F+d+e+>+;+V.}+Q.H.H.P.n.v.a.4.5.(.~.{.%.|$I$H$E%v$v$o%,%G$G$u$u$j%Z$Z$J$c$):V{!:~:{:]:]']']']']']']']']']']']']']']']']']']']']']']']']']']']']']']']']']']']']']']']']']']']']']']']']']']']']']']']']']']']']']']']']']']']']']']']']']']']']']']']']']'^:/:(:_:,!::Z$Z$u$u$G$G$o%o%v$v$H$H$x$w$w$w$'%E+{.{.(.(.4.a.v.r.P.E.Q.Q.@@V.;+=+e+d+F+E+I+$##@#@%#%#T#T#I#I#W#W#7$=$'$'${$|$:%:%~$~$!$!$F$L&e$e$h*y%b$b$d$d$J$c$Z$Z$j%9%u$u$G$G$,%o%v$v$E%E%I$H$x$w$w$w$'%'%'%'%O%~%,&O%,&,&2&,&2&2&Y$2&Y$Y$Y$2&Y$2&Y$,&,&,&,&<:[:                                                                                                                                                                            ",
"                                                                                                                                                                              }:|:~%'%O%~%O%O%,&O%O%O%,&O%O%O%O%'%~%'%'%'%'%j&'%w$w$w$w$H$I$H$H$v$v$o%o%,%G$-&U$u$u$Z$Z$Q>J$c$c$d$d$b$b$h*l$e$e$F$F$!$!$~$~$|$|$_%{$'$'$7$7$W#W#I#I#6#6#%#%##@#@I+I+E+F+d+e+=+;+V.}+Q.Q.E.P.r.v.a.4.5.(.{.{.@.|$I$I$H$H$v$v$o%o%G$G$u$u$Z$Z$Z$J$1:w!2:3:4:^{]']']']']']']']']']']']']']']']']']']']']']']']']']']']']']']']']']']']']']']']']']']']']']']']']']']']']']']']']']']']']']']']']']']']']']']']']']']']']']']']']']']']'H{5:6:7:8:9:Z$u$u$G$G$o%o%v$v$H$H$w$w$w$w$'%'%E+%.{.i.5.5.a.a.n.n.E.E.Q.Q.V.V.=+>+d+d+E+I+$##@#@)#%#6#T#7#I#J#W#*$-$-$'$k$|$|$:%~$~$1$!${%F$O&e$e$y%y%b$>%d$d$c$c$Z$Z$Z$9%u$u$-&-&,%,%o%o%v$v$H$H$I$I$w$w$w$w$'%j&'%'%'%'%O%'%O%~%O%O%O%O%O%O%O%~%O%'%~%'%0:Z&                                                                                                                                                                              ",
"                                                                                                                                                                                a:b:'%O%~%,&O%,&O%,&O%,&O%,&O%O%'%'%'%'%'%'%k%'%w$w$w$w$I$I$H$E%v$v$o%o%,%G$G$G$u$u$j%j%Z$J$c$c$d$d$b$b$y%h*e$e$F$F$!$!$~$~$~$:%_%{$k$'$-$=$*$W#I#I#7#T#%#%#5##@$# @E+E+d+d+>+=+V.V.Q.Q.E.E.n.n.a.4.5.(.~.{.~$'%w$w$w$w$H$H$E%v$o%o%G$G$u$u$j%c:m/d:u$e:f:]']']']']']']']']']']']']']']']']']']']']']']']']']']']']']']']']']']']']']']']']']']']']']']']']']']']']']']']']']']']']']']']']']']']']']']']']']']']']']']']']']']']']']'g:h:X{+!i:j:G$G$o%o%v$E%I$I$w$w$'%'%'%'%,&,&2&$#~.(.5.4.a.a.n.n.H.H.Q.Q.V.V.>+e+d+H+E+I+$##@5#%#6#6#7#I#&$&$*$*$-$-$k${$|$|$~$~$m$m$!$F$L&a$e$l$y%y%b$5%d$d$J$J$Z$Z$j%9%u$u$G$G$,%,%E&E&v$v$H$H$I$I$w$w$w$w$k%k%'%'%'%'%k:'%O%'%,&O%,&O%,&O%O%~%O%'%'%0:C=                                                                                                                                                                                ",
"                                                                                                                                                                                  l:m:j&w$'%j&'%j&'%j&'%w$'%w$'%w$w$w$w$w$w$I$x$H$H$E%E%v$v$o%o%,%,%G$G$u$u$u$u$Z$Z$J$J$N*d$d$d$b$b$l$l$e$a$F$F$!$!$~$~$|$|$|${$'$'$-$7$*$W#J#I#7#6#F#%#5##@#@I+E+F+d+d+=+=+V.V.Q.Q.E.E.n.r.a.a.5.5.~.i.%.~$'%'%w$w$w$x$H$H$v$v$,%,%-&-&u$u$3:n:o:-&p:q:]']']']']']']']']']']']']']']']']']']']']']']']']']']']']']']']']']']']']']']']']']']']']']']']']']']']']']']']']']']']']']']']']']']']']']']']']']']']']']']']']']']']']']']']'r:s:t:.-u:v:-&,%,%v$v$H$H$x$w$w$)='%'%O%O%2&2&$#{.~.(.5.e.a.v.n.P.E._#Q.}+V.;+>+e+d+H+I+I+#@#@)#)#6#6#7#I#J#P$*$*$-$-$k$k$|$|$~$~$~$m$!${%F$O&e$e$h*y%b$b$d$d$c$c$J$Q>Z$Z$u$u$U$U$G$G$,%,%o%o%v$v$E%H$H$H$x$I$w$w$w$w$w$w$w$w$'%w$'%w$'%w$j&w$j&w$w:W&                                                                                                                                                                                  ",
"                                                                                                                                                                                    k;D=w$'%k%'%)='%k%'%w$'%w$k%w$w$w$w$w$w$I$x$H$H$E%E%v$v$o%E&,%,%G$G$u$u$u$u$Z$Z$J$J$N*N*d$d$b$b$y%h*e$e$L&F$!$!$~$~$~$:%|$_%k$'$-$=$*$W#J#I#7#T#6#%#)#5##@$#I+E+H+d+>+>+V.V.Q.Q.H.H.n.n.v.a.e.5.(.~.!$2&,&,&'%'%'%k%w$x$H$H$v$v$o%,%G$G$x:y:,%z:A:]']']']']']']']']']']']']']']']']']']']']']']']']']']']']']']']']']']']']']']']']']']']']']']']']']']']']']']']']']']']']']']']']']']']']']']']']']']']']']']']']']']']']']']']']']'=_B:C:D:a=E:v$v$H$H$w$w$k%'%'%'%,&,&Y$Y$S&S&)%#@(.(.4.4.v.r.P.E.H.Q.@@V.V.=+e+e+F+F+I+I+#@#@%#%#6#6#I#I#&$W#*$*$-$-${${$|$|$~$~$1$!$!${%L&a$e$e$y%y%b$b$d$d$c$c$J$Z$Z$Z$u$u$U$U$G$G$,%,%E&E&v$v$E%E%I$H$x$I$w$w$w$w$w$w$w$w$'%w$'%w$'%w$k%w$k%:-F:                                                                                                                                                                                    ",
"                                                                                                                                                                                      G:x$w$x$w$x$w$w$w$x$w$x$x$H$I$H$I$H$H$E%E%v$v$o%o%,%,%G$G$U$U$u$u$H%Z$Z$Z$J$J$N*d$d$5%b$b$l$l$e$e$F$F${%!$1$~$~$)$|$|$k$k$-$-$*$*$P$J#I#I#6#6#%#)##@#@I+I+H+H+e+e+;+V..+}+Q.H.E.P.r.v.a.4.(.(.{.F$2&2&O%,&'%'%j&)=w$w$H$H$v$v$o%,%-&[!a'v$H:I:]']']']']']']']']']']']']']']']']']']']']']']']']']']']']']']']']']']']']']']']']']']']']']']']']']']']']']']']']']']']']']']']']']']']']']']']']']']']']']']']']']']']']']']']']']']']'J:K:L:M:-/N:v$H$H$w$w$)='%'%~%,&,&Y$Y$S&S&)%)%#@i.5.5.a.a.n.n.E.E.Q.Q.V.V.=+=+e+d+F+E+I+I+#@#@%#%#6#6#I#I#W#W#*$7$-$-$k${$|$|$~$~$m$m${%{%L&a$e$e$y%y%b$b$d$d$N*c$J$J$Z$Z$9%9%u$u$-&-&G$G$o%,%o%o%v$v$E%E%H$H$H$H$I$H$x$I$w$I$w$x$w$x$w$x$O:P:                                                                                                                                                                                      ",
"                                                                                                                                                                                        Q:w$x$w$x$w$x$w$x$x$x$x$I$I$H$I$E%H$E%E%v$v$E&E&,%,%G$G$U$U$u$u$j%j%Z$Z$J$J$N*N*d$5%b$b$y%h*e$e$L&L&{%!$m$~$~$~$|$|${${$-$-$7$*$W#&$I#I#6#6#%#%##@#@I+I+F+F+d+e+=+;+V.V.Q.Q.E.E.n.v.a.4.5.(.e$)%S&S&Y$Y$,&,&O%'%'%k%w$w$H$H$v$v$X*j=H$R:S:8_]']']']']']']']']']']']']']']']']']']']']']']']']']']']']']']']']']']']']']']']']']']']']']']']']']']']']']']']']']']']']']']']']']']']']']']']']']']']']']']']']']']']']']']']']']']']']'T:U:I$})V:<!x$w$'%'%'%O%,&,&Y$Y$)%)%X$X$l%l%W$%#5.5.a.a.n.n.E.H.Q.Q.V.V.>+>+d+d+E+E+ @$##@#@%#%#T#T#I#I#W#W#7$=$-$'${${$|$|$~$~$!$!${%F$L&a$e$l$y%y%b$b$d$d$N*c$J$J$Z$Z$u$u$u$u$G$-&G$G$o%,%E&E&v$v$E%E%H$E%I$H$I$I$x$I$x$I$x$x$w$I$x$I$W:                                                                                                                                                                                        ",
"                                                                                                                                                                                        F&X:v$E%v$E%E%E%v$E%v$E%v$v$_-v$o%o%,%o%G$,%-&G$U$U$u$u$H%Z$Z$Z$J$J$c$c$d$d$>%b$y%y%l$l$a$a$F$F$!$!$~$~$Y:|$|$_%k$k$-$-$*$*$P$J#I#7#6#6#)#)##@#@I+I+F+H+e+e+=+;+.+}+Q.Q.E.E.r.r.a.4.5.(.i.e$)%)%V$V$Y$Y$O%O%'%'%w$w$w$x$H$E%_-Z:`:v$ <.<+<]']']']']']']']']']']']']']']']']']']']']']']']']']']']']']']']']']']']']']']']']']']']']']']']']']']']']']']']']']']']']']']']']']']']']']']']']']']']']']']']']']']']']']']']']']']']']']']'@<#<w$$<%<I$w$w$w$'%'%O%O%Y$Y$S&S&X$X$l%l%W$W$&<~.5.5.a.a.n.n.E.E.Q.Q.V.V.=+=+d+d+F+E+I+r##@#@%#%#6#6#I#I#W#W#*$7$-$-$k$k$|$|$~$~$~$m$!$!$F$F$e$e$l$l$b$b$>%>%d$d$c$c$J$J$Z$Z$9%H%u$u$U$U$G$G$,%,%,%,%o%o%v$_-v$_-v$v$E%v$E%v$E%v$E%X:N_                                                                                                                                                                                        ",
"                                                                                                                                                                                          $>*<E%v$E%v$E%v$E%v$E%v$v$E&v$o%o%,%o%G$G$G$G$U$U$u$u$j%j%Z$Z$J$J$c$c$d$d$>%>%y%y%l$l$e$a$F$F$!$!$1$~$~$:%|$|$k$k$-$-$*$*$W#W#I#I#6#6#%#%##@#@I+I+E+F+d+e+=+=+V.V.Q.Q.E.E.n.n.a.a.5.5.h*W$l%l%X$X$)%S&Y$Y$,&,&'%'%k%w$x$I$=<-<:-;<><M)]']']']']']']']']']']']']']']']']']']']']']']']']']']']']']']']']']']']']']']']']']']']']']']']']']']']']']']']']']']']']']']']']']']']']']']']']']']']']']']']']']']']']']']']']']']']']']']']']',<'<'%M_)<w$'%'%,&,&Y$Y$)%)%X$X$W$W$K-K-i&i&H&%#5.4.a.v.n.P.H.H.Q.Q.V.V.>+>+d+d+E+I+$#$##@)#%#%#T#T#I#I#W#W#7$7$-$'${${$|$|$~$~$1$m$!${%F$L&e$e$h*h*b$b$5%5%d$d$c$c$J$J$Z$Z$u$9%u$u$U$U$G$G$,%G$,%,%o%o%v$E&v$v$v$v$E%v$E%v$E%v$o),>                                                                                                                                                                                          ",
"                                                                                                                                                                                            c&+!o%o%o%o%,%o%,%o%,%,%,%,%G$G$-&G$u$U$u$u$H%9%Z$Z$Q>Q>c$J$d$d$d$d$b$b$y%y%l$e$a$a$F$F$!$!$~$~$~$)$|$|$k$k$-$-$7$*$W#W#I#I#6#6#%#%##@#@$#I+E+E+d+d+=+=+V.V.Q.Q.H.E.n.n.v.a.e.5.(.b$W$W$l%l%X$X$)%)%Y$Y$,&,&'%'%)=w$x$*<!<0:~<{<]<]']']']']']']']']']']']']']']']']']']']']']']']']']']']']']']']']']']']']']']']']']']']']']']']']']']']']']']']']']']']']']']']']']']']']']']']']']']']']']']']']']']']']']']']']']']']']']']']']']']'^</<'%(<_<'%'%O%,&Y$Y$)%)%X$X$W$W$K-];i&i&n%H&%#5.4.a.v.r.P.E.H.Q.Q.}+V.;+e+e+d+H+I+I+$##@5#)#%#6#T#7#I#J#W#W#7$7$-$'${${$|$|$~$~$1$m$!${%F$F$a$e$l$l$y%b$b$b$d$d$N*c$J$J$Z$Z$Z$Z$u$9%u$u$U$u$-&-&G$G$,%G$,%,%,%,%o%,%o%o%o%,*$>                                                                                                                                                                                            ",
"                                                                                                                                                                                              :<o%o%o%E&,%o%,%o%,%,%G$,%G$G$-&G$u$u$u$u$9%9%Z$Z$-,-,J$J$d$d$d$d$b$b$y%y%l$e$e$a$F$F$!$!$~$~$~$~$|$|${${$-$-$=$7$W#W#I#I#T#T#%#%#5##@#@$#E+E+H+d+>+>+;+V.Q.Q.Q.H.P.n.v.v.4.4.d$n%i&i&L-L-W$W$l%^;)%)%Y$Y$,&,&'%'%<<-([<8=}<a(]']']']']']']']']']']']']']']']']']']']']']']']']']']']']']']']']']']']']']']']']']']']']']']']']']']']']']']']']']']']']']']']']']']']']']']']']']']']']']']']']']']']']']']']']']']']']']']']']']']']']'|<1<Y$2<C_,&Y$Y$)%)%X$l%W$W$i&i&H&H&4%4%z%z%z%F#4.a.4@n.E.E.Q.Q.V.V.;+=+e+e+F+F+I+I+#@#@%#%#%#6#T#7#I#J#W#W#=$=$'$'${${$|$|$~$~$m$m$!${%L&F$e$e$h*l$y%b$>%b$d$d$N*N*J$J$Z$Z$Z$Z$u$9%u$u$U$u$G$-&G$G$G$G$,%,%,%,%o%,%o%,%o%3<                                                                                                                                                                                              ",
"                                                                                                                                                                                                4<-&U$G$U$-&U$U$u$U$u$u$u$u$9%u$Z$Z$Z$Z$J$J$c$c$d$d$d$d$b$b$b$b$l$l$e$e$O&F$F${%m$m$~$~$|$|$|$_%k$k$-$-$*$*$W#W#I#I#6#6#%#%#5##@r#I+I+E+H+d+e+>+;+V.}+Q._#E.E.n.v.a.a.4.(.d$n%n%i&i&K-K-W$l%X$X$S&S&Y$Y$O%O%'%5<z-/]6<7<8<]']']']']']']']']']']']']']']']']']']']']']']']']']']']']']']']']']']']']']']']']']']']']']']']']']']']']']']']']']']']']']']']']']']']']']']']']']']']']']']']']']']']']']']']']']']']']']']']']']']']']']'9<0<a<b<c<d<2&Y$S&S&X$X$W$W$K-];i&H&n%n%z%z%z%z%F#5.a.a.r.r.E.E.Q.Q.}+V.;+;+e+e+H+H+I+I+#@#@5#)#%#6#6#7#I#I#W#W#7$7$-$-$k$k$|$|$~$~$~$1$!$!$F$F$a$a$e$e$h*l$b$b$>%>%d$d$N*N*c$c$J$J$Z$Z$Z$Z$9%H%u$u$u$u$U$u$U$U$-&U$-&U$e<                                                                                                                                                                                                ",
"                                                                                                                                                                                                ,>f<U$G$U$G$U$U$u$u$u$u$u$u$9%u$Z$Z$Z$Z$J$J$J$J$d$d$d$d$b$b$b$b$h*h*e$e$a$L&F$F$!$!$~$~$:%:%|$|$k$k$-$-$7$*$W#W#I#I#T#T#%#%#)#5##@$#I+E+H+d+e+>+;+V.V.Q.Q.H.E.P.r.v.a.4.c$z%z%z%n%4%H&i&i&K-W$W$X$X$)%S&Y$2&g<h<W=((i<j<]']']']']']']']']']']']']']']']']']']']']']']']']']']']']']']']']']']']']']']']']']']']']']']']']']']']']']']']']']']']']']']']']']']']']']']']']']']']']']']']']']']']']']']']']']']']']']']']']']']']']']']']'e{k<l<m<n<o<S&X$X$l%W$i&i&H&n%4%4%z%z%1%1%1%1%1%6#a.a.n.n.E.E.Q.Q.V.V.=+=+e+d+F+F+I+I+#@#@)#%#6#6#T#I#I#J#W#W#=$=$-$'${${$|$|$~$~$~$1$!$!$F$F$a$a$e$e$y%h*b$b$5%>%d$d$N*N*J$J$J$J$Z$Z$j%Z$9%9%u$u$u$u$u$u$U$u$-&U$G$4^p_                                                                                                                                                                                                ",
"                                                                                                                                                                                                  J=u$u$9%u$9%u$Z$Z$Z$Z$Z$Z$Z$Z$J$J$c$c$d$N*d$d$>%>%b$b$y%y%l$l$e$a$F$F${%{%m$m$~$~$|$|$|$_%k$k$-$-$7$*$W#W#I#I#T#6#6#%#)#5##@#@I+I+F+H+e+e+=+;+V.}+Q.Q.E.E.n.n.a.a.5.Q>z%z%z%z%n%n%H&H&];K-W$W$X$X$)%S&Y$p<C=q<r<Z]s<]']']']']']']']']']']']']']']']']']']']']']']']']']']']']']']']']']']']']']']']']']']']']']']']']']']']']']']']']']']']']']']']']']']']']']']']']']']']']']']']']']']']']']']']']']']']']']']']']']']']']']']']']']'t<u<r_L(V(v<X$X$l%W$];];H&n%4%4%z%z%1%1%1%D%3%1%6#4.a.a.n.n.E.E.Q.Q.V.V.=+=+d+d+F+E+I+I+#@#@%#%#6#6#7#7#I#J#W#W#7$7$-$-$k${$|$|$:%~$~$~$!$!${%{%F$a$e$e$l$l$y%y%b$b$d$>%d$d$N*N*c$c$J$J$Z$Z$Z$Z$Z$Z$9%Z$9%Z$u$H%u$w<                                                                                                                                                                                                  ",
"                                                              3+x<L$y<                                                                                                                            z<A<u$9%u$j%u$Z$j%Z$j%Z$Z$Z$Z$J$J$c$J$d$N*d$d$>%5%b$b$y%y%l$l$e$e$L&L&{%!$!$!$~$~$)$:%|$_%{${$-$-$=$7$W#W#I#I#7#T#6#n!%#)##@#@I+I+F+F+d+e+=+=+V.V.Q.Q.E.E.n.n.a.a.;^3%D%1%1%1%z%z%u&4%n%H&i&i&W$l%X$X$B<C<D<E<%:&:]']']']']']']']']']']']']']']']']']']']']']']']']']']']']']']']']']']']']']']']']']']']']']']']']']']']']']']']']']']']']']']']']']']']']']']']']']']']']']']']']']']']']']']']']']']']']']']']']']']']']']']']']']']']'F<G<D<H<I<J<W$K-i&H&n%4%z%z%z%1%1%3%t&+&+&m%m%+&K<v.v.n.P.H.H.Q.Q.V.V.>+>+d+d+F+E+ @I+#@#@%#%#6#6#I#I#I#&$W#*$=$=$'$'${${$|$|$)$~$~$~$!$!$F$F$L&a$e$e$l$l$y%y%b$b$5%5%d$d$N*N*J$J$J$J$Z$-,Z$Z$Z$Z$j%Z$9%j%u$j%L<`=                                                                                                                            f$A#M<N<z+                                                            ",
"                                                        O+e) ,F+E+I+O<                                                                                                                              -%P<J$J$J$J$c$J$c$c$c$c$d$d$d$d$g=d$b$b$b$b$l$h*l$l$e$e$F$F${%{%!$!$~$~$~$~$|$|${${$'$'$-$-$*$*$W#W#I#I#6#6#%#%#)##@#@$#I+I+H+H+e+e+=+;+V..+Q.Q.E.E.n.r.a.a.5.9%t&t&1%1%q,1%z%z%n%n%i&i&K-K-l%!%)%Q<R<S<T<U<V<]']']']']']']']']']']']']']']']']']']']']']']']']']']']']']']']']']']']']']']']']']']']']']']']']']']']']']']']']']']']']']']']']']']']']']']']']']']']']']']']']']']']']']']']']']']']']']']']']']']']']']']']']']']']']']'W<X<Y<Z<`< [W$K-i&i&n%n%z%z%1%1%D%D%3%+&m%m%P>3%.[e.a.v.n.n.E.E.Q.Q.V.V.=+=+e+d+F+F+I+I+#@#@)#)#6#6#6#7#I#I#W#W#*$*$-$-$k$k${$_%|$|$~$~$1$1$!$!$F$F$F$O&e$e$l$l$y%y%b$b$b$b$d$g=d$d$d$d$c$N*c$c$J$c$J$J$J$J$+[                                                                                                                              @[I+I+H+,]M^X.                                                        ",
"                                                      #[$[d+H+E+E+I+%[c+                                                                                                                              &[J$J$J$J$c$J$c$J$N*c$d$d$d$d$5%5%b$b$b$b$h*h*l$l$e$e$L&L&{%{%!$!$~$~$~$~$|$|${${$'$'$-$-$*$*$W#W#I#I#T#T#%#%#)#5##@#@I+I+F+F+d+e+=+=+V.V.Q.Q.H.E.n.n.v.a.U$m%m%m%3%3%t&D%1%1%z%z%4%4%H&i&K-W$*[=[-[;[>[,[]']']']']']']']']']']']']']']']']']']']']']']']']']']']']']']']']']']']']']']']']']']']']']']']']']']']']']']']']']']']']']']']']']']']']']']']']']']']']']']']']']']']']']']']']']']']']']']']']']']']']']']']']']']']']']']']''[)[J<![~[{[i&4%4%z%z%1%1%t&t&+&+&m%P>r>r>P%P%2%K<v.r.n.P.H.H.Q.Q.V.V.>+>+d+d+F+E+I+I+#@#@%#%#6#6#T#7#I#I#W#W#7$7$-$-$k$k$_%_%|$|$~$~$1$1$!$!$F$F$L&a$e$e$l$l$y%y%b$b$b$b$5%5%d$d$d$d$c$N*J$c$J$c$J$J$J$k!][                                                                                                                            ^[/[I+I+F+F+d+Q#O<X.                                                    ",
"                                                  w+([_[=+e+e+H+H+E+I+7@                                                                                                                              :[d$N*d$d$d$d$d$d$>%d$b$>%b$b$y%b$l$h*l$l$e$e$a$a$F$F$!$!$m$m$~$~$5]:%|$|${${$'$'$-$=$*$*$W#&$I#I#6#6#6#%#)#5##@#@I+I+F+F+d+e+=+=+V.V.Q.Q.E.E.n.n.v.a.4.G$P>P>m%m%+&3%t&t&1%1%z%z%n%n%i&i&K-W$<[[[}[|[1[]']']']']']']']']']']']']']']']']']']']']']']']']']']']']']']']']']']']']']']']']']']']']']']']']']']']']']']']']']']']']']']']']']']']']']']']']']']']']']']']']']']']']']']']']']']']']']']']']']']']']']']']']']']']']']']']']']'H_2[x]3[4[5[n%n%z%z%1%1%t&t&+&+&m%P>r>r>P%P%1&P>K<a.v.r.P.E.H.Q.Q.}+V.;+=+>+d+d+F+E+I+I+#@#@%#)#6#6#T#7#I#J#W#W#*$7$-$-$'$k${${$|$|$~$~$~$~$!$m$!${%F$F$a$a$e$e$l$l$y%h*b$b$b$b$>%b$d$>%d$d$d$d$d$d$N*6[                                                                                                                              <*I+E+F+d+d+>+=+V. #$@                                                  ",
"                                                3#7[V.=+=+e+d+F+F+I+I+8[                                                                                                                              9[0[N*d$d$d$d$d$d$5%5%b$5%b$b$y%y%h*h*l$l$e$e$a$a$F$F$!$!$m$!$~$~$)$)$|$|${${$'$'$-$=$*$*$W#W#I#I#T#T#6#%#%#)##@#@I+I+E+F+d+d+>+>+V.V.Q.Q.H.H.P.n.v.v.o%1&P%P%r>r>2%C,m%+&t&t&1%1%z%z%4%4%i&a[b[c[d[e[]']']']']']']']']']']']']']']']']']']']']']']']']']']']']']']']']']']']']']']']']']']']']']']']']']']']']']']']']']']']']']']']']']']']']']']']']']']']']']']']']']']']']']']']']']']']']']']']']']']']']']']']']']']']']']']']']']']']']/f[g[h[i[j[z%1%1%t&t&+&m%2%2%r>P%1&1&A%A%2'A%1&I#n.n.E.E.Q.Q.Q.V.V.;+>+e+d+d+E+E+ @$##@#@%#%#6#6#7#7#I#J#W#W#*$7$-$-$'$k${${$|$|$~$~$~$~$!$!$!${%F$F$a$a$e$e$l$l$y%h*y%y%b$b$>%b$d$5%d$d$d$d$d$d$k[l[                                                                                                                              K]I+E+E+d+d+e+>+;+V.m[n[X.                                              ",
"                                              R.a+Q.Q.V.V.=+=+e+e+H+H+$*(@                                                                                                                              o[b$b$b$b$b$y%b$y%y%l$h*l$l$e$e$a$a$F$F$F$F$!$!$m$m$~$~$~$~$|$|$_%{$k$k$-$-$7$7$*$W#J#J#I#I#6#6#%#%#)##@#@$#I+I+H+H+d+e+=+=+V.V.Q.Q.H.E.n.n.v.v.4.E&P%1&P%P%r>r>m%m%+&+&D%D%1%1%z%z%n%n%p[q[r[s[-]]']']']']']']']']']']']']']']']']']']']']']']']']']']']']']']']']']']']']']']']']']']']']']']']']']']']']']']']']']']']']']']']']']']']']']']']']']']']']']']']']']']']']']']']']']']']']']']']']']']']']']']']']']']']']']']']']']']']']']'t[p(u[v[w[x[z%q,D%D%3%+&P>P>r>P%P%P%A%A%%,A%C%P%I#a.r.r.E.E.H.Q.Q.}+V.;+=+=+d+d+F+E+I+I+#@#@)#)#%#F#6#6#I#I#J#W#*$*$7$-$-$-$k$k$_%|$|$|$~$~$~$~$!$m$!${%F$F$F$F$a$a$e$e$l$l$l$l$y%y%b$y%b$b$b$b$P_                                                                                                                              _&[,F+d+d+>+=+;+V.}+Q.Q.Q.y[z+                                            ",
"                                          3+T$H.H.Q.Q.V.V.=+>+d+d+F+F+I+z[                                                                                                                              A[b$b$b$b$b$y%b$y%y%h*h*e$l$e$e$a$a$L&L&F$F$!$!$m$!$~$~$~$~$|$|$_%_%k${$-$-$=$=$*$W#&$&$I#I#T#6#%#%#)#5##@#@I+I+F+F+d+d+=+=+V.V.Q.Q.D.H.P.n.r.v.E%h&A%%,A%A%1&!&r>r>2%C,+&3%t&D%1%z%z%B[C[D[E[F[]']']']']']']']']']']']']']']']']']']']']']']']']']']']']']']']']']']']']']']']']']']']']']']']']']']']']']']']']']']']']']']']']']']']']']']']']']']']']']']']']']']']']']']']']']']']']']']']']']']']']']']']']']']']']']']']']']']']']']']']'G[H[I[J[b>K[D%3%+&m%2%r>P%1&1&A%A%h&h&>)h&Q%Q%A%I#n.n.E.E.D.Q.Q..+V.;+>+>+d+d+E+E+I+I+#@#@%#%#n!6#T#T#I#I#W#W#*$*$=$-$'$-${${$_%_%|$|$~$~$~$~$!$!$!$!$F$F$L&L&a$a$e$e$l$e$h*h*y%y%y%y%b$y%b$b$G~                                                                                                                              L[E+E+H+d+e+>+=+;+V.V.Q.Q.E.M[c+                                          ",
"                                        W%N[n.E.E.H.Q.Q.}+V.;+>+=+d+d+F+r'@=                                                                                                                            [%O[l$h*l$l$e$l$e$e$a$e$O&a$F$F${%F$!$!$m$m$~$~$~$~$|$|$|$|${${$'$'$-$-$7$*$W#W#J#J#I#I#6#6#%#%#)##@#@#@I+I+F+F+d+d+>+=+V.V.}+Q.Q.H.E.P.r.v.a.H$C%h&C%C%A%A%1&1&P%r>P>P>+&3%D%1%c>z%P[Q[z%R[4{]']']']']']']']']']']']']']']']']']']']']']']']']']']']']']']']']']']']']']']']']']']']']']']']']']']']']']']']']']']']']']']']']']']']']']']']']']']']']']']']']']']']']']']']']']']']']']']']']']']']']']']']']']']']']']']']']']']']']']']']']']'S[T[U[V[D]W[3%3%m%P>r>P%1&A%A%A%h&h&Q%Q%Q%Q%t'A%I#a.n.n.E.E.Q.Q.}+.+;+;+>+e+d+d+F+E+I+I+#@#@)#)#%#6#6#6#I#I#J#J#W#*$7$7$-$-$k$k${${$|$|$|$|$~$~$~$1$!$m$!$!$F${%F$F$a$O&e$a$e$e$e$e$l$l$l$d_R$                                                                                                                            Q@X[H+H+e+e+=+;+V.V.Q.Q.E.E.n.n.Y[Z[                                        ",
"                                      #+/%n.n.E.E.Q.Q.V.V.V.;+>+e+d+d+E+E+E^                                                                                                                            z<`[l$h*e$l$e$e$e$e$a$e$L&L&F$L&{%F$!$!$!$!$~$~$~$~$:%:%|$|${${$'$'$-$-$7$7$W#W#J#J#I#I#6#6#%#%#)#5##@#@I+I+E+F+d+d+>+>+V.V.@@Q.Q.D.E.E.n.n.w$t'Q%t'Q%Q%h&h&%,A%1&1&P%r>2%m%+&3%1% }.}+}@}#}]']']']']']']']']']']']']']']']']']']']']']']']']']']']']']']']']']']']']']']']']']']']']']']']']']']']']']']']']']']']']']']']']']']']']']']']']']']']']']']']']']']']']']']']']']']']']']']']']']']']']']']']']']']']']']']']']']']']']']']']']']']']'$}%}&}*}=}-}m%r>r>1&1&A%%,h&h&Q%t'B%B%B%B%#^B%h&P$n.n.E.E.Q.Q.V.V.;+;+>+e+d+d+E+E+ @I+#@#@%#%#%#6#T#T#I#I#&$W#W#*$=$7$-$-$k$k${${$|$|$:%:%~$~$~$~$!$!$!$!$F${%L&F$a$L&a$a$e$e$e$e$h*e$h*;}i%                                                                                                                            >}I+F+F+d+e+=+=+V.V.Q.Q.D.H.P.n.n.,}'}                                      ",
"                                    )}}{5.a.a.n.n.E.E.Q.Q.Q..+V.;+=+>+d+d+r'x<                                                                                                                            !}F$a$F$F$F$F${%F${%{%!$!$m$!$~$~$~$~$5]~$|$|$|$|${${$'$'$-$-$7$7$*$*$J#J#I#I#6#6#6#6#)#)##@#@r#I+I+I+H+H+e+e+=+=+V.V.Q.Q._#H.E.n.r.v.a.x$Q%Q%Q%Q%P~P~C%C%A%A%P%P%r>2%m%+&t&t&~}{}]}^}/}]']']']']']']']']']']']']']']']']']']']']']']']']']']']']']']']']']']']']']']']']']']']']']']']']']']']']']']']']']']']']']']']']']']']']']']']']']']']']']']']']']']']']']']']']']']']']']']']']']']']']']']']']']']']']']']']']']']']']']']']']']']']']']'(}_}:}t,<}[}P>2%P%P%A%A%h&h&Q%Q% & &B%B%B%B%B%C%I#a.r.n.E.E.Q.Q.Q.}+V.;+=+=+d+d+F+F+I+I+#@#@#@5#%#%#6#6#7#7#I#I#W#P$*$*$7$7$-$-$k$k${${$|$|$|$|$~$~$~$~$1$~$m$m$!$!${%{%F${%F$F$F$F$a$}}                                                                                                                            Y+|}H+e+e+=+=+V.V.Q.Q.E.E.P.n.v.v.a.4.5.1}                                    ",
"                                  2}3}4.4.a.v.n.n.E.E.Q.Q.V.V.;+;+>+e+d+d+F+4}                                                                                                                            5}L&a$F$L&F$F${%F$!${%!$!$m$!$~$~$~$~$)$)$|$|$|$_%{${$'$'$-$-$7$7$*$*$W#&$I#I#T#T#6#6#%#%##@#@$#$#I+I+F+F+d+e+=+=+V.V.Q.Q.Q.H.E.P.n.n.w$B%B%B%B%B% & &Q%Q%h&h&A%A%!&P%2%2%m%6}7}8}9}0}]']']']']']']']']']']']']']']']']']']']']']']']']']']']']']']']']']']']']']']']']']']']']']']']']']']']']']']']']']']']']']']']']']']']']']']']']']']']']']']']']']']']']']']']']']']']']']']']']']']']']']']']']']']']']']']']']']']']']']']']']']']']']']']']'a}b}c}p/d}C,P%A%A%h&h&Q%Q%B%B%=,s)O>O>C)O>C)O>Q%I#n.n.E.E.Q.Q.@@.+V.;+>+>+d+d+F+F+I+I+#@#@#@5#%#%#6#6#7#7#I#I#W#W#*$*$=$=$-$-$k$'${${$|$|$|$|$~$~$~$~$1$~$!$!$!$!$!$!$F${%F$F$L&F$L&e}                                                                                                                            X]F+F+e+e+=+=+V.V.Q.Q.H.H.E.P.r.v.a.a.5.5.f}                                  ",
"                                g.W+i.(.5.4.a.v.v.n.n.E.E.Q.Q.V.V.;+;+>+e+d+g}[*                                                                                                                          h}!${%!$!$!$!$m$m$1$m$~$~$~$~$|$)$|$|$|$|${${$k$k$-$-$7$=$*$*$W#W#J#J#I#I#6#6#F#%#%#%##@#@$#$#I+E+H+H+e+e+=+=+V.V.}+Q.Q.H.E.E.r.r.a.'%B%s)B%s)B%B%B% &Q%Q%h&h&A%A%P%P%2%P>U/i}v>j}@(]']']']']']']']']']']']']']']']']']']']']']']']']']']']']']']']']']']']']']']']']']']']']']']']']']']']']']']']']']']']']']']']']']']']']']']']']']']']']']']']']']']']']']']']']']']']']']']']']']']']']']']']']']']']']']']']']']']']']']']']']']']']']']']']']']'k}l}m}n}'/P%1&A%C%h&Q%Q%B%B%s)s)O>O>C)C)C)C)C)h&I#a.n.n.E.E.Q.Q.}+.+V.;+=+>+d+d+F+F+I+I+$##@#@#@%#%#6#6#T#7#I#I#J#J#W#W#*$7$-$-$-$-$k$k${${$|$|$|$|$~$|$~$~$~$~$1$~$!$m$!$m$!$!$!$o}                                                                                                                          |#p}d+e+=+=+V.V.Q.Q.Q.H.E.E.n.n.a.a.e.5.(.(.{.q}                                ",
"                              r}=.~.(.5.5.4.a.4@r.n.E.H.H.Q.Q.V.V.;+=+e+e+d+H+e@<*                                                                                                                        s}!$!$!$!$!$!$m$!$~$m$~$~$~$~$:%)$|$|$_%_%{${$k$k$-$-$=$=$*$*$W#W#J#&$I#I#T#T#6#%#%#%##@#@$#$#I+E+F+F+d+e+>+>+V.V.}+Q.Q.H.E.E.n.n.'%C)O>C)C)C)O>O>=,=,B%B%Q%Q%h&h&A%A%P%j~t}u}v}w}]']']']']']']']']']']']']']']']']']']']']']']']']']']']']']']']']']']']']']']']']']']']']']']']']']']']']']']']']']']']']']']']']']']']']']']']']']']']']']']']']']']']']']']']']']']']']']']']']']']']']']']']']']']']']']']']']']']']']']']']']']']']']']']']']']']']']^x}y}z}c,A%%,h&Q%t'B%=,O>C)C)(!(!)&)&)&)&)&/!t'A}n.n.E.H.Q.Q.@@V.V.;+>+>+d+d+F+F+I+I+$##@#@#@%#%#6#6#T#T#I#I#&$&$W#W#*$7$-$-$-$'${$k${${$|$|$|$|$)$:%~$~$~$~$~$~$!$m$!$!$!$!$!$Z~                                                                                                                        x@B}F+d+d+>+>+;+V.}+Q.Q.Q.E.E.n.n.a.a.4.4.(.(.{.{.K!                              ",
"                            E C}#.%.{.i.i.5.5.a.a.v.r.n.n.E.E.Q.Q..+V.;+;+>+e+d+X&                                                                                                                        D}~$~$~$~$~$~$|$~$|$|$|$|$|$|${${$k$k$'$'$-$-$7$7$*$*$W#W#J#J#I#I#7#T#6#6#%#%#5##@#@#@I+I+E+E+H+d+e+e+=+;+V.V.Q.Q._#H.E.P.r.r.a.'%O>C)C)C)C)C)O>O>s)B% &t'Q%h&C%A%A%P%S~E}F}G}H}]']']']']']']']']']']']']']']']']']']']']']']']']']']']']']']']']']']']']']']']']']']']']']']']']']']']']']']']']']']']']']']']']']']']']']']']']']']']']']']']']']']']']']']']']']']']']']']']']']']']']']']']']']']']']']']']']']']']']']']']']']']']']']']']']']']']']']'I}J}%/K}B{A%h&h&Q%t'B%s)O>C)/!/!)&)&)&)&)&C)C)h&I#a.n.n.E.E.H.Q.Q.}+V.V.=+=+e+e+H+H+E+I+I+I+#@#@)#)#%#%#6#6#7#7#I#I#J#J#W#W#*$*$=$7$-$-$'$'$k$k${${$|$|$|$|$|$|$~$|$~$~$~$~$~$L}M}                                                                                                                      N}e+e+=+=+V.V.}+Q.Q.H.E.E.n.n.a.a.e.5.(.(.{.{.%.@.|.O}                            ",
"                          <+};@.@.{.{.(.(.5.5.a.a.v.n.P.E.H.H.Q.Q.V.V.=+=+e+e+d+P}.#                                                                                                                      Q}~$~$~$~$~$~$:%)$|$:%|$|$|$|${${$k${$'$'$-$-$=$=$*$*$W#W#J#&$I#I#7#T#6#6#%#%#5##@#@#@I+I+E+E+H+d+e+e+=+=+V.V.Q.Q.Q.H.E.P.n.n.O%/!(!)&)&)&)&)&(!(!C)O>s)B% &t'h&h&A%R}|'S}T}U}V}]']']']']']']']']']']']']']']']']']']']']']']']']']']']']']']']']']']']']']']']']']']']']']']']']']']']']']']']']']']']']']']']']']']']']']']']']']']']']']']']']']']']']']']']']']']']']']']']']']']']']']']']']']']']']']']']']']']']']']']']']']']']']']']']']']']']']']']'W}X}Y}9{Z}>)Q%B%B%O>O>(!(!'&'&*,*,*,*,*,)&)&/!Q%7#n.n.E.E.Q.Q.Q.}+V.V.>+=+e+d+F+F+E+I+ @I+#@#@)#)#%#%#6#6#T#7#I#I#&$W#W#W#*$*$=$=$-$-$'$'${${${${$|$|$|$|$|$|$~$:%~$~$~$~$~$`}N=                                                                                                                     |.|d+e+>+>+V.V.V.@@Q.Q.E.E.n.n.v.a.4.4.5.(.i.{.%.%.#.Q m                           ",
"                        t.p!-.Q Q @.@.{.{.(.(.5.5.a.a.r.r.P.E.H.H.Q.Q.V.V.;+=+e+e++|@|                                                                                                                  #|$||$|$|$|$|$|$_%|${$_%k${$k$k$-$'$-$-$7$7$*$*$W#W#P$W#I#I#I#I#6#6#6#F#)#%##@#@#@$#I+I+F+F+d+d+e+e+=+=+V.V.Q.Q.H.H.E.E.r.r.a.O%O>/!(!)&)&'&)&)&(!(!C)O>B%B%t'Q%h&h&0'%|&|*|=|./]']']']']']']']']']']']']']']']']']']']']']']']']']']']']']']']']']']']']']']']']']']']']']']']']']']']']']']']']']']']']']']']']']']']']']']']']']']']']']']']']']']']']']']']']']']']']']']']']']']']']']']']']']']']']']']']']']']']']']']']']']']']']']']']']']']']']']']']']'-|;|>|,|'|Q% &B%=,O>/!/!)&'&*,*,f~*,*,)&)&C)C)C%7#v.n.n.E.E.Q.Q.Q.}+V.V.=+=+e+e+d+H+E+E+I+I+#@#@#@5#%#%#6#6#6#6#I#I#I#I#W#W#W#W#*$*$=$7$-$-$'$-$k$k${$k${${$|$_%|$|$|$|$|$)|:=                                                                                                                  }@!|e+=+=+;+V.}+}+Q.Q.E.E.n.n.v.a.a.4.5.(.~.i.{.%.#.#.Q Q ~|g#                        ",
"                      {|]|Q Q #.#.@.%.{.{.(.(.4.4.a.a.n.n.E.E.D.Q.Q.Q.V.V.=+=+e+e+d+^|8!                                                                                                                +~/||$:%|$|$|$|$_%_%{${$k${$'$k$-$'$-$-$7$=$*$*$W#W#W#W#I#I#I#I#6#T#6#n!%#%##@#@#@$#I+I+E+F+d+d+e+e+=+=+V.V.Q.Q.D.H.E.E.n.n.,&(!(!'&'&*,*,f~*,*,'&'&(!(!O>O>B%B%Q%X^''(|_|:|s!]']']']']']']']']']']']']']']']']']']']']']']']']']']']']']']']']']']']']']']']']']']']']']']']']']']']']']']']']']']']']']']']']']']']']']']']']']']']']']']']']']']']']']']']']']']']']']']']']']']']']']']']']']']']']']']']']']']']']']']']']']']']']']']']']']']']']']']']']']']'J:<|[|}|G'B%B%O>C))&)&*,*,.&.&R~/~/~*,*,)&(!O>h&I#n.n.E.E.Q.Q.Q.@@V.V.=+>+e+e+d+F+E+E+I+I+#@#@#@5#%#%#6#6#T#T#I#I#I#I#W#W#W#W#*$*$=$=$-$-$'$-$'$'${$k${${$_%_%|$|$|$|$|$|$,_                                                                                                                m+g$d+d+>+>+;+V.V.V.Q.Q.H.H.P.n.v.v.a.a.5.5.(.~.{.{.@.@.Q Q R ||z+                      ",
"                      1|w R R -.-.Q |.@.@.{.{.(.(.5.5.a.a.r.r.P.E.E.E.Q.Q..+V.;+;+=+>+-#w+                                                                                                              2|{$k$k$'$k$'$'$-$'$-$-$7$-$7$7$*$*$W#*$P$W#J#J#I#I#7#7#6#6#F#%#)#)##@#@#@#@I+I+E+E+H+H+e+e+=+=+V.V..+}+Q.Q.E.E.n.n.r.v.a.~%0{C)/!)&'&*,*,f~*,*,)&)&C)C)s)B% &Q%3|4|5|6|7|8|]']']']']']']']']']']']']']']']']']']']']']']']']']']']']']']']']']']']']']']']']']']']']']']']']']']']']']']']']']']']']']']']']']']']']']']']']']']']']']']']']']']']']']']']']']']']']']']']']']']']']']']']']']']']']']']']']']']']']']']']']']']']']']']']']']']']']']']']']']']']']'9|0|a|b|c|B%s)O>/!/!'&7,/~/~R~/~f~'&)&/!C)0{s)1&6#a.r.r.P.E.E.H.Q.Q..+V.;+;+=+>+d+d+H+H+E+I+I+I+#@#@#@5#%#%#F#6#6#6#7#7#I#I#J#J#W#P$W#W#*$*$7$7$-$7$-$-$'$-$'$'$k$'$k$k$d|c@                                                                                                            J.e|e+=+=+V.V.}+Q.Q.Q.E.E.n.n.v.a.4.4.5.5.i.i.{.%.#.#.Q Q R R L w |+(                     ",
"                    f|w w R R Q Q |.#.@.%.{.i.(.(.5.4.a.a.n.n.E.E.H.D.Q.Q.V.V.;+;+>+e+d+s@f$                                                                                                          c&g|{$k${$'$k$'$'$-$-$-$-$=$=$7$=$*$*$W#W#W#W#J#J#I#I#7#7#6#6#%#%#%#%##@#@#@#@I+I+E+E+F+F+e+e+>+>+V.V.V.V.Q.Q.H.H.P.n.n.v.~%O>C))&)&*,*,/~/~R~/~/~*,'&)&(!O>O>B%h|q)i|j|k|+<]']']']']']']']']']']']']']']']']']']']']']']']']']']']']']']']']']']']']']']']']']']']']']']']']']']']']']']']']']']']']']']']']']']']']']']']']']']']']']']']']']']']']']']']']']']']']']']']']']']']']']']']']']']']']']']']']']']']']']']']']']']']']']']']']']']']']']']']']']']']']']']'l|m|n|o|p|O>C)(!)&*,*,/~/~R~.&/~*,*,)&(!O>O>B%1&6#n.n.P.E.H.H.Q.Q.V.V.;+;+>+>+d+d+F+F+E+E+I+ @#@#@#@5#%#%#F#6#T#6#7#7#I#I#J#J#W#W#W#W#*$*$=$7$-$=$-$-$'$-$'$'$k$'$k$k$q|L#                                                                                                          u#r|e+e+=+=+V.V.}+Q.Q.Q.E.E.n.n.v.v.a.4.5.5.~.~.{.{.@.@.Q Q R R R L w s|                    ",
"                  O %&x x w v R R Q Q #.#.%.{.{.i.(.(.e.e.a.a.n.n.E.E.H.H.Q.Q.V.V.;+;+>+=+Y](@                                                                                                        t|-$-$-$-$7$-$7$=$*$7$*$*$W#*$W#W#J#&$I#J#I#I#7#7#6#6#6#6#%#%#)#)##@#@$#$#I+I+F+F+d+d+e+e+=+=+V.V.}+Q.Q.Q.E.E.n.n.r.v.a.'%B%O>O>(!)&7,*,/~/~R~/~f~'&)&/!C)0{B%u|v|w|x|y|z|]']']']']']']']']']']']']']']']']']']']']']']']']']']']']']']']']']']']']']']']']']']']']']']']']']']']']']']']']']']']']']']']']']']']']']']']']']']']']']']']']']']']']']']']']']']']']']']']']']']']']']']']']']']']']']']']']']']']']']']']']']']']']']']']']']']']']']']']']']']']']']']']']'-]A|B|C|D|O>C)/!)&'&*,*,/~f~f~'&'&/!/!O>s)B%t'2%F#a.r.r.P.E.H.E.Q.Q.V..+V.;+=+=+e+e+H+H+E+E+I+I+$##@#@#@)#)#%#%#6#6#6#6#7#7#I#I#I#I#W#J#W#W#*$W#*$*$7$*$7$7$-$7$-$-$-$E|                                                                                                        X.F|e+=+=+V.V.}+Q.Q.Q.E.E.n.n.v.v.a.a.5.5.(.(.{.{.@.@.Q Q -.R R L w w r r m                   ",
"                x.G|r x x v L R R Q Q @.#.{.{.~.~.(.5.4.4.a.v.n.n.E.E.D.Q.Q.Q.V.V.;+=+>+>+d+H|*#                                                                                                    I|J|-$-$-$-$=$=$7$=$*$7$*$*$W#W#W#W#J#&$I#I#I#I#7#7#6#6#6#6#%#%#5#5##@#@$#$#I+I+E+E+d+d+e+e+=+=+V.V.}+K|Q.Q.E.E.P.n.r.v.'%B%s)O>C))&'&*,f~.&L|R~/~/~*,'&)&(!O>M|N|O|P|Q|V']']']']']']']']']']']']']']']']']']']']']']']']']']']']']']']']']']']']']']']']']']']']']']']']']']']']']']']']']']']']']']']']']']']']']']']']']']']']']']']']']']']']']']']']']']']']']']']']']']']']']']']']']']']']']']']']']']']']']']']']']']']']']']']']']']']']']']']']']']']']']']']']']']']'R|S|T|C|U|(!(!'&'&*,*,/~f~f~7,'&)&(!O>O>B%B%Q%2%%#n.n.P.E.H.H.Q.Q.V.V.V.;+>+>+e+d+F+H+E+E+I+I+$#$##@#@)#)#%#%#6#6#T#6#7#7#I#I#I#I#W#J#W#W#*$W#*$*$7$*$=$7$-$=$-$=$-$V|W|                                                                                                    O+,@e+e+=+=+V.V.}+Q.Q.Q.H.H.P.P.r.v.a.a.5.5.(.(.{.{.@.@.#.Q Q Q R R v w r r n .                 ",
"                X|f e j G x w v v R R Q Q #.#.%.%.{.i.(.(.5.e.a.a.r.r.P.E.E.E.Q.Q.}+.+V.V.=+=+Y|K@                                                                                                  Z|*$W#*$W#*$W#W#W#W#J#J#J#J#I#I#I#I#7#7#6#6#6#6#%#%#)#)##@#@#@#@r#$#I+I+E+E+H+d+e+e+=+=+;+;+.+V.Q.Q._#H.E.E.n.n.v.a.4.k%Q% &B%=,O>/!/!'&7,f~*,/~*,7,)&)&C)O>M|T)`| 1.<i_]']']']']']']']']']']']']']']']']']']']']']']']']']']']']']']']']']']']']']']']']']']']']']']']']']']']']']']']']']']']']']']']']']']']']']']']']']']']']']']']']']']']']']']']']']']']']']']']']']']']']']']']']']']']']']']']']']']']']']']']']']']']']']']']']']']']']']']']']']']']']']']']']']']']']'.1+1T|@1#1O>/!/!)&)&'&'&'&)&(!C)O>s)B% &Q%h&h&3%%#a.v.r.n.n.E.E.Q.Q.Q.Q.V.V.;+;+>+=+d+d+H+H+E+E+I+I+$#$##@#@#@5#%#)#%#%#6#6#6#6#7#7#I#I#I#I#J#I#W#J#W#P$W#W#W#W#*$W#$1:=                                                                                                %1&1=+;+;+V.V.Q.Q.Q.H.E.E.n.n.v.v.a.4.5.5.(.~.{.{.#.#.|.Q -.R R R w w r r j e f *1_               ",
"              a,=1e e r r x w L L R R Q Q #.@.{.{.~.~.(.5.4.4.a.a.n.n.E.E.H.H.Q.Q.V.V.V.V.=+>+e+N-%%                                                                                              -1y/*$W#*$W#W#W#W#W#W#J#&$I#J#I#I#I#I#T#T#6#T#6#6#%#%#%#%##@5##@#@$#$#I+I+E+E+H+d+d+e+>+>+;+;+V.V.Q.Q.Q.H.E.E.n.n.v.v.w$Q%t'B%B%O>C)(!)&'&*,f~*,f~*,*,)&)&/!V)N|;1>1,1'1]']']']']']']']']']']']']']']']']']']']']']']']']']']']']']']']']']']']']']']']']']']']']']']']']']']']']']']']']']']']']']']']']']']']']']']']']']']']']']']']']']']']']']']']']']']']']']']']']']']']']']']']']']']']']']']']']']']']']']']']']']']']']']']']']']']']']']']']']']']']']']']']']']']']']']']')1!1~1@1{1(!(!)&)&'&)&'&)&(!C)C)O>=,B%t'Q%h&%,3%%#v.r.n.n.E.E.Q.Q.Q.Q.V.V.;+=+>+>+d+d+F+H+E+E+I+I+$#$##@#@#@5#%#%#%#%#6#6#T#6#7#T#I#I#I#I#I#I#&$J#W#W#W#W#W#W#W#W#*$]1                                                                                            l=^1/1>+>+;+;+V.V.Q.Q.Q.Q.E.E.n.n.r.v.a.a.5.5.(.(.{.{.@.@.#.Q Q Q R R w w x r j j f f 1               ",
"              (1< q q e e r r w w L R R R Q Q #.#.{.{.~.i.(.5.4.e.a.a.n.r.P.E.H.E.Q.Q.}+}+V.V.=+=+>+_1Y+                                                                                        :1<1J#J#I#J#I#I#I#I#I#I#7#I#T#7#6#6#6#6#%#F#%#%#)#)##@#@#@#@$#$#I+I+E+E+H+H+d+d+e+e+=+=+V.V..+.+Q.Q.H.H.E.E.n.n.a.a.4.w$A%h&Q% &B%s)O>C)C))&)&'&)&'&)&)&/!C)V)v|[1}1|1}(]']']']']']']']']']']']']']']']']']']']']']']']']']']']']']']']']']']']']']']']']']']']']']']']']']']']']']']']']']']']']']']']']']']']']']']']']']']']']']']']']']']']']']']']']']']']']']']']']']']']']']']']']']']']']']']']']']']']']']']']']']']']']']']']']']']']']']']']']']']']']']']']']']']']']']']']']'T:11~121#1O>C)C)/!/!/!C)C)O>O>B%B%Q%Q%h&C%A%A%1%#@a.v.v.n.n.E.E.H.Q.Q.Q.V.V.V.V.=+=+e+e+d+d+F+H+E+E+I+I+$#$##@#@#@#@%#)#%#%#6#%#6#6#T#6#T#T#I#7#I#I#I#I#I#I#J#I#J#,$S-                                                                                        *#-==+=+;+V.V.V.Q.Q.Q.Q.E.E.n.n.v.v.a.a.5.5.(.(.{.{.%.@.#.|.Q Q R R v w x r j j e f 0 0 315             ",
"            x.< < f f j j r r w w R R o.Q Q Q @.@.{.{.~.~.(.5.4.4.a.v.n.n.P.E.H.H.Q.Q.V.V.V.V.=+=+>+e+S.}@                                                                                      41&$I#&$I#I#I#I#I#I#I#I#7#I#T#7#6#T#6#6#%#%#%#%#)#%##@#@#@#@$#$#I+I+E+E+F+F+d+d+e+>+=+=+V.V.V.V.Q.Q.H.H.E.P.n.n.a.a.w$2'h&Q%Q%B%B%O>O>/!/!)&)&'&)&'&)&)&(!V)F'51617181]']']']']']']']']']']']']']']']']']']']']']']']']']']']']']']']']']']']']']']']']']']']']']']']']']']']']']']']']']']']']']']']']']']']']']']']']']']']']']']']']']']']']']']']']']']']']']']']']']']']']']']']']']']']']']']']']']']']']']']']']']']']']']']']']']']']']']']']']']']']']']']']']']']']']']']']']']']'9101T|@1#1C)C)(!C)(!C)C)O>O>B%B%t't'h&h&A%A%P%1%#@v.v.n.n.E.E.H.Q.Q.Q.V.V.V.V.>+>+e+e+d+d+F+F+E+E+I+I+$#$##@#@#@#@%#)#%#%#6#%#6#6#T#6#T#T#I#7#I#I#I#I#I#I#I#I#I#I#a1^-                                                                                    %1b1e+>+>+;+V.V.V.Q.Q.Q.Q.E.E.n.n.v.v.a.a.5.5.(.(.{.{.%.%.#.#.Q Q R R L v x x r C e e q 0 < w#            ",
"            c1} } < < q q e j r r w w L R R R Q Q #.#.%.%.{.i.(.(.5.e.a.a.v.r.n.n.E.E.Q._#Q.Q.V..+V.V.=+d1e1f1                                                                                g1h1T#6#T#6#6#6#6#6#6#F#6#%#%#%#%#)#%#)#)##@#@#@#@r#$#I+I+I+I+F+E+H+H+d+d+e+>+=+=+V.V..+.+Q.Q._#H.E.E.n.n.v.v.a.a.5.H$P%A%A%C%h&Q%Q%B%B%=,0{C)C)C)C)C)C)C)`|i1j1617;k1  l1]']']']']']']']']']']']']']']']']']']']']']']']']']']']']']']']']']']']']']']']']']']']']']']']']']']']']']']']']']']']']']']']']']']']']']']']']']']']']']']']']']']']']']']']']']']']']']']']']']']']']']']']']']']']']']']']']']']']']']']']']']']']']']']']']']']']']']']']']']']']']']']']']']']']']']']']']']']'m1n1o1p1q1B%s)s)=,B%B%B%B%Q%Q%h&h&A%A%P%P%2%2%n%r#e.a.a.r.r.n.n.E.E.Q.Q.Q.Q.V.V.V.V.=+=+e+e+d+d+H+H+F+E+I+I+I+I+#@r##@#@#@#@)#)#%#)#%#%#%#%#6#F#6#6#6#6#6#6#6#6#T#r1:1                                                                              $@d#s1;+;+V.V.Q.Q.Q.Q.E.E.E.P.r.r.a.a.4.4.5.5.~.~.{.{.@.@.|.Q -.-.R R w w x x j j e f 0 0 < [ } t1u1          ",
"          B#v12 K < < f f j j r r w w R R R Q Q Q #.@.{.{.~.~.(.(.4.4.a.a.v.n.n.n.E.E.Q.Q.Q.Q.V.V.V.V.=+=+e+H|D@                                                                            w1_/6#T#6#T#6#T#6#6#6#6#F#6#%#%#%#%#)#%#5#)##@#@#@#@$#$#I+I+E+E+F+E+d+d+d+d+>+>+=+=+V.V.V.V.Q.Q.Q.H.E.E.n.n.v.v.a.a.H$P%P%A%A%h&h&t't'B%B%O>O>O>O>C)C)C)O>M|N|j161x1k1k1k1  l1]']']']']']']']']']']']']']']']']']']']']']']']']']']']']']']']']']']']']']']']']']']']']']']']']']']']']']']']']']']']']']']']']']']']']']']']']']']']']']']']']']']']']']']']']']']']']']']']']']']']']']']']']']']']']']']']']']']']']']']']']']']']']']']']']']']']']']']']']']']']']']']']']']']']']']']']']']'y1z1A1B1C|C1=,B%=,B%B%B%B%Q%Q%h&h&%,A%1&!&r>2%m%4%$#a.a.n.r.n.P.E.E.Q.Q.Q.Q.V.V.V.V.=+=+e+e+d+d+F+H+F+E+I+I+I+I+$#$##@#@#@#@5#5#%#)#%#%#%#%#6#%#6#6#6#6#6#6#T#6#T#6#D1                                                                          w'E1F1>+>+;+;+V.V.Q.Q.Q.Q.H.H.E.E.n.n.v.a.4.4.5.5.(.(.{.{.@.@.#.#.Q Q R R v v x x G j e e q 0 < < } } Z           ",
"          = , } } } < < 0 f f j j r r w w R R w.-.Q Q #.#.%.{.i.i.(.(.5.5.a.a.v.v.n.n.E.E.H.H.Q.Q.}+}+V.V.;+;+G1H1|#                                                                      $@I1%#%#%#%#%#%#%#%#%#)#%#)#)##@#@#@#@#@#@$##@I+I+I+I+E+E+F+F+H+H+d+d+e+e+=+=+;+;+V.V.Q.Q.Q.Q.E.E.E.E.n.n.v.a.a.4.5.v$m%2%r>1&1&A%C%h&h&Q%t'B%B%s)B%O>s)s)J1N|`|K17;k1k1k1k1k1  l1]']']']']']']']']']']']']']']']']']']']']']']']']']']']']']']']']']']']']']']']']']']']']']']']']']']']']']']']']']']']']']']']']']']']']']']']']']']']']']']']']']']']']']']']']']']']']']']']']']']']']']']']']']']']']']']']']']']']']']']']']']']']']']']']']']']']']']']']']']']']']']']']']']']']']']']']'y1k1k1k1L1B|C|p|t'B%Q%t'Q%Q%h&h&C%%,A%1&P%r>P>m%+&3%K-I+5.a.a.v.v.n.n.E.E.H.E.Q.Q.}+Q.V.V.;+;+=+=+e+e+d+d+H+H+F+F+I+E+I+I+I+I+#@#@#@#@#@#@5##@)#5#%#)#%#)#%#)#%#%#%#%#%#M1                                                                    N1>$J]=+=+V.V..+V.Q.Q.Q.Q.E.E.n.n.r.n.a.a.4.4.5.5.(.~.{.{.%.@.#.|.Q Q R R L v w x r G e e q q < < } } { { t+          ",
"          _ { } } < < 0 0 f e j j r x v v R R Q Q Q Q @.@.{.{.~.~.(.(.4.4.a.a.4@v.n.n.E.E.H.D.Q.Q.@@V.V.V.;+;+>+>+O1!^J.                                                                P1I)%#%#%#%#%#%#%#%#%#%#)#%#5#%##@#@#@#@#@#@$#$#I+ @I+I+E+E+F+F+d+d+d+d+>+>+=+>+V.V.V.V.Q.Q.Q.Q.H.H.E.P.n.n.v.v.a.4.v$m%m%r>P%1&A%%,h&h&Q%t't'B%B%B%B%=,B%Q1v|V)R1n^k1k1k1k1k1k1k1  l1]']']']']']']']']']']']']']']']']']']']']']']']']']']']']']']']']']']']']']']']']']']']']']']']']']']']']']']']']']']']']']']']']']']']']']']']']']']']']']']']']']']']']']']']']']']']']']']']']']']']']']']']']']']']']']']']']']']']']']']']']']']']']']']']']']']']']']']']']']']']']']']']']']']']']']'y1k1k1k1k1k1')S1o|c| &t't'Q%Q%h&h&h&2'A%A%P%P%2%2%+&+&D%K-E+a.a.v.v.n.n.E.E.H.H.Q.Q.K|Q.V.V.;+;+>+>+e+e+d+d+F+d+F+F+E+E+I+I+ @I+$#$##@#@#@#@#@#@5#5#%#)#%#%#%#%#%#%#%#%#%#%#T1                                                              l=>$Y]>+>+=+=+V.V.V.V.Q.Q.Q.Q.H.H.P.P.n.n.a.a.4.4.5.5.(.(.{.{.%.@.#.#.Q Q R R L L w x r r e e f f < < 2 } ] { U1          ",
"          [#V1, , } } [ K < 0 f f j j r r w w R R R R Q Q #.#.%.%.{.{.(.(.5.5.4.4.a.a.r.r.n.P.E.E.H.Q.Q.Q.}+}+V.V.;+;+W1:&X=*#                                                        X1Y1#@#@#@#@#@#@#@#@#@#@#@r##@I+$#I+I+I+I+E+I+E+E+H+F+H+H+d+d+e+e+=+=+=+=+V.V..+V.Q.Q.Q.Q.E.E.E.E.n.n.v.v.a.a.e.5.(.,%D%3%+&m%P>P%P%1&A%%,%,h&h&Q%Q%Q%Q%t'Z1`1 2.2n^k1k1k1k1k1k1k1k1k1  l1]']']']']']']']']']']']']']']']']']']']']']']']']']']']']']']']']']']']']']']']']']']']']']']']']']']']']']']']']']']']']']']']']']']']']']']']']']']']']']']']']']']']']']']']']']']']']']']']']']']']']']']']']']']']']']']']']']']']']']']']']']']']']']']']']']']']']']']']']']']']']']']']']']']']'y1k1k1k1k1k1k1k1F)a|b|G'h&h&C%C%A%A%A%1&P%P%2%P>+&+&t&D%q,z%X$H+5.e.e.a.a.v.r.n.n.E.E.H.E.Q.Q.Q.Q.V.V.V.V.=+=+>+=+e+e+d+d+H+H+F+H+E+E+I+E+I+I+I+I+r#I+#@r##@#@#@#@#@#@#@#@#@#@#@+2+~                                                      @2#2^|;+;+V.V..+.+Q.Q.Q.Q.E.E.E.E.n.n.v.v.a.a.5.5.(.(.i.i.{.{.#.#.|.Q -.-.R R w w x x G j e e q 0 < < } } ] { Q-$2U=          ",
"            y.%2&2*2} < < 0 0 f e j j r x w v R R R Q Q Q #.@.{.%.{.{.(.(.5.5.4.4.a.v.n.n.P.P.E.E.D.Q.Q.Q.@@V.V.V.;+;+>+=+e+i$N$'.                                                n#=2-2#@#@#@#@#@#@#@#@#@#@#@#@$#$#I+$#I+I+I+I+E+E+E+E+F+F+d+F+d+d+e+e+>+>+=+=+V.V.V.V.Q.Q.Q.Q.E.H.E.E.n.n.v.v.a.a.4.4.,%1%t&+&+&2%2%P%P%A%A%%,C%h&h&Q%Q%t'Q%;2){i|>2,'k1k1k1k1k1k1k1k1k1k1k1  l1]']']']']']']']']']']']']']']']']']']']']']']']']']']']']']']']']']']']']']']']']']']']']']']']']']']']']']']']']']']']']']']']']']']']']']']']']']']']']']']']']']']']']']']']']']']']']']']']']']']']']']']']']']']']']']']']']']']']']']']']']']']']']']']']']']']']']']']']']']']']']']']']']']'y1k1k1k1k1k1k1k1k1k1'',2}|'2h&C%h&A%A%A%1&P%P%2%2%m%+&3%t&1%1%z%)%H+4.4.a.a.v.r.n.n.E.E.H.H.Q.Q.Q.Q.V.V.V.V.=+=+>+>+e+e+d+d+d+d+F+F+E+E+I+E+I+I+I+I+$#I+$# @#@$##@#@#@#@#@#@#@#@#@#@@#[@                                              7+K@o')2>+>+;+=+V.V.V.V.Q.Q.Q.Q.H.H.E.E.n.n.v.v.a.a.e.4.(.(.~.~.{.{.@.@.#.|.Q Q R R L v w x r r j e f f < < } !2~2{2x.              ",
"                  b#t+@$]2< < 0 0 f e j j r x w w R R R R Q Q #.#.%.%.{.{.(.(.5.5.4.4.a.a.v.r.n.n.E.E.H.E.Q.Q.Q.Q..+.+V.V.;+;+=+^2/2(2O+&+                                    F~L[x*I+I+I+I+I+I+I+I+I+I+I+I+I+I+E+E+E+E+F+F+H+F+d+H+d+d+e+e+e+e+=+=+;+;+V.V.V.V.Q.Q.Q.Q.E.H.E.E.n.n.r.r.a.a.4.4.5.5.(.G$z%1%1%t&t&+&m%2%2%P%P%A%A%A%A%h&C%h&_2!]:2<2}'k1k1k1k1k1k1k1k1k1k1k1k1k1  l1]']']']']']']']']']']']']']']']']']']']']']']']']']']']']']']']']']']']']']']']']']']']']']']']']']']']']']']']']']']']']']']']']']']']']']']']']']']']']']']']']']']']']']']']']']']']']']']']']']']']']']']']']']']']']']']']']']']']']']']']']']']']']']']']']']']']']']']']']']']']']']']']'y1k1k1k1k1k1k1k1k1k1k1k1[2}2,||2A%A%P%P%P%P%2%2%m%m%t&t&1%1%z%z%4%n%Y$d+(.5.5.4.a.a.a.n.n.P.n.E.E.H.H.Q.Q.Q.Q.V.V.V.V.;+;+>+=+e+e+e+e+d+d+H+d+F+H+F+F+E+E+E+E+I+E+I+I+I+I+I+I+I+I+I+I+I+F+12%1c@                                  (@D@b%m=>+;+;+V.V..+V.Q.Q.Q.Q.H.H.E.E.n.P.r.r.a.a.a.4.5.5.(.(.i.i.{.{.@.@.|.Q Q Q R R L v w x r r e e f f < < 2232f><#42                  ",
"                        h -+*152q e e C C x x v v R R o.Q Q Q @.#.%.{.{.{.(.(.5.5.4.4.a.a.4@n.n.n.E.E.H.H.Q.Q.Q.Q.V.V.V.V.;+;+>+=+>+>+62g$7282J.^[$@                  %18@9202a2I+I+I+ @I+I+I+ @I+I+I+I+I+I+E+I+E+E+E+E+F+F+F+F+d+d+d+d+e+e+>+>+=+>+;+;+V.V.V.V.Q.Q.Q.Q.H.H.E.E.n.n.n.n.a.a.4.4.5.5.-&z%z%1%1%3%3%m%m%r>r>P%P%A%A%A%A%h&h&b2F)c2d2e2k1k1k1k1k1k1k1k1k1k1k1k1k1k1k1  l1]']']']']']']']']']']']']']']']']']']']']']']']']']']']']']']']']']']']']']']']']']']']']']']']']']']']']']']']']']']']']']']']']']']']']']']']']']']']']']']']']']']']']']']']']']']']']']']']']']']']']']']']']']']']']']']']']']']']']']']']']']']']']']']']']']']']']']']']']']']']']']'y1k1k1k1k1k1k1k1k1k1k1k1k1k1f2g2h2}|A%!&!&P%P%2%2%m%m%3%3%1%1%z%z%u&4%H&Y$d+}$5.4.a.v.a.n.n.P.n.E.E.H.H.Q.Q.Q.Q.V.V.V.V.;+;+>+=+>+>+e+e+d+d+F,d+F+F+F+F+E+E+E+E+E+E+I+E+I+I+I+I+I+I+I+I+I+I+I+I+i2j2E@n#%*[@            k2(@$@R.d#$[l2>+>+>+>+;+;+V.V.V.V.Q.K|Q.Q.H.D.E.E.P.P.n.n.v.v.a.a.4.}$(.(.~.~.{.{.@.@.#.Q Q Q R R L L w x r r j j f f k#m28.`                         ",
"                              z :,n20 f f j j r r w w L L R R Q Q Q |.@.#.{.{.i.i.(.(.5.5.4.4.a.a.v.r.n.n.E.E.E.E._#_#Q.Q.Q.Q.V..+V.V.;+V.=+=+o2q=g$/2e%p2q2r2s2t2^*u2|}p@H+d+H+d+H+H+H+H+H+H+H+d+H+d+H+d+d+d+d+e+d+e+d+e+e+>+e+=+=+;+=+V.;+V.V..+.+Q.Q.Q.Q.Q.Q.E.E.E.E.n.n.r.r.a.a.4.4.5.5.(.(.i.u$i&n%n%z%z%1%1%t&t&+&m%P>2%r>r>P%P%1&v2['w2L]!>k1k1k1k1k1k1k1k1k1k1k1k1k1k1k1k1k1  l1]']']']']']']']']']']']']']']']']']']']']']']']']']']']']']']']']']']']']']']']']']']']']']']']']']']']']']']']']']']']']']']']']']']']']']']']']']']']']']']']']']']']']']']']']']']']']']']']']']']']']']']']']']']']']']']']']']']']']']']']']']']']']']']']']']']']']']']']']']']']'y1k1k1k1k1k1k1k1k1k1k1k1k1k1k1k1G)x2K}c,P>2%m%m%+&+&t&t&1%1%z%z%4%n%H&i&K-W$'%y2i.(.(.5.5.4.a.a.a.r.r.n.n.E.E.E.E.Q.Q.Q.Q.Q.Q.V..+V.V.;+V.=+;+=+=+>+=+e+e+e+e+d+e+d+d+d+d+d+d+H+d+H+d+H+d+H+d+H+d+d+d+d+z2a2g$J@^$/2[+m@ #m*d1>+;+=+;+;+V.V.V.V.Q.}+Q.Q.Q.Q.E.H.E.E.n.n.r.r.a.a.a.a.5.5.(.(.~.~.{.{.%.%.#.#.Q Q R R R R w w x x G j e e q A2B2C2N.                              ",
"                                  D2R+E2F2j j r r w w L R R R Q Q |.#.@.@.{.{.~.i.(.(.5.5.4.4.a.a.v.r.n.n.E.E.H.E.D.Q.Q.Q.Q.Q.V.V.V.V.;+V.=+=+>+=+>+>+e+e+e+e+d+e+d+d+d+d+d+d+F+d+F+d+F+d+F+d+F+d+H+d+H+d+d+d+d+e+d+e+d+>+e+>+>+=+>+;+=+V.V.V.V..+V.Q.Q.Q.Q.D.Q.E.E.E.E.n.n.r.n.a.a.4.4.5.5.(.(.H%i&H&4%4%z%z%1%1%3%3%m%m%2%2%r>r>P%P%G2*>H2p/)-k1k1k1k1k1k1k1k1k1k1k1k1k1k1k1k1k1k1k1  l1]']']']']']']']']']']']']']']']']']']']']']']']']']']']']']']']']']']']']']']']']']']']']']']']']']']']']']']']']']']']']']']']']']']']']']']']']']']']']']']']']']']']']']']']']']']']']']']']']']']']']']']']']']']']']']']']']']']']']']']']']']']']']']']']']']']']']']']']']']'y1k1k1k1k1k1k1k1k1k1k1k1k1k1k1k1k1k1I2J2z}K2L2m%m%+&+&3%3%1%1%z%z%z%4%n%H&i&K-W$'%y2(.(.5.5.4.a.a.a.r.r.n.n.E.E.H.E.Q.Q.Q.Q.Q.Q.V..+V.V.;+V.=+;+>+=+>+>+e+>+e+e+d+e+d+d+d+d+d+d+H+d+d+d+F+d+H+d+H+d+d+d+d+d+d+d+d+e+e+e+e+>+>+=+>+;+=+;+;+V.V.V.V.Q.Q.Q.Q.Q.Q.H.H.E.E.n.n.n.n.v.v.a.a.e.4.(.(.(.(.{.{.%.%.#.#.Q Q -.w.R R v v x x r r e M2N2{|                                    ",
"                                        y#O2O.j j r r w w L R R R Q Q Q Q #.#.{.%.{.{.(.(.5.5.e.5.a.a.v.a.r.r.n.n.E.E.E.E.H.H.Q.Q.Q.Q.}+Q.V.V.V.V.V.V.;+;+=+=+=+=+>+=+>+=+e+>+e+=+e+>+e+>+e+>+e+=+e+>+e+=+>+=+>+=+=+;+=+;+;+V.V.V.V..+V.Q.}+Q.Q.Q.Q.H.H.E.E.E.E.n.n.r.r.a.a.a.a.5.5.(.(.~.~.{.Z$W$K-i&H&n%4%z%z%c>1%1%t&t&+&m%P>m%2%P2i!Q2n}!,k1k1k1k1k1k1k1k1k1k1k1k1k1k1k1k1k1k1k1k1k1  l1]']']']']']']']']']']']']']']']']']']']']']']']']']']']']']']']']']']']']']']']']']']']']']']']']']']']']']']']']']']']']']']']']']']']']']']']']']']']']']']']']']']']']']']']']']']']']']']']']']']']']']']']']']']']']']']']']']']']']']']']']']']']']']']']']']']']']']']']'y1k1k1k1k1k1k1k1k1k1k1k1k1k1k1k1k1k1k1k1O^u}n}R2+}3%D%D%1%1%z%z%z%z%n%n%i&i&W$W$X$X$x$V.{.(.(.5.5.e.5.a.a.a.a.r.r.n.n.E.E.E.E.H.H.Q.Q.Q.Q.}+Q.V..+V.V.V.V.;+V.=+;+=+;+=+=+>+=+>+=+e+=+e+=+e+=+e+>+e+=+>+=+>+=+=+=+=+;+=+;+;+V.V.V.V..+V.}+.+Q.Q.Q.Q._#Q.E.H.E.E.n.P.r.n.v.v.a.a.4.4.5.5.(.(.i.i.{.{.@.@.#.#.Q Q -.R R R w w x x G G f S2f+`                                         ",
"                                            b#U.T2r x w w L R R R Q Q Q |.@.@.{.{.{.{.(.(.5.5.4.4.a.a.v.a.n.n.n.n.E.E.H.E.D.H.Q.Q.Q.Q.V.Q.V.V.V.V.V.V.;+;+=+=+>+=+>+=+>+>+>+>+e+>+e+>+e+>+e+>+e+>+>+>+>+=+>+=+>+=+=+;+=+V.;+V.V.V.V.V.V.Q.Q.Q.Q.Q.Q.H.H.E.E.P.E.n.n.r.n.a.a.a.a.5.5.(.(.~.~.-,W$W$i&i&n%n%z%z%U;1%1%D%3%3%+&m%C,m%U2V2W2X2!,k1k1k1k1k1k1k1k1k1k1k1k1k1k1k1k1k1k1k1k1k1k1k1  l1]']']']']']']']']']']']']']']']']']']']']']']']']']']']']']']']']']']']']']']']']']']']']']']']']']']']']']']']']']']']']']']']']']']']']']']']']']']']']']']']']']']']']']']']']']']']']']']']']']']']']']']']']']']']']']']']']']']']']']']']']']']']']']']']']']']']']']'y1k1k1k1k1k1k1k1k1k1k1k1k1k1k1k1k1k1k1k1k1k1Y2F}p/.}Z2t&t&1%1%z%z%z%z%n%n%i&i&W$W$l%X$)%x$.+(.(.(.5.4.5.a.a.a.a.n.n.n.n.P.E.H.E.H.H.Q.Q.Q.Q.K|Q.V.V.V.V.V.V.;+V.=+;+>+;+>+=+>+=+>+>+>+>+>+>+e+>+>+>+>+>+>+>+>+=+>+=+>+;+=+;+;+V.V.V.V.V.V.}+V.Q.Q.Q.Q.H.Q.H.H.E.E.P.P.n.n.v.v.a.a.4.4.5.5.(.(.~.~.{.{.@.@.#.#.Q Q Q o.R R v v x x `#`2~@*                                             ",
"                                                w-R+ 3('G x w w w R R R R Q Q #.#.@.@.{.{.{.i.(.(.5.5.e.5.a.a.a.a.v.v.n.r.n.n.E.E.E.E.H.E.Q.Q.Q.Q.Q.Q.}+Q..+}+V.}+V.V.V.V.V.V.V.V.V.V.V.V.V.V.V.V.V.V.V.V.V..+V.}+.+}+.+Q.Q.Q.Q.Q.Q._#Q.E.E.E.E.P.E.n.n.r.r.v.v.a.a.4.4.5.5.(.(.i.~.{.{.%.c$S&X$X$W$W$i&i&n%n%z%z%z%z%1%1%D%D%3%.3+3@3#3O{k1k1k1k1k1k1k1k1k1k1k1k1k1k1k1k1k1k1k1k1k1k1k1k1k1  l1]']']']']']']']']']']']']']']']']']']']']']']']']']']']']']']']']']']']']']']']']']']']']']']']']']']']']']']']']']']']']']']']']']']']']']']']']']']']']']']']']']']']']']']']']']']']']']']']']']']']']']']']']']']']']']']']']']']']']']']']']']']']']']']']']']']']'y1k1k1k1k1k1k1k1k1k1k1k1k1k1k1k1k1k1k1k1k1k1k1k1 >$3t,{}%3c>z%z%4%4%n%n%];];W$W$X$X$)%S&Y$Y$_-&3%.{.{.(.~.(.(.5.5.4.4.a.a.v.v.n.r.n.n.E.P.E.E.H.E.Q._#Q.Q.Q.Q.Q.Q.}+Q.V.}+V..+V..+V.V.V.V.V.V.V.V.V.V.V.V.V.V.V..+V..+V.}+}+Q.}+Q.Q.Q.Q.Q.Q.H.H.E.E.E.E.n.P.n.n.r.r.a.v.a.a.e.4.5.5.(.(.i.i.{.{.%.%.#.#.Q Q -.Q R R R L w w r r *3c%x.                                                  ",
"                                                    =3H@~'D$w v v R R o.-.Q Q #.#.@.@.{.{.{.i.(.(.5.5.4.e.a.a.a.a.v.v.n.n.n.n.E.E.E.E.H.H.Q.Q.Q.Q.Q.Q.Q.Q.V.}+V.}+V.V.V.V.V.V.V.V.V.V.V.V.V.V.V.V.V.V.V.V.V.V.V.}+V.Q.@@Q.Q.Q.Q.Q.Q.H.Q.E.H.E.E.P.P.n.n.r.n.v.v.a.a.4.4.5.5.(.(.~.~.{.{.d$S&)%X$!%W$W$i&i&n%n%z%z%z%z%1%1%D%D%m~'{%/-3;3k1k1k1k1k1k1k1k1k1k1k1k1k1k1k1k1k1k1k1k1k1k1k1k1k1k1k1  l1]']']']']']']']']']']']']']']']']']']']']']']']']']']']']']']']']']']']']']']']']']']']']']']']']']']']']']']']']']']']']']']']']']']']']']']']']']']']']']']']']']']']']']']']']']']']']']']']']']']']']']']']']']']']']']']']']']']']']']']']']']']']']']']']']']'y1k1k1k1k1k1k1k1k1k1k1k1k1k1k1k1k1k1k1k1k1k1k1k1k1k1;>>3*}D]B]z%z%4%4%n%n%i&i&W$W$l%^;)%)%Y$Y$,&v$Q.{.{.(.~.(.(.5.5.4.4.a.a.v.v.n.n.n.n.E.P.E.E.H.E.D.H.Q.Q.Q.Q.Q.Q.Q.Q.V.Q.V.V.V.V.V.V.V.V.V.V.V.V.V.V.V.V.V.V.V.V.V.V.V.Q.@@Q.Q.Q.Q.Q.Q.Q.Q.H.D.E.H.E.E.n.P.n.n.r.n.a.v.a.a.4.4.5.5.(.(.~.~.{.{.%.%.@.@.Q Q Q Q R R R L w w %&,38+                                                      ",
"                                                          h@`2B$x w w R R R R Q Q Q |.#.#.%.%.{.{.i.i.(.(.5.5.4.5.a.a.a.a.v.v.n.r.n.n.P.n.E.E.E.E.H.E.Q.E.Q.Q.Q.Q.Q.Q.Q.Q.Q.Q.Q.Q.Q.Q.Q.Q.Q.Q.Q.Q.Q.Q.Q.Q.Q.Q.Q.Q.Q.H.Q.E.H.E.E.E.E.P.E.n.n.n.n.v.v.a.a.a.a.4.4.5.5.(.(.~.~.{.{.%.{.%.5%,&Y$Y$)%)%X$l%W$W$i&i&n%n%4%z%z%z%1%'3.,T])3!3k1k1k1k1k1k1k1k1k1k1k1k1k1k1k1k1k1k1k1k1k1k1k1k1k1k1k1k1k1  l1]']']']']']']']']']']']']']']']']']']']']']']']']']']']']']']']']']']']']']']']']']']']']']']']']']']']']']']']']']']']']']']']']']']']']']']']']']']']']']']']']']']']']']']']']']']']']']']']']']']']']']']']']']']']']']']']']']']']']']']']']']']']']']']']'y1k1k1k1k1k1k1k1k1k1k1k1k1k1k1k1k1k1k1k1k1k1k1k1k1k1k1k1~3{3]3^3/34%H&H&i&i&W$W$l%l%)%)%Y$Y$,&,&~%'%-&H.@.{.{.{.{.(.~.(.(.5.5.4.4.a.a.a.a.r.v.n.n.n.n.E.P.E.E.E.E.H.E.Q.H.Q._#Q.Q.Q.Q.Q.Q.Q.Q.Q.Q.Q.Q.Q.Q.Q.Q.Q.Q.Q.Q.Q.Q.Q.H.Q.H.Q.E.H.E.E.E.E.P.E.n.n.n.n.v.v.a.a.a.a.e.4.5.5.(.(.~.~.{.{.{.{.@.@.#.#.Q Q -.w.R R v v w w &&(3($                                                          ",
"                                                              .$_3:3v R R R R Q Q Q |.@.@.%.%.{.{.~.~.(.(.5.5.4.e.4.a.a.a.v.v.n.n.n.n.P.n.E.E.H.E.H.H.D.H.Q.Q.Q.Q.Q.Q.Q.Q.Q.Q.Q.Q.Q.Q.Q.Q.Q.Q.Q.Q.Q.Q.Q.Q.Q.Q.Q.D.Q.H.Q.H.H.E.H.E.E.P.P.n.n.n.n.v.v.a.a.a.a.4.4.5.5.(.(.~.~.{.{.{.<35%,&,&Y$S&)%)%l%l%K-K-i&i&n%n%u&z%z%z%3>[3}3|3}&k1k1k1k1k1k1k1k1k1k1k1k1k1k1k1k1k1k1k1k1k1k1k1k1k1k1k1k1k1k1k1  l1]']']']']']']']']']']']']']']']']']']']']']']']']']']']']']']']']']']']']']']']']']']']']']']']']']']']']']']']']']']']']']']']']']']']']']']']']']']']']']']']']']']']']']']']']']']']']']']']']']']']']']']']']']']']']']']']']']']']']']']']']']']']']']'y1k1k1k1k1k1k1k1k1k1k1k1k1k1k1k1k1k1k1k1k1k1k1k1k1k1k1k1k1k1W>1323w[33H&H&i&i&W$W$l%l%)%)%S&&-2&,&O%'%'%G$H.{.{.{.{.(.~.(.(.5.5.4.4.a.a.a.a.4@v.n.n.n.n.P.P.E.E.E.E.H.E.H.H.Q.H.Q.Q.Q.Q.Q.Q.Q.Q.Q.Q.Q.Q.Q.Q.Q.Q.Q.Q.Q.Q.Q.Q.Q.H.Q.H.D.E.H.E.H.E.E.P.P.n.n.n.n.v.v.a.a.a.a.4.4.5.5.(.(.~.~.{.6.{.{.@.@.#.#.Q Q Q o.R R L L M (#43                                                              ",
"                                                                53~@63w w w w R R R R Q Q Q |.#.#.@.%.{.{.{.{.(.i.(.(.5.5.e.e.a.4.a.a.a.a.v.v.n.r.n.r.n.n.P.n.E.n.E.E.E.E.E.E.E.E.E.E.E.E.E.E.E.E.E.E.E.E.E.P.E.n.P.n.n.r.n.r.n.v.v.a.v.a.a.a.a.5.e.5.5.(.(.(.(.{.{.{.{.%.%.#.#.73h*)='%'%,&,&Y$Y$)%)%X$!%W$W$];];i&H&n%83&^93&^03k1k1k1k1k1k1k1k1k1k1k1k1k1k1k1k1k1k1k1k1k1k1k1k1k1k1k1k1k1k1k1k1k1  a3]']']']']']']']']']']']']']']']']']']']']']']']']']']']']']']']']']']']']']']']']']']']']']']']']']']']']']']']']']']']']']']']']']']']']']']']']']']']']']']']']']']']']']']']']']']']']']']']']']']']']']']']']']']']']']']']']']']']']']']']']']']']'y1k1k1k1k1k1k1k1k1k1k1k1k1k1k1k1k1k1k1k1k1k1k1k1k1k1k1k1k1k1k1k1j'u[b3I<Z<K-W$W$X$X$)%)%Y$Y$2&,&~%'%j&w$w$x$Z$E.|.#.#.%.%.{.{.i.i.(.(.(.(.5.5.4.5.a.a.a.a.a.a.r.v.r.r.n.r.n.n.P.n.P.n.E.P.E.E.E.E.E.E.E.E.E.E.E.E.E.E.E.P.E.n.E.n.n.n.n.r.n.r.n.v.v.a.v.a.a.a.a.e.e.5.5.(.(.(.(.i.i.{.{.%.%.#.@.|.#.Q Q -.-.R R L L w w I@/#t                                                                   ",
"                                                                    ^.f|z#v L R R R R Q Q Q |.@.#.@.%.{.{.{.{.(.~.(.(.5.5.4.e.a.4.a.a.v.a.v.v.n.r.n.n.n.n.P.n.E.n.E.P.E.E.E.E.E.E.E.E.E.E.E.E.E.E.E.E.E.P.E.P.E.n.n.n.n.n.n.r.n.v.v.a.v.a.a.4.a.5.4.5.5.(.(.(.(.{.{.{.{.@.@.#.6.l$w$'%'%O%,&2&Y$Y$)%)%l%l%W$W$i&i&i&H&c3d31%e3f3k1k1k1k1k1k1k1k1k1k1k1k1k1k1k1k1k1k1k1k1k1k1k1k1k1k1k1k1k1k1k1k1k1k1k1  a3]']']']']']']']']']']']']']']']']']']']']']']']']']']']']']']']']']']']']']']']']']']']']']']']']']']']']']']']']']']']']']']']']']']']']']']']']']']']']']']']']']']']']']']']']']']']']']']']']']']']']']']']']']']']']']']']']']']']']']']']']']'y1k1k1k1k1k1k1k1k1k1k1k1k1k1k1k1k1k1k1k1k1k1k1k1k1k1k1k1k1k1k1k1k1k1!>g3h3`<i3W$W$X$X$)%)%Y$Y$2&,&O%'%'%'%w$x$H$Z$n.@.@.%.%.{.{.~.{.(.(.(.(.5.5.4.5.4.4.a.a.a.a.v.v.n.r.n.n.n.n.P.n.P.n.E.n.E.P.E.P.E.E.E.E.E.E.E.P.E.P.E.P.E.n.P.n.n.n.n.n.n.r.n.v.v.a.v.a.a.4.a.e.4.5.5.(.(.(.(.i.~.{.{.%.%.@.@.#.#.Q Q -.Q R R L L w j3g.                                                                      ",
"                                                                        b#k3l3w w L R R R -.-.Q Q |.|.#.#.%.%.{.{.{.{.~.i.(.(.5.(.5.5.4.5.4.4.a.a.a.a.v.a.v.v.r.v.r.r.n.r.n.r.n.r.n.r.n.r.n.r.n.r.n.r.n.v.r.v.r.a.v.a.v.a.a.a.a.e.4.e.4.5.5.(.5.(.(.i.~.{.{.{.{.@.@.#.#.|.|.@.e$H$w$w$'%'%~%O%2&2&Y$V$)%)%X$!%W$W$K-m3n3z%{}o3k1k1k1k1k1k1k1k1k1k1k1k1k1k1k1k1k1k1k1k1k1k1k1k1k1k1k1k1k1k1k1k1k1k1k1k1k1  a3]']']']']']']']']']']']']']']']']']']']']']']']']']']']']']']']']']']']']']']']']']']']']']']']']']']']']']']']']']']']']']']']']']']']']']']']']']']']']']']']']']']']']']']']']']']']']']']']']']']']']']']']']']']']']']']']']']']']']']']']'y1k1k1k1k1k1k1k1k1k1k1k1k1k1k1k1k1k1k1k1k1k1k1k1k1k1k1k1k1k1k1k1k1k1k1k1!>p3q3r3s3X$)%)%Y$Y$2&,&O%O%'%'%w$w$H$H$v$v$c$v.Q #.|.#.#.%.@.{.{.{.{.~.~.(.(.(.(.5.5.e.5.4.e.a.a.a.a.a.a.v.a.v.v.r.v.r.r.n.r.n.r.n.r.n.r.n.r.n.r.n.v.r.v.r.a.v.a.v.a.a.a.a.4.4.e.4.5.5.5.5.(.(.~.(.{.i.{.{.%.%.#.@.#.#.Q Q -.Q R R R R w v w |+t3b#                                                                        ",
"                                                                            u3v3B$L R R R Q Q Q Q #.#.@.@.%.%.{.{.{.{.~.~.(.(.5.(.5.5.4.5.4.4.a.a.a.a.v.a.v.v.n.v.n.v.n.v.n.n.n.n.n.n.n.n.n.n.n.r.n.r.n.v.n.v.4@a.v.a.a.a.a.a.a.4.4.5.4.5.5.(.(.(.(.~.~.{.{.{.{.@.@.#.@.Q @.a$I$I$w$w$'%'%O%,&2&Y$&-S&)%)%l%l%W$w3x3y3L-z3A3k1k1k1k1k1k1k1k1k1k1k1k1k1k1k1k1k1k1k1k1k1k1k1k1k1k1k1k1k1k1k1k1k1k1k1k1k1k1k1  a3]']']']']']']']']']']']']']']']']']']']']']']']']']']']']']']']']']']']']']']']']']']']']']']']']']']']']']']']']']']']']']']']']']']']']']']']']']']']']']']']']']']']']']']']']']']']']']']']']']']']']']']']']']']']']']']']']']']']']']'y1k1k1k1k1k1k1k1k1k1k1k1k1k1k1k1k1k1k1k1k1k1k1k1k1k1k1k1k1k1k1k1k1k1k1k1k1k1N]B3u[h<C3)%)%Y$Y$2&,&O%O%'%'%w$w$I$I$E%v$o%N*v.#.|.@.@.%.@.{.{.{.{.~.~.(.(.(.(.5.5.4.5.4.4.a.4.a.a.a.a.v.a.v.v.n.v.n.v.n.v.n.r.n.v.n.n.n.v.n.v.n.v.n.v.4@a.v.a.v.a.a.a.a.4.4.4.4.5.5.5.5.(.(.~.(.{.6.{.{.%.%.@.@.#.#.Q Q Q Q R R R R v D3E3($                                                                            ",
"                                                                                .$T@x w w L R R R R -.Q Q Q Q #.#.@.#.%.%.{.{.{.{.i.i.(.i.(.(.5.(.5.5.5.5.e.5.4.5.4.e.a.e.a.4.a.4.a.4.a.4.a.4.a.e.a.e.a.e.4.e.4.5.5.5.5.5.5.(.(.(.(.i.(.{.i.{.{.%.{.@.%.#.#.#.#.Q Q Q Q Q {%o%v$v$H$H$w$w$'%'%O%O%,&2&Y$Y$)%)%F3G3H3y]I3k1k1k1k1k1k1k1k1k1k1k1k1k1k1k1k1k1k1k1k1k1k1k1k1k1k1k1k1k1k1k1k1k1k1k1k1k1k1k1k1k1k1  a3]']']']']']']']']']']']']']']']']']']']']']']']']']']']']']']']']']']']']']']']']']']']']']']']']']']']']']']']']']']']']']']']']']']']']']']']']']']']']']']']']']']']']']']']']']']']']']']']']']']']']']']']']']']']']']']']']']']']'y1k1k1k1k1k1k1k1k1k1k1k1k1k1k1k1k1k1k1k1k1k1k1k1k1k1k1k1k1k1k1k1k1k1k1k1k1k1k1k1N]J33_K3L3Y$,&,&~%'%'%'%w$w$H$H$v$v$o%o%G$-&b$5.R Q Q Q Q #.#.@.#.%.%.{.%.{.{.i.{.~.i.(.(.(.(.5.(.5.5.5.5.e.5.4.5.4.e.a.e.a.e.a.e.a.4.a.e.4.e.4.e.4.5.4.5.5.5.5.5.5.(.5.(.(.~.(.i.i.{.{.{.{.%.{.#.@.#.#.Q |.Q Q -.-.R R R R w v w w E2a,                                                                                ",
"                                                                                  + X|M3w L R R R w.w.Q Q Q Q #.#.@.@.%.%.{.{.{.{.~.i.(.~.(.(.(.(.5.5.5.5.4.5.4.5.4.4.4.4.a.4.a.4.a.4.a.4.a.4.a.4.4.4.4.e.4.5.4.5.5.5.5.(.5.(.(.(.(.~.~.{.6.{.{.%.{.@.@.#.@.#.#.Q Q Q @.!$o%o%v$E%I$I$w$w$'%'%O%O%,&2&Y$Y$)%N3R<O3P3V]k1k1k1k1k1k1k1k1k1k1k1k1k1k1k1k1k1k1k1k1k1k1k1k1k1k1k1k1k1k1k1k1k1k1k1k1k1k1k1k1k1k1k1k1  a3]']']']']']']']']']']']']']']']']']']']']']']']']']']']']']']']']']']']']']']']']']']']']']']']']']']']']']']']']']']']']']']']']']']']']']']']']']']']']']']']']']']']']']']']']']']']']']']']']']']']']']']']']']']']']']']']']']'y1k1k1k1k1k1k1k1k1k1k1k1k1k1k1k1k1k1k1k1k1k1k1k1k1k1k1k1k1k1k1k1k1k1k1k1k1k1k1k1k1k1N]Q3%-a:R3,&,&~%'%'%'%w$w$I$I$E%v$o%o%G$G$u$b$5.Q Q Q Q #.#.@.#.@.@.{.%.{.{.~.{.~.~.(.(.(.(.5.(.5.5.}$5.4.5.4.5.4.4.4.4.4.4.a.4.4.4.a.4.4.4.4.e.4.5.4.5.5.5.5.(.5.(.(.(.(.~.(.i.~.{.{.{.{.%.{.@.@.#.@.Q Q Q Q Q Q R R R R v v S3V+                                                                                    ",
"                                                                                      z+T3w w v w R R R R w.w.Q Q Q Q #.|.#.#.@.#.%.%.{.{.{.{.i.{.~.i.(.i.(.(.(.(.(.(.5.(.5.(.5.(.5.(.5.(.5.(.5.(.5.(.(.(.(.(.(.~.(.i.~.{.i.{.{.{.{.%.{.@.%.#.@.#.#.Q |.Q Q -.Q R R Q m$u$G$,%o%o%E%E%I$I$w$w$'%'%~%O%,&,&y>U3V3W34[k1k1k1k1k1k1k1k1k1k1k1k1k1k1k1k1k1k1k1k1k1k1k1k1k1k1k1k1k1k1k1k1k1k1k1k1k1k1k1k1k1k1k1k1k1k1  a3]']']']']']']']']']']']']']']']']']']']']']']']']']']']']']']']']']']']']']']']']']']']']']']']']']']']']']']']']']']']']']']']']']']']']']']']']']']']']']']']']']']']']']']']']']']']']']']']']']']']']']']']']']']']']']']']'y1k1k1k1k1k1k1k1k1k1k1k1k1k1k1k1k1k1k1k1k1k1k1k1k1k1k1k1k1k1k1k1k1k1k1k1k1k1k1k1k1k1k1k1X3Y3Z3`3 4'%j&'%w$w$H$H$E%E%o%o%,%G$U$u$9%Z$e$5.R R R Q -.Q Q Q Q #.#.@.#.%.@.{.%.{.{.{.{.i.{.~.i.(.i.(.(.(.(.(.(.(.(.(.(.5.(.5.(.5.(.(.(.(.(.(.(.(.~.(.~.(.i.~.{.i.{.{.{.{.%.%.@.@.#.#.#.#.Q Q Q Q -.-.R R R R v L w w B$F._                                                                                       ",
"                                                                                        + .4Y'v v R R R R o.w.Q Q Q Q #.|.@.#.@.@.%.%.{.{.{.{.6.{.~.~.(.~.(.(.(.(.(.(.(.(.(.(.5.(.5.(.5.(.5.(.5.(.(.(.(.(.(.(.(.~.(.~.~.{.6.{.{.{.{.%.{.@.@.@.@.#.#.Q Q Q Q Q Q R Q ~$u$U$G$,%E&v$E%E%I$x$w$w$'%'%O%O%,&}]C=L3+4~[k1k1k1k1k1k1k1k1k1k1k1k1k1k1k1k1k1k1k1k1k1k1k1k1k1k1k1k1k1k1k1k1k1k1k1k1k1k1k1k1k1k1k1k1k1k1k1k1  a3]']']']']']']']']']']']']']']']']']']']']']']']']']']']']']']']']']']']']']']']']']']']']']']']']']']']']']']']']']']']']']']']']']']']']']']']']']']']']']']']']']']']']']']']']']']']']']']']']']']']']']']']']']']']']']'y1k1k1k1k1k1k1k1k1k1k1k1k1k1k1k1k1k1k1k1k1k1k1k1k1k1k1k1k1k1k1k1k1k1k1k1k1k1k1k1k1k1k1k1k1k1X3|]@4#4<''%'%w$w$I$I$E%E%E&E&,%G$U$u$u$9%Z$e$5.R R Q Q Q Q Q Q #.#.@.@.@.@.{.%.{.{.{.{.6.{.~.~.(.~.(.(.(.(.(.(.(.(.(.(.(.(.(.(.(.(.(.(.(.(.(.(.(.~.(.~.(.{.~.{.6.{.{.{.{.%.%.@.@.#.@.#.#.Q Q Q Q -.Q R R R R L L w z#.$                                                                                          ",
"                                                                                            ;#s r x x w w v w R R R R w.R Q -.Q Q Q Q #.|.#.#.@.#.@.#.%.@.{.%.{.%.{.{.{.{.{.{.{.{.{.{.{.{.{.{.{.{.{.{.{.%.{.%.{.@.%.@.%.#.@.#.#.|.#.Q |.Q Q Q Q R -.R R R R L L R |$Z$Z$H%u$U$G$G$o%o%v$E%H$H$w$w$w$j&5<$4%4.;N_k1k1k1k1k1k1k1k1k1k1k1k1k1k1k1k1k1k1k1k1k1k1k1k1k1k1k1k1k1k1k1k1k1k1k1k1k1k1k1k1k1k1k1k1k1k1k1k1k1k1  a3]']']']']']']']']']']']']']']']']']']']']']']']']']']']']']']']']']']']']']']']']']']']']']']']']']']']']']']']']']']']']']']']']']']']']']']']']']']']']']']']']']']']']']']']']']']']']']']']']']']']']']']']']']']']'y1k1k1k1k1k1k1k1k1k1k1k1k1k1k1k1k1k1k1k1k1k1k1k1k1k1k1k1k1k1k1k1k1k1k1k1k1k1k1k1k1k1k1k1k1k1k1k1i;&4*4=4-4x$H$H$v$v$o%o%G$G$U$u$H%Z$Z$Q>c$c$!${.w L L R R R R -.R Q Q Q Q Q Q #.|.#.#.@.#.@.#.%.@.%.%.{.%.{.{.{.{.{.{.{.{.{.{.{.{.{.{.{.%.{.%.{.%.%.@.%.#.@.#.@.#.#.|.#.Q Q Q Q -.Q R -.R R R R w L w w x w r ;4h$9&                                                                                            ",
"                                                                                                m >4x w w v v R R R R o.R Q Q Q Q Q Q #.|.#.#.@.#.@.@.%.@.{.%.{.%.{.{.{.{.{.{.{.{.{.{.{.{.{.{.{.{.{.{.{.%.{.%.{.@.%.@.@.#.@.#.@.|.#.Q Q Q Q Q Q R w.R R R R L o.|$-,Z$9%u$u$U$G$,%o%E&E%E%I$I$w$w$k%,4C>'4)4},k1k1k1k1k1k1k1k1k1k1k1k1k1k1k1k1k1k1k1k1k1k1k1k1k1k1k1k1k1k1k1k1k1k1k1k1k1k1k1k1k1k1k1k1k1k1k1k1k1k1k1k1  a3]']']']']']']']']']']']']']']']']']']']']']']']']']']']']']']']']']']']']']']']']']']']']']']']']']']']']']']']']']']']']']']']']']']']']']']']']']']']']']']']']']']']']']']']']']']']']']']']']']']']']']']']']']'y1k1k1k1k1k1k1k1k1k1k1k1k1k1k1k1k1k1k1k1k1k1k1k1k1k1k1k1k1k1k1k1k1k1k1k1k1k1k1k1k1k1k1k1k1k1k1k1k1k1!,u>2&!4j=H$H$v$v$o%o%G$G$U$u$u$9%Z$Z$c$c$d$!${.L L R R R R Q R Q Q Q Q Q Q #.Q #.#.@.#.@.@.%.@.%.%.{.%.{.{.{.%.{.{.{.{.{.{.{.{.{.{.{.%.{.%.{.@.%.@.%.@.@.#.@.#.#.#.#.Q Q Q Q Q Q R Q R R R R v L w v x x x#~4                                                                                                ",
"                                                                                                  z+{4r r x x w w w w R L R R R R R R Q -.Q Q Q Q Q Q #.Q #.#.#.#.#.#.@.#.@.#.@.#.@.#.@.#.@.#.@.#.#.#.#.#.#.#.#.Q |.Q Q Q Q Q Q -.Q R w.R R R R L L w v w w L {$d$c$c$Z$Z$9%u$U$U$G$,%o%o%v$E%H$H$]4-(/]^4t;k1k1k1k1k1k1k1k1k1k1k1k1k1k1k1k1k1k1k1k1k1k1k1k1k1k1k1k1k1k1k1k1k1k1k1k1k1k1k1k1k1k1k1k1k1k1k1k1k1k1k1k1k1k1  a3]']']']']']']']']']']']']']']']']']']']']']']']']']']']']']']']']']']']']']']']']']']']']']']']']']']']']']']']']']']']']']']']']']']']']']']']']']']']']']']']']']']']']']']']']']']']']']']']']']']']']']']']'y1k1k1k1k1k1k1k1k1k1k1k1k1k1k1k1k1k1k1k1k1k1k1k1k1k1k1k1k1k1k1k1k1k1k1k1k1k1k1k1k1k1k1k1k1k1k1k1k1k1k1k1O{2>'%/4`:(4o%o%G$G$U$u$u$u$Z$Z$J$c$d$d$b$b$_4:4x w w v w R L R R R R R R Q -.Q Q Q Q Q Q |.Q #.|.#.|.#.#.#.#.#.#.@.#.#.#.@.#.#.#.#.#.#.#.#.Q #.Q #.Q Q Q Q Q Q -.Q R w.R R R R R R w v w w x x r r G g'9=                                                                                                  ",
"                                                                                                    _ <4[4x x w w v v L L R R R R R R Q -.Q Q Q Q Q Q #.Q #.#.@.#.#.#.@.#.@.#.@.#.@.#.@.#.@.#.@.#.@.#.@.#.#.|.#.Q Q Q Q Q Q Q Q w.Q R o.R R R R L L v v w R k$d$d$J$J$Z$Z$u$u$U$-&G$,%E&E&E%E%I$}4!<[<|414k1k1k1k1k1k1k1k1k1k1k1k1k1k1k1k1k1k1k1k1k1k1k1k1k1k1k1k1k1k1k1k1k1k1k1k1k1k1k1k1k1k1k1k1k1k1k1k1k1k1k1k1k1k1k1k1  a3]']']']']']']']']']']']']']']']']']']']']']']']']']']']']']']']']']']']']']']']']']']']']']']']']']']']']']']']']']']']']']']']']']']']']']']']']']']']']']']']']']']']']']']']']']']']']']']']']']']']']']'y1k1k1k1k1k1k1k1k1k1k1k1k1k1k1k1k1k1k1k1k1k1k1k1k1k1k1k1k1k1k1k1k1k1k1k1k1k1k1k1k1k1k1k1k1k1k1k1k1k1k1k1k1k1!324'%D,}:34o%,%G$U$U$u$u$Z$Z$J$J$d$d$5%b$y%)$@.w w v v L L R R R R R R Q w.Q Q Q Q Q Q Q Q #.Q #.|.#.#.@.#.@.#.@.#.@.#.@.#.@.#.@.#.#.#.#.Q #.Q #.Q Q Q Q Q Q Q Q R o.R R R R L R v v w v x x r 44f|                                                                                                      ",
"                                                                                                        t 54j G j r r x r w w w w v w R L R R R R R R R R -.R Q R Q -.Q -.Q -.Q -.Q -.Q -.Q -.Q -.Q -.Q R -.R -.R R R R R R R R w L w v w w w w r x r r w =$y%b$b$d$d$c$c$Z$Z$u$u$u$U$G$G$o%o%64T{s-74R]k1k1k1k1k1k1k1k1k1k1k1k1k1k1k1k1k1k1k1k1k1k1k1k1k1k1k1k1k1k1k1k1k1k1k1k1k1k1k1k1k1k1k1k1k1k1k1k1k1k1k1k1k1k1k1k1k1k1  a3]']']']']']']']']']']']']']']']']']']']']']']']']']']']']']']']']']']']']']']']']']']']']']']']']']']']']']']']']']']']']']']']']']']']']']']']']']']']']']']']']']']']']']']']']']']']']']']']']']']']'y1k1k1k1k1k1k1k1k1k1k1k1k1k1k1k1k1k1k1k1k1k1k1k1k1k1k1k1k1k1k1k1k1k1k1k1k1k1k1k1k1k1k1k1k1k1k1k1k1k1k1k1k1k1k1k184[:w$943<04u$u$H%Z$Z$Z$c$c$d$d$b$b$y%y%e$e$k$|.j r r x r w x w w w w L w R R R R R R R R R R -.R -.R Q R Q -.Q -.Q -.Q -.Q -.Q R -.R -.R R R R R R R R R R L R w v w w w w x x r r G r j j n*z+                                                                                                        ",
"                                                                                                          z a4r j r r x x w w v w v v L L R R R R R R R R w.R Q R Q -.Q -.Q Q Q Q Q Q Q Q Q Q Q -.Q w.Q R Q R o.R R R R R R R R v L w v w w x w r x r b47$y%y%b$>%d$d$J$J$Z$Z$u$u$u$U$G$G$o%c4d4m:e46&k1k1k1k1k1k1k1k1k1k1k1k1k1k1k1k1k1k1k1k1k1k1k1k1k1k1k1k1k1k1k1k1k1k1k1k1k1k1k1k1k1k1k1k1k1k1k1k1k1k1k1k1k1k1k1k1k1k1k1k1  a3]']']']']']']']']']']']']']']']']']']']']']']']']']']']']']']']']']']']']']']']']']']']']']']']']']']']']']']']']']']']']']']']']']']']']']']']']']']']']']']']']']']']']']']']']']']']']']']']']']'y1k1k1k1k1k1k1k1k1k1k1k1k1k1k1k1k1k1k1k1k1k1k1k1k1k1k1k1k1k1k1k1k1k1k1k1k1k1k1k1k1k1k1k1k1k1k1k1k1k1k1k1k1k1k1k1k1k1f4g4h4]4i4;&u$u$9%Z$Z$J$J$d$d$>%b$y%y%e$e$a${$-.r r x r x x w w v w L v R L R R R R R R R R o.R Q R Q R Q -.Q w.Q Q Q w.Q w.Q R Q R Q R R R R R R R R R R L L v v w v x w x x r r r r j4k4!                                                                                                           ",
"                                                                                                              f+l4e e j j r G r r x r w x w w w w v w L w L L R L R R R R R R R R R R R R R R R R R R R L R v L w v w v w w w w x x r x G r j r j j m4W#a$e$l$y%b$>%>%d$d$J$J$Z$Z$9%u$u$U$n4o4p4M:w&k1k1k1k1k1k1k1k1k1k1k1k1k1k1k1k1k1k1k1k1k1k1k1k1k1k1k1k1k1k1k1k1k1k1k1k1k1k1k1k1k1k1k1k1k1k1k1k1k1k1k1k1k1k1k1k1k1k1k1k1k1k1  a3]']']']']']']']']']']']']']']']']']']']']']']']']']']']']']']']']']']']']']']']']']']']']']']']']']']']']']']']']']']']']']']']']']']']']']']']']']']']']']']']']']']']']']']']']']']']']']']']'y1k1k1k1k1k1k1k1k1k1k1k1k1k1k1k1k1k1k1k1k1k1k1k1k1k1k1k1k1k1k1k1k1k1k1k1k1k1k1k1k1k1k1k1k1k1k1k1k1k1k1k1k1k1k1k1k1k1k1k1q4r4s4x!w!t4Z$Z$J$J$d$d$>%>%b$y%l$e$a$L&F${%7$u4e j j j j r G r r x x w x w w w w v w L w R v R L R L R R R R R R R L R R R L R L R w L w L w v w w w w x w r x r r G r j j e j e v4Y)                                                                                                              ",
"                                                                                                                {|Y e j j r r r r x r x x w w v w v w L v L L R L R L R L R R R R R R R R R R R L R L R L L v L w v w v w w x w x x r r r r j C j w W#a$a$e$h*y%b$5%d$d$N*J$J$Z$Z$u$u$P<w4x4H$>/y4k1k1k1k1k1k1k1k1k1k1k1k1k1k1k1k1k1k1k1k1k1k1k1k1k1k1k1k1k1k1k1k1k1k1k1k1k1k1k1k1k1k1k1k1k1k1k1k1k1k1k1k1k1k1k1k1k1k1k1k1k1k1k1k1  a3]']']']']']']']']']']']']']']']']']']']']']']']']']']']']']']']']']']']']']']']']']']']']']']']']']']']']']']']']']']']']']']']']']']']']']']']']']']']']']']']']']']']']']']']']']']']']']'y1k1k1k1k1k1k1k1k1k1k1k1k1k1k1k1k1k1k1k1k1k1k1k1k1k1k1k1k1k1k1k1k1k1k1k1k1k1k1k1k1k1k1k1k1k1k1k1k1k1k1k1k1k1k1k1k1k1k1k1k1k1k1z-'!z4W&&[Z$J$J$d$d$5%5%b$y%h*l$a$a$F$F$!$7$R j j C j r r r r x r x x w w v w v w v v L v L L R L R L R L R L R L R L R L R L R v L v L w v w v x w x x r x r r r r j C e j y,[#                                                                                                                ",
"                                                                                                                  _ A4q q f f e e e e j j j j r j r G r r r r x r x x w x w x w x w x w x w x w r x r x r x r r G r G r j G j j e j e e f f q f G I#m${%{%F$a$e$l$y%y%b$>%d$d$c$c$Z$^=B4C4o%D4R]k1k1k1k1k1k1k1k1k1k1k1k1k1k1k1k1k1k1k1k1k1k1k1k1k1k1k1k1k1k1k1k1k1k1k1k1k1k1k1k1k1k1k1k1k1k1k1k1k1k1k1k1k1k1k1k1k1k1k1k1k1k1k1k1k1k1  a3]']']']']']']']']']']']']']']']']']']']']']']']']']']']']']']']']']']']']']']']']']']']']']']']']']']']']']']']']']']']']']']']']']']']']']']']']']']']']']']']']']']']']']']']']']']']'y1k1k1k1k1k1k1k1k1k1k1k1k1k1k1k1k1k1k1k1k1k1k1k1k1k1k1k1k1k1k1k1k1k1k1k1k1k1k1k1k1k1k1k1k1k1k1k1k1k1k1k1k1k1k1k1k1k1k1k1k1k1k1k1k1i-E4x&U{:]d$d$b$b$y%y%e$e$a$L&{%{%m$m$~$~$I#F40 q q e f e e j e j j G j G G r G r r x r x r x r x r x r x x w r x r x r x r x r r r r G r G r j j j j e e e e q f q f 0 ;.x.                                                                                                                  ",
"                                                                                                                    - G4q f f e f e e j j j j r j r r r r r r x r x x x x x x w x x x w x x x x r x r x r x r r r r G r j j j j e e e e f f f x 7#m$!${%F$a$a$l$l$y%b$5%>%d$d$J$J$H4I4J4,%R*X3k1k1k1k1k1k1k1k1k1k1k1k1k1k1k1k1k1k1k1k1k1k1k1k1k1k1k1k1k1k1k1k1k1k1k1k1k1k1k1k1k1k1k1k1k1k1k1k1k1k1k1k1k1k1k1k1k1k1k1k1k1k1k1k1k1k1k1k1  a3]']']']']']']']']']']']']']']']']']']']']']']']']']']']']']']']']']']']']']']']']']']']']']']']']']']']']']']']']']']']']']']']']']']']']']']']']']']']']']']']']']']']']']']']']']'y1k1k1k1k1k1k1k1k1k1k1k1k1k1k1k1k1k1k1k1k1k1k1k1k1k1k1k1k1k1k1k1k1k1k1k1k1k1k1k1k1k1k1k1k1k1k1k1k1k1k1k1k1k1k1k1k1k1k1k1k1k1k1k1k1k1k1i%K4d&`:=%d$b$b$y%y%l$e$a$a$F${%!$!$~$~$|$I#w f f f f e e j e j j C j r j r G r r r r x r x r x r x r x x x r x r x r x r x r r r r r r j r j j j j e e e e f f q h.L4                                                                                                                      ",
"                                                                                                                        o R'< 0 0 q 0 f q f f e f e e j e j e j e j j j j j j G j G j G j j j j j j j j e j e j e e e e f f q f 0 q 0 0 < < j 6#|$~$~$!$!${%F$a$a$l$l$y%b$b$>%d$M4l*N4-&O4f%k1k1k1k1k1k1k1k1k1k1k1k1k1k1k1k1k1k1k1k1k1k1k1k1k1k1k1k1k1k1k1k1k1k1k1k1k1k1k1k1k1k1k1k1k1k1k1k1k1k1k1k1k1k1k1k1k1k1k1k1k1k1k1k1k1k1k1k1k1k1  a3]']']']']']']']']']']']']']']']']']']']']']']']']']']']']']']']']']']']']']']']']']']']']']']']']']']']']']']']']']']']']']']']']']']']']']']']']']']']']']']']']']']']']']']']'y1k1k1k1k1k1k1k1k1k1k1k1k1k1k1k1k1k1k1k1k1k1k1k1k1k1k1k1k1k1k1k1k1k1k1k1k1k1k1k1k1k1k1k1k1k1k1k1k1k1k1k1k1k1k1k1k1k1k1k1k1k1k1k1k1k1k1k1k1y4P49%Q4R4S4y%l$e$a$a$F$F$m$m$~$~$|$|$_%{$F#x < < < 0 0 q 0 f q f f e f e e e e j e j e j e j j j j j j j j j j j j j e j e j e e e e e e f f q f 0 q 0 0 < < T4C2                                                                                                                        ",
"                                                                                                                          f#O;0 < f 0 f f f f e f e e j e j e j e j j C j C j C j C j C j C j C j j j j e j e j e e f e f f f f 0 f 0 0 < j %#:%|$~$~$!$!$F$F$a$e$l$h*y%b$5%5%U4G%V4u$W4y<k1k1k1k1k1k1k1k1k1k1k1k1k1k1k1k1k1k1k1k1k1k1k1k1k1k1k1k1k1k1k1k1k1k1k1k1k1k1k1k1k1k1k1k1k1k1k1k1k1k1k1k1k1k1k1k1k1k1k1k1k1k1k1k1k1k1k1k1k1k1k1k1  a3]']']']']']']']']']']']']']']']']']']']']']']']']']']']']']']']']']']']']']']']']']']']']']']']']']']']']']']']']']']']']']']']']']']']']']']']']']']']']']']']']']']']']']'y1k1k1k1k1k1k1k1k1k1k1k1k1k1k1k1k1k1k1k1k1k1k1k1k1k1k1k1k1k1k1k1k1k1k1k1k1k1k1k1k1k1k1k1k1k1k1k1k1k1k1k1k1k1k1k1k1k1k1k1k1k1k1k1k1k1k1k1k1k1k1f&X4Z$Y4y_Z4l$e$a$a$F$F$!$!$~$~$:%|$_%_%'$6#x < < 0 0 f 0 f f f f e f e f e e j e j e j e j j j j j j C j j j j e j e j e j e e e e f e f f f f 0 f 0 0 < O.+                                                                                                                           ",
"                                                                                                                            ! t1} [ K < < < < < < 0 < 0 0 q 0 q 0 q q f q f q f q f q f q f q f 0 q 0 q 0 0 0 0 < 0 < < < < < < K [ } } q #@'${${$|$|$~$~$m$!$F$F$a$a$e$l$y%`4+[ 5P<I4F>k1k1k1k1k1k1k1k1k1k1k1k1k1k1k1k1k1k1k1k1k1k1k1k1k1k1k1k1k1k1k1k1k1k1k1k1k1k1k1k1k1k1k1k1k1k1k1k1k1k1k1k1k1k1k1k1k1k1k1k1k1k1k1k1k1k1k1k1k1k1k1k1k1k1  a3]']']']']']']']']']']']']']']']']']']']']']']']']']']']']']']']']']']']']']']']']']']']']']']']']']']']']']']']']']']']']']']']']']']']']']']']']']']']']']']']']']']']'y1k1k1k1k1k1k1k1k1k1k1k1k1k1k1k1k1k1k1k1k1k1k1k1k1k1k1k1k1k1k1k1k1k1k1k1k1k1k1k1k1k1k1k1k1k1k1k1k1k1k1k1k1k1k1k1k1k1k1k1k1k1k1k1k1k1k1k1k1k1k1k1k1a%.5J$x_b*+5F${%{%m$m$~$~$|$|${${$'$'$7$7$#@e } } } < K < < < < < < 0 < 0 0 0 0 q 0 q 0 q 0 f 0 q q f 0 q 0 q 0 q 0 q 0 0 0 0 < 0 < < < < < < K < } K @5*@                                                                                                                            ",
"                                                                                                                              . #5< [ < < < < < < < < 0 < 0 0 f 0 f q f q f q f q f q f q f q f 0 f 0 f 0 0 0 0 < < < < < < < < } [ } f #@'$k$_%_%|$:%~$~$!$!$F$F$a$a$e$l$$5%5&5N;*5=5k1k1k1k1k1k1k1k1k1k1k1k1k1k1k1k1k1k1k1k1k1k1k1k1k1k1k1k1k1k1k1k1k1k1k1k1k1k1k1k1k1k1k1k1k1k1k1k1k1k1k1k1k1k1k1k1k1k1k1k1k1k1k1k1k1k1k1k1k1k1k1k1k1k1k1k1  a3]']']']']']']']']']']']']']']']']']']']']']']']']']']']']']']']']']']']']']']']']']']']']']']']']']']']']']']']']']']']']']']']']']']']']']']']']']']']']']']']']']'y1k1k1k1k1k1k1k1k1k1k1k1k1k1k1k1k1k1k1k1k1k1k1k1k1k1k1k1k1k1k1k1k1k1k1k1k1k1k1k1k1k1k1k1k1k1k1k1k1k1k1k1k1k1k1k1k1k1k1k1k1k1k1k1k1k1k1k1k1k1k1k1k1k1k1i;-5N*;5`->5F${%!$!$~$~$:%|$_%{$k$'$-$=$*$#@e } } < } < < < < < < < < 0 < 0 < 0 0 f 0 f 0 f 0 f q f 0 f 0 f 0 f 0 f 0 0 < 0 < < < < < < < < [ < } ,5(                                                                                                                               ",
"                                                                                                                                # ,5} } } } } } } K } < K < [ < [ < < < < < < < < < < < < < < < < < < < K < K < } } } } } } } } ] } < I+*$=$-$'$k$_%|$|$|$~$~$!$!${%F$a$'5[~)5!5G%k1k1k1k1k1k1k1k1k1k1k1k1k1k1k1k1k1k1k1k1k1k1k1k1k1k1k1k1k1k1k1k1k1k1k1k1k1k1k1k1k1k1k1k1k1k1k1k1k1k1k1k1k1k1k1k1k1k1k1k1k1k1k1k1k1k1k1k1k1k1k1k1k1k1k1k1k1k1k1  a3]']']']']']']']']']']']']']']']']']']']']']']']']']']']']']']']']']']']']']']']']']']']']']']']']']']']']']']']']']']']']']']']']']']']']']']']']']']']']']']']'y1k1k1k1k1k1k1k1k1k1k1k1k1k1k1k1k1k1k1k1k1k1k1k1k1k1k1k1k1k1k1k1k1k1k1k1k1k1k1k1k1k1k1k1k1k1k1k1k1k1k1k1k1k1k1k1k1k1k1k1k1k1k1k1k1k1k1k1k1k1k1k1k1k1k1k1k1~5{55%]5^5/5m$~$~$|$|$|$_%k$'$-$-$*$*$P$J#E+Q){ } { } } } } } } } } K } < K < [ < K < < < < < < < < < < < [ < [ < K < K < } K } } } } } } } } (5(                                                                                                                                 ",
"                                                                                                                                  g>(,} } } } 2 } 2 } < } < [ < [ < < < < < < < < < < < < < < < < < < < [ < 2 < } 2 } } } } } } { q E+*$*$-$-${$k$_%|$:%)$~$~$!$!$F$_5S%:5d$<5C&k1k1k1k1k1k1k1k1k1k1k1k1k1k1k1k1k1k1k1k1k1k1k1k1k1k1k1k1k1k1k1k1k1k1k1k1k1k1k1k1k1k1k1k1k1k1k1k1k1k1k1k1k1k1k1k1k1k1k1k1k1k1k1k1k1k1k1k1k1k1k1k1k1k1k1k1k1k1k1k1k1  a3]']']']']']']']']']']']']']']']']']']']']']']']']']']']']']']']']']']']']']']']']']']']']']']']']']']']']']']']']']']']']']']']']']']']']']']']']']']']']']'y1k1k1k1k1k1k1k1k1k1k1k1k1k1k1k1k1k1k1k1k1k1k1k1k1k1k1k1k1k1k1k1k1k1k1k1k1k1k1k1k1k1k1k1k1k1k1k1k1k1k1k1k1k1k1k1k1k1k1k1k1k1k1k1k1k1k1k1k1k1k1k1k1k1k1k1k1k1k1[5E_b$}5|515~$~$:%:%|$_%k$'$-$-$*$*$W#W#I#E+Q)} { } } } } } } 2 } 2 } < } < [ < [ < < < < < < < < < < < [ < [ < 2 < 2 [ } 2 } 2 } } } } } 25s>                                                                                                                                  ",
"                                                                                                                                    3545, , , { , { , { , ] { } { } ] } ] } } } ] } } } ] } ] } { } { } { { , { , , , , , , s&, } d+I#J#J#*$*$-$-$'$k${$_%|$|$~$~$5565c*y%I~c&k1k1k1k1k1k1k1k1k1k1k1k1k1k1k1k1k1k1k1k1k1k1k1k1k1k1k1k1k1k1k1k1k1k1k1k1k1k1k1k1k1k1k1k1k1k1k1k1k1k1k1k1k1k1k1k1k1k1k1k1k1k1k1k1k1k1k1k1k1k1k1k1k1k1k1k1k1k1k1k1k1k1k1  a3]']']']']']']']']']']']']']']']']']']']']']']']']']']']']']']']']']']']']']']']']']']']']']']']']']']']']']']']']']']']']']']']']']']']']']']']']']']']'y1k1k1k1k1k1k1k1k1k1k1k1k1k1k1k1k1k1k1k1k1k1k1k1k1k1k1k1k1k1k1k1k1k1k1k1k1k1k1k1k1k1k1k1k1k1k1k1k1k1k1k1k1k1k1k1k1k1k1k1k1k1k1k1k1k1k1k1k1k1k1k1k1k1k1k1k1k1k1k1k1f475l$8595h}|${${$'$'$-$7$*$*$J#J#I#I#6#6#e+2 R&s&R&, , , , { , { , { , { { } { } { } { } ] } { } { } { } { } , { , { , { , , , , , , 9 [#                                                                                                                                    ",
"                                                                                                                                      0&45, , { , { { { { { { } { } { } { } } } { } } } { } { } { } { } { { { { , { , { , , s&05e+I#I#&$W#*$*$-$-$'$k$_%_%|$:%~$a5b5@-y%c5d5k1k1k1k1k1k1k1k1k1k1k1k1k1k1k1k1k1k1k1k1k1k1k1k1k1k1k1k1k1k1k1k1k1k1k1k1k1k1k1k1k1k1k1k1k1k1k1k1k1k1k1k1k1k1k1k1k1k1k1k1k1k1k1k1k1k1k1k1k1k1k1k1k1k1k1k1k1k1k1k1k1k1k1k1k1  a3]']']']']']']']']']']']']']']']']']']']']']']']']']']']']']']']']']']']']']']']']']']']']']']']']']']']']']']']']']']']']']']']']']']']']']']']']']'y1k1k1k1k1k1k1k1k1k1k1k1k1k1k1k1k1k1k1k1k1k1k1k1k1k1k1k1k1k1k1k1k1k1k1k1k1k1k1k1k1k1k1k1k1k1k1k1k1k1k1k1k1k1k1k1k1k1k1k1k1k1k1k1k1k1k1k1k1k1k1k1k1k1k1k1k1k1k1k1k1k1k1=5]&e5e$f5g5h5{$k$'$-$=$*$*$W#&$I#I#6#6#%#e+2 , R&, s&, , { , { { { { { { } { } { } { } { } { } { } { } { } { { { { , { , { , , s&i5[#                                                                                                                                      ",
"                                                                                                                                        J'j5R&R&R&R&R&s&R&s&R&, R&, s&, , , , , , , , , , , , , R&, R&, R&R&R&R&R&R&R&R&R&R&} =+%#6#6#I#I#&$W#*$*$-$-$k$k${$|$`~k5V~a$l5d5k1k1k1k1k1k1k1k1k1k1k1k1k1k1k1k1k1k1k1k1k1k1k1k1k1k1k1k1k1k1k1k1k1k1k1k1k1k1k1k1k1k1k1k1k1k1k1k1k1k1k1k1k1k1k1k1k1k1k1k1k1k1k1k1k1k1k1k1k1k1k1k1k1k1k1k1k1k1k1k1k1k1k1k1k1k1k1  a3]']']']']']']']']']']']']']']']']']']']']']']']']']']']']']']']']']']']']']']']']']']']']']']']']']']']']']']']']']']']']']']']']']']']']']']']'y1k1k1k1k1k1k1k1k1k1k1k1k1k1k1k1k1k1k1k1k1k1k1k1k1k1k1k1k1k1k1k1k1k1k1k1k1k1k1k1k1k1k1k1k1k1k1k1k1k1k1k1k1k1k1k1k1k1k1k1k1k1k1k1k1k1k1k1k1k1k1k1k1k1k1k1k1k1k1k1k1k1k1k1k1k1k5m5{%n5o5p5-$-$*$*$W#W#I#I#6#6#%#%#5##@V.} R&R&R&R&R&R&R&R&R&R&R&s&R&, R&, R&, R&, s&, R&, s&, R&, R&, R&R&R&R&R&R&R&R&R&R&V1s>                                                                                                                                        ",
"                                                                                                                                          J'q5, s&, s&, s&, s&, s&, s&, s&, , , s&, s&, s&, s&, s&, s&, s&, s&, s&, s&, s&05=+%#%#T#T#I#I#W#W#*$7$-$-$k$k$_%r5s5t5a$W~P{k1k1k1k1k1k1k1k1k1k1k1k1k1k1k1k1k1k1k1k1k1k1k1k1k1k1k1k1k1k1k1k1k1k1k1k1k1k1k1k1k1k1k1k1k1k1k1k1k1k1k1k1k1k1k1k1k1k1k1k1k1k1k1k1k1k1k1k1k1k1k1k1k1k1k1k1k1k1k1k1k1k1k1k1k1k1k1k1k1  a3]']']']']']']']']']']']']']']']']']']']']']']']']']']']']']']']']']']']']']']']']']']']']']']']']']']']']']']']']']']']']']']']']']']']']']'y1k1k1k1k1k1k1k1k1k1k1k1k1k1k1k1k1k1k1k1k1k1k1k1k1k1k1k1k1k1k1k1k1k1k1k1k1k1k1k1k1k1k1k1k1k1k1k1k1k1k1k1k1k1k1k1k1k1k1k1k1k1k1k1k1k1k1k1k1k1k1k1k1k1k1k1k1k1k1k1k1k1k1k1k1k1k1k1J&u5F$v5^_w=-$*$*$W#W#I#I#T#T#%#%#)#5##@V.w5, s&, s&, s&, s&, s&, s&, s&, s&, s&, s&, s&, s&, s&, s&, s&, s&, s&, s&, s&Y;x5                                                                                                                                          ",
"                                                                                                                                            - y5R&R&R&R&R&R&R&R&R&R&R&R&R&R&R&R&R&R&R&R&R&R&R&R&R&R&R&R&R&R&R&R&R&R&R&R&} V.#@#@#@%#%#6#6#I#I#&$P$*$*$-$-$z5A5B5!$C5D5k1k1k1k1k1k1k1k1k1k1k1k1k1k1k1k1k1k1k1k1k1k1k1k1k1k1k1k1k1k1k1k1k1k1k1k1k1k1k1k1k1k1k1k1k1k1k1k1k1k1k1k1k1k1k1k1k1k1k1k1k1k1k1k1k1k1k1k1k1k1k1k1k1k1k1k1k1k1k1k1k1k1k1k1k1k1k1k1k1k1k1  a3]']']']']']']']']']']']']']']']']']']']']']']']']']']']']']']']']']']']']']']']']']']']']']']']']']']']']']']']']']']']']']']']']']']']'y1k1k1k1k1k1k1k1k1k1k1k1k1k1k1k1k1k1k1k1k1k1k1k1k1k1k1k1k1k1k1k1k1k1k1k1k1k1k1k1k1k1k1k1k1k1k1k1k1k1k1k1k1k1k1k1k1k1k1k1k1k1k1k1k1k1k1k1k1k1k1k1k1k1k1k1k1k1k1k1k1k1k1k1k1k1k1k1k1k1y4-{~$a5E57!J#J#I#I#6#6#%#%##@#@#@$#I+E+_#} R&R&R&R&R&R&R&R&R&R&R&R&R&R&R&R&R&R&R&R&R&R&R&R&R&R&R&R&R&R&R&R&R&R&R&R&F5b                                                                                                                                             ",
"                                                                                                                                              Z e-, R&, R&, s&, R&, R&, R&, s&, R&, R&, R&, s&, R&, R&, R&, s&, R&, R&05Q.$##@5#5#%#%#T#T#I#I#W#W#*$*$G5H5I5J5!$K5L5k1k1k1k1k1k1k1k1k1k1k1k1k1k1k1k1k1k1k1k1k1k1k1k1k1k1k1k1k1k1k1k1k1k1k1k1k1k1k1k1k1k1k1k1k1k1k1k1k1k1k1k1k1k1k1k1k1k1k1k1k1k1k1k1k1k1k1k1k1k1k1k1k1k1k1k1k1k1k1k1k1k1k1k1k1k1k1k1k1k1k1k1k1  a3]']']']']']']']']']']']']']']']']']']']']']']']']']']']']']']']']']']']']']']']']']']']']']']']']']']']']']']']']']']']']']']']']']'y1k1k1k1k1k1k1k1k1k1k1k1k1k1k1k1k1k1k1k1k1k1k1k1k1k1k1k1k1k1k1k1k1k1k1k1k1k1k1k1k1k1k1k1k1k1k1k1k1k1k1k1k1k1k1k1k1k1k1k1k1k1k1k1k1k1k1k1k1k1k1k1k1k1k1k1k1k1k1k1k1k1k1k1k1k1k1k1k1k1k1k1P{M5~$N5O5P5&$I#I#6#6#%#%#5##@#@$#I+E+F+Q.} , s&, R&, R&, R&, s&, R&, R&, R&, s&, R&, R&, R&, s&, R&, R&, R&, s&Q5-                                                                                                                                               ",
"                                                                                                                                                h {,R&R&R&R&R&R&R&R&R&R&R&R&R&R&R&R&R&R&R&R&R&R&R&R&R&R&R&R&R&R&R&R&} Q.H+I+I+#@#@5#)#%#F#6#T#I#I#W#R5S5T5~$U5V5o3k1k1k1k1k1k1k1k1k1k1k1k1k1k1k1k1k1k1k1k1k1k1k1k1k1k1k1k1k1k1k1k1k1k1k1k1k1k1k1k1k1k1k1k1k1k1k1k1k1k1k1k1k1k1k1k1k1k1k1k1k1k1k1k1k1k1k1k1k1k1k1k1k1k1k1k1k1k1k1k1k1k1k1k1k1k1k1k1k1k1k1k1k1k1k1  a3]']']']']']']']']']']']']']']']']']']']']']']']']']']']']']']']']']']']']']']']']']']']']']']']']']']']']']']']']']']']']']']']'y1k1k1k1k1k1k1k1k1k1k1k1k1k1k1k1k1k1k1k1k1k1k1k1k1k1k1k1k1k1k1k1k1k1k1k1k1k1k1k1k1k1k1k1k1k1k1k1k1k1k1k1k1k1k1k1k1k1k1k1k1k1k1k1k1k1k1k1k1k1k1k1k1k1k1k1k1k1k1k1k1k1k1k1k1k1k1k1k1k1k1k1k1k1P{W5|$_%X5Y5c/6#%#%#)#5##@#@I+I+H+H+d+e+n.] R&R&R&R&R&R&R&R&R&R&R&R&R&R&R&R&R&R&R&R&R&R&R&R&R&R&R&R&R&R&R&R&x-42                                                                                                                                                ",
"                                                                                                                                                  _'Z5, s&, s&, s&, s&, s&, s&, s&, s&, s&, s&, s&, s&, s&, s&, s&05H.F+F+I+I+#@#@5#%#%#6#T#T#I#I#`5 6r5|$.68(k1k1k1k1k1k1k1k1k1k1k1k1k1k1k1k1k1k1k1k1k1k1k1k1k1k1k1k1k1k1k1k1k1k1k1k1k1k1k1k1k1k1k1k1k1k1k1k1k1k1k1k1k1k1k1k1k1k1k1k1k1k1k1k1k1k1k1k1k1k1k1k1k1k1k1k1k1k1k1k1k1k1k1k1k1k1k1k1k1k1k1k1k1k1k1k1k1k1  a3]']']']']']']']']']']']']']']']']']']']']']']']']']']']']']']']']']']']']']']']']']']']']']']']']']']']']']']']']']']']']']'y1k1k1k1k1k1k1k1k1k1k1k1k1k1k1k1k1k1k1k1k1k1k1k1k1k1k1k1k1k1k1k1k1k1k1k1k1k1k1k1k1k1k1k1k1k1k1k1k1k1k1k1k1k1k1k1k1k1k1k1k1k1k1k1k1k1k1k1k1k1k1k1k1k1k1k1k1k1k1k1k1k1k1k1k1k1k1k1k1k1k1k1k1k1k1k1+6@6|${$#6$6%6%#%#%#5##@#@I+I+F+F+d+d+>+n.} , s&, s&, s&, s&, s&, s&, s&, s&, s&, s&, s&, s&, s&, s&, s&Z5&6                                                                                                                                                  ",
"                                                                                                                                                    *6R&R&R&R&R&R&R&R&R&R&R&R&R&R&R&R&R&R&R&R&R&R&R&R&R&R&R&R&R&} n.=+e+e+H+H+I+I+$##@#@5#%#%#6#=6f*-6k$y/e*k1k1k1k1k1k1k1k1k1k1k1k1k1k1k1k1k1k1k1k1k1k1k1k1k1k1k1k1k1k1k1k1k1k1k1k1k1k1k1k1k1k1k1k1k1k1k1k1k1k1k1k1k1k1k1k1k1k1k1k1k1k1k1k1k1k1k1k1k1k1k1k1k1k1k1k1k1k1k1k1k1k1k1k1k1k1k1k1k1k1k1k1k1k1k1k1k1k1k1k1  a3]']']']']']']']']']']']']']']']']']']']']']']']']']']']']']']']']']']']']']']']']']']']']']']']']']']']']']']']']']']']'y1k1k1k1k1k1k1k1k1k1k1k1k1k1k1k1k1k1k1k1k1k1k1k1k1k1k1k1k1k1k1k1k1k1k1k1k1k1k1k1k1k1k1k1k1k1k1k1k1k1k1k1k1k1k1k1k1k1k1k1k1k1k1k1k1k1k1k1k1k1k1k1k1k1k1k1k1k1k1k1k1k1k1k1k1k1k1k1k1k1k1k1k1k1k1k1k1k16$%(-$-$-6b/C@#@#@$#I+E+H+H+e+e+=+=+V.V.a.{ R&R&R&R&R&R&R&R&R&R&R&R&R&R&R&R&R&R&R&R&R&R&R&R&R&R&R&R&R&;6                                                                                                                                                    ",
"                                                                                                                                                    s>>6R&, R&, R&, R&, R&, R&, R&, R&, R&, R&, R&, R&, R&, R&05n.=+=+e+d+F+F+I+I+$##@5#)#%#%#,6o$'6'$9(8!k1k1k1k1k1k1k1k1k1k1k1k1k1k1k1k1k1k1k1k1k1k1k1k1k1k1k1k1k1k1k1k1k1k1k1k1k1k1k1k1k1k1k1k1k1k1k1k1k1k1k1k1k1k1k1k1k1k1k1k1k1k1k1k1k1k1k1k1k1k1k1k1k1k1k1k1k1k1k1k1k1k1k1k1k1k1k1k1k1k1k1k1k1k1k1k1k1k1k1k1k1k1  a3]']']']']']']']']']']']']']']']']']']']']']']']']']']']']']']']']']']']']']']']']']']']']']']']']']']']']']']']']']'y1k1k1k1k1k1k1k1k1k1k1k1k1k1k1k1k1k1k1k1k1k1k1k1k1k1k1k1k1k1k1k1k1k1k1k1k1k1k1k1k1k1k1k1k1k1k1k1k1k1k1k1k1k1k1k1k1k1k1k1k1k1k1k1k1k1k1k1k1k1k1k1k1k1k1k1k1k1k1k1k1k1k1k1k1k1k1k1k1k1k1k1k1k1k1k1k1k1k1k1)6o$!67$y/~6{6#@$#I+I+F+F+d+e+=+=+V.V.Q.a.{ , R&, R&, R&, R&, R&, R&, R&, R&, R&, R&, R&, R&, R&, ]635                                                                                                                                                    ",
"                                                                                                                                                      x.^6R&R&R&R&R&R&R&R&R&R&R&R&R&R&R&R&R&R&R&R&R&R&R&R&R&} a.Q.V.V.=+=+e+d+F+F+I+I+#@#@/6(6_6R/7$w=P{k1k1k1k1k1k1k1k1k1k1k1k1k1k1k1k1k1k1k1k1k1k1k1k1k1k1k1k1k1k1k1k1k1k1k1k1k1k1k1k1k1k1k1k1k1k1k1k1k1k1k1k1k1k1k1k1k1k1k1k1k1k1k1k1k1k1k1k1k1k1k1k1k1k1k1k1k1k1k1k1k1k1k1k1k1k1k1k1k1k1k1k1k1k1k1k1k1k1k1k1k1k1k1k1  a3]']']']']']']']']']']']']']']']']']']']']']']']']']']']']']']']']']']']']']']']']']']']']']']']']']']']']']']']'y1k1k1k1k1k1k1k1k1k1k1k1k1k1k1k1k1k1k1k1k1k1k1k1k1k1k1k1k1k1k1k1k1k1k1k1k1k1k1k1k1k1k1k1k1k1k1k1k1k1k1k1k1k1k1k1k1k1k1k1k1k1k1k1k1k1k1k1k1k1k1k1k1k1k1k1k1k1k1k1k1k1k1k1k1k1k1k1k1k1k1k1k1k1k1k1k1k1k1k1k1k1k18(#~W#B/L^v^:6F+H+d+d+=+=+V.V.Q.Q.Q.H.(.{ R&R&R&R&R&R&R&R&R&R&R&R&R&R&R&R&R&R&R&R&R&R&R&R&R&^6x.                                                                                                                                                      ",
"                                                                                                                                                        42J,s&, s&, s&, s&, s&, s&, s&, s&, s&, s&, s&, s&K a.Q.Q.V.V.>+>+d+d+F+E+I+I+#@Y1<6S/*$*$[6P{k1k1k1k1k1k1k1k1k1k1k1k1k1k1k1k1k1k1k1k1k1k1k1k1k1k1k1k1k1k1k1k1k1k1k1k1k1k1k1k1k1k1k1k1k1k1k1k1k1k1k1k1k1k1k1k1k1k1k1k1k1k1k1k1k1k1k1k1k1k1k1k1k1k1k1k1k1k1k1k1k1k1k1k1k1k1k1k1k1k1k1k1k1k1k1k1k1k1k1k1k1k1k1k1k1k1  a3]']']']']']']']']']']']']']']']']']']']']']']']']']']']']']']']']']']']']']']']']']']']']']']']']']']']']']'y1k1k1k1k1k1k1k1k1k1k1k1k1k1k1k1k1k1k1k1k1k1k1k1k1k1k1k1k1k1k1k1k1k1k1k1k1k1k1k1k1k1k1k1k1k1k1k1k1k1k1k1k1k1k1k1k1k1k1k1k1k1k1k1k1k1k1k1k1k1k1k1k1k1k1k1k1k1k1k1k1k1k1k1k1k1k1k1k1k1k1k1k1k1k1k1k1k1k1k1k1k1k1k1k1_&}6J#I#N/&*|6F+d+d+>+>+V.V.}+Q.Q.D.E.(.m;, s&, s&, s&, s&, s&, s&, s&, s&, s&, s&, s&, J,h                                                                                                                                                         ",
"                                                                                                                                                          :,R&R&R&R&R&R&R&R&R&R&R&R&R&R&R&R&R&R&R&R&R&R&] 5.E.H.H.Q.Q.V.V.=+=+e+d+H+F+]%_=16I#J# (D5k1k1k1k1k1k1k1k1k1k1k1k1k1k1k1k1k1k1k1k1k1k1k1k1k1k1k1k1k1k1k1k1k1k1k1k1k1k1k1k1k1k1k1k1k1k1k1k1k1k1k1k1k1k1k1k1k1k1k1k1k1k1k1k1k1k1k1k1k1k1k1k1k1k1k1k1k1k1k1k1k1k1k1k1k1k1k1k1k1k1k1k1k1k1k1k1k1k1k1k1k1k1k1k1k1k1k1k1  a3]']']']']']']']']']']']']']']']']']']']']']']']']']']']']']']']']']']']']']']']']']']']']']']']']']']']'y1k1k1k1k1k1k1k1k1k1k1k1k1k1k1k1k1k1k1k1k1k1k1k1k1k1k1k1k1k1k1k1k1k1k1k1k1k1k1k1k1k1k1k1k1k1k1k1k1k1k1k1k1k1k1k1k1k1k1k1k1k1k1k1k1k1k1k1k1k1k1k1k1k1k1k1k1k1k1k1k1k1k1k1k1k1k1k1k1k1k1k1k1k1k1k1k1k1k1k1k1k1k1k1k1k1k126v!T#6#36d=46=+=+V.V.Q.Q.H.H.E.P.r.v.%.{ R&R&R&R&R&R&R&R&R&R&R&R&R&R&R&R&R&R&R&R&R&R&56                                                                                                                                                          ",
"                                                                                                                                                          42j5, R&, R&, R&, s&, R&, R&, R&, s&, R&, R&K (.P.E.D.Q.Q.}+V.V.>+>+d+d+F+6676%6I#I#8696k1k1k1k1k1k1k1k1k1k1k1k1k1k1k1k1k1k1k1k1k1k1k1k1k1k1k1k1k1k1k1k1k1k1k1k1k1k1k1k1k1k1k1k1k1k1k1k1k1k1k1k1k1k1k1k1k1k1k1k1k1k1k1k1k1k1k1k1k1k1k1k1k1k1k1k1k1k1k1k1k1k1k1k1k1k1k1k1k1k1k1k1k1k1k1k1k1k1k1k1k1k1k1k1k1k1k1k1k1k1  a3]']']']']']']']']']']']']']']']']']']']']']']']']']']']']']']']']']']']']']']']']']']']']']']']']']'y1k1k1k1k1k1k1k1k1k1k1k1k1k1k1k1k1k1k1k1k1k1k1k1k1k1k1k1k1k1k1k1k1k1k1k1k1k1k1k1k1k1k1k1k1k1k1k1k1k1k1k1k1k1k1k1k1k1k1k1k1k1k1k1k1k1k1k1k1k1k1k1k1k1k1k1k1k1k1k1k1k1k1k1k1k1k1k1k1k1k1k1k1k1k1k1k1k1k1k1k1k1k1k1k1k1k1k1k1-1F^6#6#06a6Y&Q#V.V.Q.Q.Q.H.E.E.n.n.a.{.{ , s&, R&, R&, R&, s&, R&, R&, R&, s&, R&8 $                                                                                                                                                           ",
"                                                                                                                                                            z {,R&R&R&R&R&R&R&R&R&R&R&R&R&R&R&R&R&R&] {.a.n.n.E.E.Q.Q.Q.}+V.;+=+b6c6'#06F#d6$6A3k1k1k1k1k1k1k1k1k1k1k1k1k1k1k1k1k1k1k1k1k1k1k1k1k1k1k1k1k1k1k1k1k1k1k1k1k1k1k1k1k1k1k1k1k1k1k1k1k1k1k1k1k1k1k1k1k1k1k1k1k1k1k1k1k1k1k1k1k1k1k1k1k1k1k1k1k1k1k1k1k1k1k1k1k1k1k1k1k1k1k1k1k1k1k1k1k1k1k1k1k1k1k1k1k1k1k1k1k1k1k1k1  e6]']']']']']']']']']']']']']']']']']']']']']']']']']']']']']']']']']']']']']']']']']']']']']']']'y1k1k1k1k1k1k1k1k1k1k1k1k1k1k1k1k1k1k1k1k1k1k1k1k1k1k1k1k1k1k1k1k1k1k1k1k1k1k1k1k1k1k1k1k1k1k1k1k1k1k1k1k1k1k1k1k1k1k1k1k1k1k1k1k1k1k1k1k1k1k1k1k1k1k1k1k1k1k1k1k1k1k1k1k1k1k1k1k1k1k1k1k1k1k1k1k1k1k1k1k1k1k1k1k1k1k1k1k1k1k1f6g6%##@#@h6i6m=Q.Q.Q.E.E.n.n.a.a.e.5.Q { R&R&R&R&R&R&R&R&R&R&R&R&R&R&R&R&R&R&j6Z                                                                                                                                                             ",
"                                                                                                                                                              k6s&, s&, s&, s&, s&, s&, s&, s&, s&} {.a.a.n.n.E.E.Q.Q.@@V.V.;+l6m68>%#6#n6<*k1k1k1k1k1k1k1k1k1k1k1k1k1k1k1k1k1k1k1k1k1k1k1k1k1k1k1k1k1k1k1k1k1k1k1k1k1k1k1k1k1k1k1k1k1k1k1k1k1k1k1k1k1k1k1k1k1k1k1k1k1k1k1k1k1k1k1k1k1k1k1k1k1k1k1k1k1k1k1k1k1k1k1k1k1k1k1k1k1k1k1k1k1k1k1k1k1k1k1k1k1k1k1k1k1k1k1k1k1k1k1k1k1k1k1  e6]']']']']']']']']']']']']']']']']']']']']']']']']']']']']']']']']']']']']']']']']']']']']']'y1k1k1k1k1k1k1k1k1k1k1k1k1k1k1k1k1k1k1k1k1k1k1k1k1k1k1k1k1k1k1k1k1k1k1k1k1k1k1k1k1k1k1k1k1k1k1k1k1k1k1k1k1k1k1k1k1k1k1k1k1k1k1k1k1k1k1k1k1k1k1k1k1k1k1k1k1k1k1k1k1k1k1k1k1k1k1k1k1k1k1k1k1k1k1k1k1k1k1k1k1k1k1k1k1k1k1k1k1k1k1k1k1o6>@5#5##@p6@%q6Q.Q.E.E.n.n.a.a.4.4.(.|.r6, s&, s&, s&, s&, s&, s&, s&, s&, s6                                                                                                                                                              ",
"                                                                                                                                                              b#t6R&R&R&R&R&R&R&R&R&R&R&R&R&R&R&{ #.(.5.5.a.a.r.r.E.E.H.Q.Q.7[c#M&#@#@u6:1k1k1k1k1k1k1k1k1k1k1k1k1k1k1k1k1k1k1k1k1k1k1k1k1k1k1k1k1k1k1k1k1k1k1k1k1k1k1k1k1k1k1k1k1k1k1k1k1k1k1k1k1k1k1k1k1k1k1k1k1k1k1k1k1k1k1k1k1k1k1k1k1k1k1k1k1k1k1k1k1k1k1k1k1k1k1k1k1k1k1k1k1k1k1k1k1k1k1k1k1k1k1k1k1k1k1k1k1k1k1k1k1k1k1k1k1k1  e6]']']']']']']']']']']']']']']']']']']']']']']']']']']']']']']']']']']']']']']']']']']']'y1k1k1k1k1k1k1k1k1k1k1k1k1k1k1k1k1k1k1k1k1k1k1k1k1k1k1k1k1k1k1k1k1k1k1k1k1k1k1k1k1k1k1k1k1k1k1k1k1k1k1k1k1k1k1k1k1k1k1k1k1k1k1k1k1k1k1k1k1k1k1k1k1k1k1k1k1k1k1k1k1k1k1k1k1k1k1k1k1k1k1k1k1k1k1k1k1k1k1k1k1k1k1k1k1k1k1k1k1k1k1k1k1k1k1f4d=5@I+I+v64}w6x6r.r.a.a.5.5.(.(.{.{.R , R&R&R&R&R&R&R&R&R&R&R&R&R&R&R&y6z                                                                                                                                                               ",
"                                                                                                                                                                &6, R&, R&, R&, R&, R&, R&, R&} Q (.(.5.e.a.a.n.n.E.E.Q.Q.z6/@f,I+#@A626k1k1k1k1k1k1k1k1k1k1k1k1k1k1k1k1k1k1k1k1k1k1k1k1k1k1k1k1k1k1k1k1k1k1k1k1k1k1k1k1k1k1k1k1k1k1k1k1k1k1k1k1k1k1k1k1k1k1k1k1k1k1k1k1k1k1k1k1k1k1k1k1k1k1k1k1k1k1k1k1k1k1k1k1k1k1k1k1k1k1k1k1k1k1k1k1k1k1k1k1k1k1k1k1k1k1k1k1k1k1k1k1k1k1k1k1k1k1k1  e6]']']']']']']']']']']']']']']']']']']']']']']']']']']']']']']']']']']']']']']']']']'y1k1k1k1k1k1k1k1k1k1k1k1k1k1k1k1k1k1k1k1k1k1k1k1k1k1k1k1k1k1k1k1k1k1k1k1k1k1k1k1k1k1k1k1k1k1k1k1k1k1k1k1k1k1k1k1k1k1k1k1k1k1k1k1k1k1k1k1k1k1k1k1k1k1k1k1k1k1k1k1k1k1k1k1k1k1k1k1k1k1k1k1k1k1k1k1k1k1k1k1k1k1k1k1k1k1k1k1k1k1k1k1k1k1k1k1k1k1Y+B6I+F+F+:$C6D6n.a.a.e.5.(.(.{.{.@.R E6, R&, R&, R&, R&, R&, R&, R&+'                                                                                                                                                                ",
"                                                                                                                                                                f-F6R&R&R&R&R&R&R&R&R&R&R&R&{ Q @.{.{.(.(.5.4.a.a.n.n.G6H6I6z2E+E+J6-1k1k1k1k1k1k1k1k1k1k1k1k1k1k1k1k1k1k1k1k1k1k1k1k1k1k1k1k1k1k1k1k1k1k1k1k1k1k1k1k1k1k1k1k1k1k1k1k1k1k1k1k1k1k1k1k1k1k1k1k1k1k1k1k1k1k1k1k1k1k1k1k1k1k1k1k1k1k1k1k1k1k1k1k1k1k1k1k1k1k1k1k1k1k1k1k1k1k1k1k1k1k1k1k1k1k1k1k1k1k1k1k1k1k1k1k1k1k1k1k1k1  e6]']']']']']']']']']']']']']']']']']']']']']']']']']']']']']']']']']']']']']']']'y1k1k1k1k1k1k1k1k1k1k1k1k1k1k1k1k1k1k1k1k1k1k1k1k1k1k1k1k1k1k1k1k1k1k1k1k1k1k1k1k1k1k1k1k1k1k1k1k1k1k1k1k1k1k1k1k1k1k1k1k1k1k1k1k1k1k1k1k1k1k1k1k1k1k1k1k1k1k1k1k1k1k1k1k1k1k1k1k1k1k1k1k1k1k1k1k1k1k1k1k1k1k1k1k1k1k1k1k1k1k1k1k1k1k1k1k1k1k1k13$|}d+d+>+F1K6L6M65.(.(.{.{.%.@.#.Q w R&R&R&R&R&R&R&R&R&R&R&R&R&|><#                                                                                                                                                                ",
"                                                                                                                                                                  o=s&, s&, s&, s&, s&, s&} R @.%.{.~.(.(.4.4.a.a.n.N6y-u2d+F+E+A#O6k1k1k1k1k1k1k1k1k1k1k1k1k1k1k1k1k1k1k1k1k1k1k1k1k1k1k1k1k1k1k1k1k1k1k1k1k1k1k1k1k1k1k1k1k1k1k1k1k1k1k1k1k1k1k1k1k1k1k1k1k1k1k1k1k1k1k1k1k1k1k1k1k1k1k1k1k1k1k1k1k1k1k1k1k1k1k1k1k1k1k1k1k1k1k1k1k1k1k1k1k1k1k1k1k1k1k1k1k1k1k1k1k1k1k1k1k1k1k1k1k1k1k1  e6]']']']']']']']']']']']']']']']']']']']']']']']']']']']']']']']']']']']']']'y1k1k1k1k1k1k1k1k1k1k1k1k1k1k1k1k1k1k1k1k1k1k1k1k1k1k1k1k1k1k1k1k1k1k1k1k1k1k1k1k1k1k1k1k1k1k1k1k1k1k1k1k1k1k1k1k1k1k1k1k1k1k1k1k1k1k1k1k1k1k1k1k1k1k1k1k1k1k1k1k1k1k1k1k1k1k1k1k1k1k1k1k1k1k1k1k1k1k1k1k1k1k1k1k1k1k1k1k1k1k1k1k1k1k1k1k1k1k1k1k1k1f6P6d+e+>+Q6a*R6=)(.(.~.{.%.@.#.#.Q w s&, s&, s&, s&, s&, s&, S6                                                                                                                                                                  ",
"                                                                                                                                                                  42j5R&R&R&R&R&R&R&R&R&{ w -.Q |.@.%.{.{.(.(.5.e.m{T6C+;+>+U6V6W6k1k1k1k1k1k1k1k1k1k1k1k1k1k1k1k1k1k1k1k1k1k1k1k1k1k1k1k1k1k1k1k1k1k1k1k1k1k1k1k1k1k1k1k1k1k1k1k1k1k1k1k1k1k1k1k1k1k1k1k1k1k1k1k1k1k1k1k1k1k1k1k1k1k1k1k1k1k1k1k1k1k1k1k1k1k1k1k1k1k1k1k1k1k1k1k1k1k1k1k1k1k1k1k1k1k1k1k1k1k1k1k1k1k1k1k1k1k1k1k1k1k1k1k1k1  e6]']']']']']']']']']']']']']']']']']']']']']']']']']']']']']']']']']']']'y1k1k1k1k1k1k1k1k1k1k1k1k1k1k1k1k1k1k1k1k1k1k1k1k1k1k1k1k1k1k1k1k1k1k1k1k1k1k1k1k1k1k1k1k1k1k1k1k1k1k1k1k1k1k1k1k1k1k1k1k1k1k1k1k1k1k1k1k1k1k1k1k1k1k1k1k1k1k1k1k1k1k1k1k1k1k1k1k1k1k1k1k1k1k1k1k1k1k1k1k1k1k1k1k1k1k1k1k1k1k1k1k1k1k1k1k1k1k1k1k1k1k1k1o6X6;+V.}+}+Y6Z6`6{.%.@.|.Q -.-.R R j R&R&R&R&R&R&R&R&R&R& 735                                                                                                                                                                  ",
"                                                                                                                                                                    C2, R&, s&, R&, R&} w Q Q #.#.@.%.{.{.(.(.c;.7+7@7=+=+p%|#k1k1k1k1k1k1k1k1k1k1k1k1k1k1k1k1k1k1k1k1k1k1k1k1k1k1k1k1k1k1k1k1k1k1k1k1k1k1k1k1k1k1k1k1k1k1k1k1k1k1k1k1k1k1k1k1k1k1k1k1k1k1k1k1k1k1k1k1k1k1k1k1k1k1k1k1k1k1k1k1k1k1k1k1k1k1k1k1k1k1k1k1k1k1k1k1k1k1k1k1k1k1k1k1k1k1k1k1k1k1k1k1k1k1k1k1k1k1k1k1k1k1k1k1k1k1k1k1  e6]']']']']']']']']']']']']']']']']']']']']']']']']']']']']']']']']']'y1k1k1k1k1k1k1k1k1k1k1k1k1k1k1k1k1k1k1k1k1k1k1k1k1k1k1k1k1k1k1k1k1k1k1k1k1k1k1k1k1k1k1k1k1k1k1k1k1k1k1k1k1k1k1k1k1k1k1k1k1k1k1k1k1k1k1k1k1k1k1k1k1k1k1k1k1k1k1k1k1k1k1k1k1k1k1k1k1k1k1k1k1k1k1k1k1k1k1k1k1k1k1k1k1k1k1k1k1k1k1k1k1k1k1k1k1k1k1k1k1k1k1k1k1k1o3#7$7V.V.Q.p+&)O$P)@.#.Q Q Q R R w j R&, s&, R&, R&, R&%7                                                                                                                                                                    ",
"                                                                                                                                                                    N.&7R&R&R&R&R&R&{ r w R R Q Q #.#.%.%.{.*7*.=7Q.Q.V.-7u#k1k1k1k1k1k1k1k1k1k1k1k1k1k1k1k1k1k1k1k1k1k1k1k1k1k1k1k1k1k1k1k1k1k1k1k1k1k1k1k1k1k1k1k1k1k1k1k1k1k1k1k1k1k1k1k1k1k1k1k1k1k1k1k1k1k1k1k1k1k1k1k1k1k1k1k1k1k1k1k1k1k1k1k1k1k1k1k1k1k1k1k1k1k1k1k1k1k1k1k1k1k1k1k1k1k1k1k1k1k1k1k1k1k1k1k1k1k1k1k1k1k1k1k1k1k1k1k1k1k1  e6]']']']']']']']']']']']']']']']']']']']']']']']']']']']']']']']'y1k1k1k1k1k1k1k1k1k1k1k1k1k1k1k1k1k1k1k1k1k1k1k1k1k1k1k1k1k1k1k1k1k1k1k1k1k1k1k1k1k1k1k1k1k1k1k1k1k1k1k1k1k1k1k1k1k1k1k1k1k1k1k1k1k1k1k1k1k1k1k1k1k1k1k1k1k1k1k1k1k1k1k1k1k1k1k1k1k1k1k1k1k1k1k1k1k1k1k1k1k1k1k1k1k1k1k1k1k1k1k1k1k1k1k1k1k1k1k1k1k1k1k1k1k1k1k1k1|#;7Q.E.E.P.N6B~>7,7Q R R w w x r q R&R&R&R&R&R&R&L,!                                                                                                                                                                     ",
"                                                                                                                                                                      k&s&, s&, s&} j v v R R Q Q #.#.%.'7)7!7~7Q.Q.}+.*Z+k1k1k1k1k1k1k1k1k1k1k1k1k1k1k1k1k1k1k1k1k1k1k1k1k1k1k1k1k1k1k1k1k1k1k1k1k1k1k1k1k1k1k1k1k1k1k1k1k1k1k1k1k1k1k1k1k1k1k1k1k1k1k1k1k1k1k1k1k1k1k1k1k1k1k1k1k1k1k1k1k1k1k1k1k1k1k1k1k1k1k1k1k1k1k1k1k1k1k1k1k1k1k1k1k1k1k1k1k1k1k1k1k1k1k1k1k1k1k1k1k1k1k1k1k1k1k1k1k1k1k1k1  e6]']']']']']']']']']']']']']']']']']']']']']']']']']']']']']'y1k1k1k1k1k1k1k1k1k1k1k1k1k1k1k1k1k1k1k1k1k1k1k1k1k1k1k1k1k1k1k1k1k1k1k1k1k1k1k1k1k1k1k1k1k1k1k1k1k1k1k1k1k1k1k1k1k1k1k1k1k1k1k1k1k1k1k1k1k1k1k1k1k1k1k1k1k1k1k1k1k1k1k1k1k1k1k1k1k1k1k1k1k1k1k1k1k1k1k1k1k1k1k1k1k1k1k1k1k1k1k1k1k1k1k1k1k1k1k1k1k1k1k1k1k1k1k1k1k1k1$+m]H.H.E.P.{7]7^7/7R R v v x x j f s&, s&, s&, (7                                                                                                                                                                      ",
"                                                                                                                                                                      s>+*R&R&R&, f j r r w w R R -.Q p!_74~n.E.E.:7<7[7k1k1k1k1k1k1k1k1k1k1k1k1k1k1k1k1k1k1k1k1k1k1k1k1k1k1k1k1k1k1k1k1k1k1k1k1k1k1k1k1k1k1k1k1k1k1k1k1k1k1k1k1k1k1k1k1k1k1k1k1k1k1k1k1k1k1k1k1k1k1k1k1k1k1k1k1k1k1k1k1k1k1k1k1k1k1k1k1k1k1k1k1k1k1k1k1k1k1k1k1k1k1k1k1k1k1k1k1k1k1k1k1k1k1k1k1k1k1k1k1k1k1k1k1k1k1k1k1k1k1k1k1k1k1  e6]']']']']']']']']']']']']']']']']']']']']']']']']']']']'y1k1k1k1k1k1k1k1k1k1k1k1k1k1k1k1k1k1k1k1k1k1k1k1k1k1k1k1k1k1k1k1k1k1k1k1k1k1k1k1k1k1k1k1k1k1k1k1k1k1k1k1k1k1k1k1k1k1k1k1k1k1k1k1k1k1k1k1k1k1k1k1k1k1k1k1k1k1k1k1k1k1k1k1k1k1k1k1k1k1k1k1k1k1k1k1k1k1k1k1k1k1k1k1k1k1k1k1k1k1k1k1k1k1k1k1k1k1k1k1k1k1k1k1k1k1k1k1k1k1k1k1k1W%2{n.v.v.a.a._+}7|7)@r r j j f q K R&R&R&R&R&17                                                                                                                                                                      ",
"                                                                                                                                                                        27, R&, 0 j j r x w v R R ~&3747q$n.n.E.57(@k1k1k1k1k1k1k1k1k1k1k1k1k1k1k1k1k1k1k1k1k1k1k1k1k1k1k1k1k1k1k1k1k1k1k1k1k1k1k1k1k1k1k1k1k1k1k1k1k1k1k1k1k1k1k1k1k1k1k1k1k1k1k1k1k1k1k1k1k1k1k1k1k1k1k1k1k1k1k1k1k1k1k1k1k1k1k1k1k1k1k1k1k1k1k1k1k1k1k1k1k1k1k1k1k1k1k1k1k1k1k1k1k1k1k1k1k1k1k1k1k1k1k1k1k1k1k1k1k1k1k1k1k1k1k1k1k1  e6]']']']']']']']']']']']']']']']']']']']']']']']']']'y1k1k1k1k1k1k1k1k1k1k1k1k1k1k1k1k1k1k1k1k1k1k1k1k1k1k1k1k1k1k1k1k1k1k1k1k1k1k1k1k1k1k1k1k1k1k1k1k1k1k1k1k1k1k1k1k1k1k1k1k1k1k1k1k1k1k1k1k1k1k1k1k1k1k1k1k1k1k1k1k1k1k1k1k1k1k1k1k1k1k1k1k1k1k1k1k1k1k1k1k1k1k1k1k1k1k1k1k1k1k1k1k1k1k1k1k1k1k1k1k1k1k1k1k1k1k1k1k1k1k1k1k1k1k1677787v.a.a.5.5.z~B~k4L.j j f f 0 < R&, R&970&                                                                                                                                                                      ",
"                                                                                                                                                                        07R&R&< 0 f e j j r x w x)^7a7,}4.a.a.b7Z+k1k1k1k1k1k1k1k1k1k1k1k1k1k1k1k1k1k1k1k1k1k1k1k1k1k1k1k1k1k1k1k1k1k1k1k1k1k1k1k1k1k1k1k1k1k1k1k1k1k1k1k1k1k1k1k1k1k1k1k1k1k1k1k1k1k1k1k1k1k1k1k1k1k1k1k1k1k1k1k1k1k1k1k1k1k1k1k1k1k1k1k1k1k1k1k1k1k1k1k1k1k1k1k1k1k1k1k1k1k1k1k1k1k1k1k1k1k1k1k1k1k1k1k1k1k1k1k1k1k1k1k1k1k1k1k1k1k1k1  e6]']']']']']']']']']']']']']']']']']']']']']']']'y1k1k1k1k1k1k1k1k1k1k1k1k1k1k1k1k1k1k1k1k1k1k1k1k1k1k1k1k1k1k1k1k1k1k1k1k1k1k1k1k1k1k1k1k1k1k1k1k1k1k1k1k1k1k1k1k1k1k1k1k1k1k1k1k1k1k1k1k1k1k1k1k1k1k1k1k1k1k1k1k1k1k1k1k1k1k1k1k1k1k1k1k1k1k1k1k1k1k1k1k1k1k1k1k1k1k1k1k1k1k1k1k1k1k1k1k1k1k1k1k1k1k1k1k1k1k1k1k1k1k1k1k1k1k1k1k1k13#3.5.5.(.(.{.{.c7d7e7O.0 < < [ } R&R&>6                                                                                                                                                                        ",
"                                                                                                                                                                        %2, < 0 0 f e C r x >4|!f7}{5.4.4.a.g76$k1k1k1k1k1k1k1k1k1k1k1k1k1k1k1k1k1k1k1k1k1k1k1k1k1k1k1k1k1k1k1k1k1k1k1k1k1k1k1k1k1k1k1k1k1k1k1k1k1k1k1k1k1k1k1k1k1k1k1k1k1k1k1k1k1k1k1k1k1k1k1k1k1k1k1k1k1k1k1k1k1k1k1k1k1k1k1k1k1k1k1k1k1k1k1k1k1k1k1k1k1k1k1k1k1k1k1k1k1k1k1k1k1k1k1k1k1k1k1k1k1k1k1k1k1k1k1k1k1k1k1k1k1k1k1k1k1k1k1k1k1  e6]']']']']']']']']']']']']']']']']']']']']']'y1k1k1k1k1k1k1k1k1k1k1k1k1k1k1k1k1k1k1k1k1k1k1k1k1k1k1k1k1k1k1k1k1k1k1k1k1k1k1k1k1k1k1k1k1k1k1k1k1k1k1k1k1k1k1k1k1k1k1k1k1k1k1k1k1k1k1k1k1k1k1k1k1k1k1k1k1k1k1k1k1k1k1k1k1k1k1k1k1k1k1k1k1k1k1k1k1k1k1k1k1k1k1k1k1k1k1k1k1k1k1k1k1k1k1k1k1k1k1k1k1k1k1k1k1k1k1k1k1k1k1k1k1k1k1k1k1k1k1k1o6h=4.(.(.~.6.%.h7i7j7M,B k7< } } s&{2                                                                                                                                                                        ",
"                                                                                                                                                                        U1} } K K < 0 f 52u -~l7{.{.i.(.m7n7o7k1k1k1k1k1k1k1k1k1k1k1k1k1k1k1k1k1k1k1k1k1k1k1k1k1k1k1k1k1k1k1k1k1k1k1k1k1k1k1k1k1k1k1k1k1k1k1k1k1k1k1k1k1k1k1k1k1k1k1k1k1k1k1k1k1k1k1k1k1k1k1k1k1k1k1k1k1k1k1k1k1k1k1k1k1k1k1k1k1k1k1k1k1k1k1k1k1k1k1k1k1k1k1k1k1k1k1k1k1k1k1k1k1k1k1k1k1k1k1k1k1k1k1k1k1k1k1k1k1k1k1k1k1k1k1k1k1k1k1k1k1k1k1  e6]']']']']']']']']']']']']']']']']']']']'y1k1k1k1k1k1k1k1k1k1k1k1k1k1k1k1k1k1k1k1k1k1k1k1k1k1k1k1k1k1k1k1k1k1k1k1k1k1k1k1k1k1k1k1k1k1k1k1k1k1k1k1k1k1k1k1k1k1k1k1k1k1k1k1k1k1k1k1k1k1k1k1k1k1k1k1k1k1k1k1k1k1k1k1k1k1k1k1k1k1k1k1k1k1k1k1k1k1k1k1k1k1k1k1k1k1k1k1k1k1k1k1k1k1k1k1k1k1k1k1k1k1k1k1k1k1k1k1k1k1k1k1k1k1k1k1k1k1k1k1k1k1U#C.{.{.%.@.#.|.Q Q k#$2%73=;6p7;6N.                                                                                                                                                                        ",
"                                                                                                                                                                        , } } < < < q7q.r7B+s7{.{.~.~.t7X.k1k1k1k1k1k1k1k1k1k1k1k1k1k1k1k1k1k1k1k1k1k1k1k1k1k1k1k1k1k1k1k1k1k1k1k1k1k1k1k1k1k1k1k1k1k1k1k1k1k1k1k1k1k1k1k1k1k1k1k1k1k1k1k1k1k1k1k1k1k1k1k1k1k1k1k1k1k1k1k1k1k1k1k1k1k1k1k1k1k1k1k1k1k1k1k1k1k1k1k1k1k1k1k1k1k1k1k1k1k1k1k1k1k1k1k1k1k1k1k1k1k1k1k1k1k1k1k1k1k1k1k1k1k1k1k1k1k1k1k1k1k1k1k1k1k1  e6]']']']']']']']']']']']']']']']']']'y1k1k1k1k1k1k1k1k1k1k1k1k1k1k1k1k1k1k1k1k1k1k1k1k1k1k1k1k1k1k1k1k1k1k1k1k1k1k1k1k1k1k1k1k1k1k1k1k1k1k1k1k1k1k1k1k1k1k1k1k1k1k1k1k1k1k1k1k1k1k1k1k1k1k1k1k1k1k1k1k1k1k1k1k1k1k1k1k1k1k1k1k1k1k1k1k1k1k1k1k1k1k1k1k1k1k1k1k1k1k1k1k1k1k1k1k1k1k1k1k1k1k1k1k1k1k1k1k1k1k1k1k1k1k1k1k1k1k1k1k1k1k1k1k1g.u7%.%.#.#.Q Q R q s&O-y6<,27Z                                                                                                                                                                         ",
"                                                                                                                                                                      x.F5, { } *2v7w7x7y7Q Q #.#.{.z76$k1k1k1k1k1k1k1k1k1k1k1k1k1k1k1k1k1k1k1k1k1k1k1k1k1k1k1k1k1k1k1k1k1k1k1k1k1k1k1k1k1k1k1k1k1k1k1k1k1k1k1k1k1k1k1k1k1k1k1k1k1k1k1k1k1k1k1k1k1k1k1k1k1k1k1k1k1k1k1k1k1k1k1k1k1k1k1k1k1k1k1k1k1k1k1k1k1k1k1k1k1k1k1k1k1k1k1k1k1k1k1k1k1k1k1k1k1k1k1k1k1k1k1k1k1k1k1k1k1k1k1k1k1k1k1k1k1k1k1k1k1k1k1k1k1k1k1k1  e6]']']']']']']']']']']']']']']']'y1k1k1k1k1k1k1k1k1k1k1k1k1k1k1k1k1k1k1k1k1k1k1k1k1k1k1k1k1k1k1k1k1k1k1k1k1k1k1k1k1k1k1k1k1k1k1k1k1k1k1k1k1k1k1k1k1k1k1k1k1k1k1k1k1k1k1k1k1k1k1k1k1k1k1k1k1k1k1k1k1k1k1k1k1k1k1k1k1k1k1k1k1k1k1k1k1k1k1k1k1k1k1k1k1k1k1k1k1k1k1k1k1k1k1k1k1k1k1k1k1k1k1k1k1k1k1k1k1k1k1k1k1k1k1k1k1k1k1k1k1k1k1k1k1k1k1o6A7#.Q Q R R L v < R&R&R&{,I                                                                                                                                                                         ",
"                                                                                                                                                                        b p o B7L4J!w)Q Q Q #.@.L!C7D7k1k1k1k1k1k1k1k1k1k1k1k1k1k1k1k1k1k1k1k1k1k1k1k1k1k1k1k1k1k1k1k1k1k1k1k1k1k1k1k1k1k1k1k1k1k1k1k1k1k1k1k1k1k1k1k1k1k1k1k1k1k1k1k1k1k1k1k1k1k1k1k1k1k1k1k1k1k1k1k1k1k1k1k1k1k1k1k1k1k1k1k1k1k1k1k1k1k1k1k1k1k1k1k1k1k1k1k1k1k1k1k1k1k1k1k1k1k1k1k1k1k1k1k1k1k1k1k1k1k1k1k1k1k1k1k1k1k1k1k1k1k1k1k1k1k1k1k1k1k1  e6]']']']']']']']']']']']']']'y1k1k1k1k1k1k1k1k1k1k1k1k1k1k1k1k1k1k1k1k1k1k1k1k1k1k1k1k1k1k1k1k1k1k1k1k1k1k1k1k1k1k1k1k1k1k1k1k1k1k1k1k1k1k1k1k1k1k1k1k1k1k1k1k1k1k1k1k1k1k1k1k1k1k1k1k1k1k1k1k1k1k1k1k1k1k1k1k1k1k1k1k1k1k1k1k1k1k1k1k1k1k1k1k1k1k1k1k1k1k1k1k1k1k1k1k1k1k1k1k1k1k1k1k1k1k1k1k1k1k1k1k1k1k1k1k1k1k1k1k1k1k1k1k1k1k1k1k1E7F7G7Q R R R L w 0 s&, ~ @                                                                                                                                                                         ",
"                                                                                                                                                                        f-H7|-I7r w w R R R -.p!2;k1k1k1k1k1k1k1k1k1k1k1k1k1k1k1k1k1k1k1k1k1k1k1k1k1k1k1k1k1k1k1k1k1k1k1k1k1k1k1k1k1k1k1k1k1k1k1k1k1k1k1k1k1k1k1k1k1k1k1k1k1k1k1k1k1k1k1k1k1k1k1k1k1k1k1k1k1k1k1k1k1k1k1k1k1k1k1k1k1k1k1k1k1k1k1k1k1k1k1k1k1k1k1k1k1k1k1k1k1k1k1k1k1k1k1k1k1k1k1k1k1k1k1k1k1k1k1k1k1k1k1k1k1k1k1k1k1k1k1k1k1k1k1k1k1k1k1k1k1k1k1k1k1  e6]']']']']']']']']']']']'y1k1k1k1k1k1k1k1k1k1k1k1k1k1k1k1k1k1k1k1k1k1k1k1k1k1k1k1k1k1k1k1k1k1k1k1k1k1k1k1k1k1k1k1k1k1k1k1k1k1k1k1k1k1k1k1k1k1k1k1k1k1k1k1k1k1k1k1k1k1k1k1k1k1k1k1k1k1k1k1k1k1k1k1k1k1k1k1k1k1k1k1k1k1k1k1k1k1k1k1k1k1k1k1k1k1k1k1k1k1k1k1k1k1k1k1k1k1k1k1k1k1k1k1k1k1k1k1k1k1k1k1k1k1k1k1k1k1k1k1k1k1k1k1k1k1k1k1k1k1k1k1'+J7v v x x G G } R&`>+                                                                                                                                                                         ",
"                                                                                                                                                                        w-Z=< r r w w R R w.K7#+k1k1k1k1k1k1k1k1k1k1k1k1k1k1k1k1k1k1k1k1k1k1k1k1k1k1k1k1k1k1k1k1k1k1k1k1k1k1k1k1k1k1k1k1k1k1k1k1k1k1k1k1k1k1k1k1k1k1k1k1k1k1k1k1k1k1k1k1k1k1k1k1k1k1k1k1k1k1k1k1k1k1k1k1k1k1k1k1k1k1k1k1k1k1k1k1k1k1k1k1k1k1k1k1k1k1k1k1k1k1k1k1k1k1k1k1k1k1k1k1k1k1k1k1k1k1k1k1k1k1k1k1k1k1k1k1k1k1k1k1k1k1k1k1k1k1k1k1k1k1k1k1k1k1k1  e6]']']']']']']']']']'y1k1k1k1k1k1k1k1k1k1k1k1k1k1k1k1k1k1k1k1k1k1k1k1k1k1k1k1k1k1k1k1k1k1k1k1k1k1k1k1k1k1k1k1k1k1k1k1k1k1k1k1k1k1k1k1k1k1k1k1k1k1k1k1k1k1k1k1k1k1k1k1k1k1k1k1k1k1k1k1k1k1k1k1k1k1k1k1k1k1k1k1k1k1k1k1k1k1k1k1k1k1k1k1k1k1k1k1k1k1k1k1k1k1k1k1k1k1k1k1k1k1k1k1k1k1k1k1k1k1k1k1k1k1k1k1k1k1k1k1k1k1k1k1k1k1k1k1k1k1k1k1k1k1$+(3L w x r r e K L7s>                                                                                                                                                                        ",
"                                                                                                                                                                        @ 22e j j r x w )@43k1k1k1k1k1k1k1k1k1k1k1k1k1k1k1k1k1k1k1k1k1k1k1k1k1k1k1k1k1k1k1k1k1k1k1k1k1k1k1k1k1k1k1k1k1k1k1k1k1k1k1k1k1k1k1k1k1k1k1k1k1k1k1k1k1k1k1k1k1k1k1k1k1k1k1k1k1k1k1k1k1k1k1k1k1k1k1k1k1k1k1k1k1k1k1k1k1k1k1k1k1k1k1k1k1k1k1k1k1k1k1k1k1k1k1k1k1k1k1k1k1k1k1k1k1k1k1k1k1k1k1k1k1k1k1k1k1k1k1k1k1k1k1k1k1k1k1k1k1k1k1k1k1k1k1k1k1k1  e6]']']']']']']']'y1k1k1k1k1k1k1k1k1k1k1k1k1k1k1k1k1k1k1k1k1k1k1k1k1k1k1k1k1k1k1k1k1k1k1k1k1k1k1k1k1k1k1k1k1k1k1k1k1k1k1k1k1k1k1k1k1k1k1k1k1k1k1k1k1k1k1k1k1k1k1k1k1k1k1k1k1k1k1k1k1k1k1k1k1k1k1k1k1k1k1k1k1k1k1k1k1k1k1k1k1k1k1k1k1k1k1k1k1k1k1k1k1k1k1k1k1k1k1k1k1k1k1k1k1k1k1k1k1k1k1k1k1k1k1k1k1k1k1k1k1k1k1k1k1k1k1k1k1k1k1k1k1k1k1k1%+.$M7r j e q q ] 1                                                                                                                                                                         ",
"                                                                                                                                                                        C#f e C j x x g'( k1k1k1k1k1k1k1k1k1k1k1k1k1k1k1k1k1k1k1k1k1k1k1k1k1k1k1k1k1k1k1k1k1k1k1k1k1k1k1k1k1k1k1k1k1k1k1k1k1k1k1k1k1k1k1k1k1k1k1k1k1k1k1k1k1k1k1k1k1k1k1k1k1k1k1k1k1k1k1k1k1k1k1k1k1k1k1k1k1k1k1k1k1k1k1k1k1k1k1k1k1k1k1k1k1k1k1k1k1k1k1k1k1k1k1k1k1k1k1k1k1k1k1k1k1k1k1k1k1k1k1k1k1k1k1k1k1k1k1k1k1k1k1k1k1k1k1k1k1k1k1k1k1k1k1k1k1k1k1k1  e6]']']']']']'y1k1k1k1k1k1k1k1k1k1k1k1k1k1k1k1k1k1k1k1k1k1k1k1k1k1k1k1k1k1k1k1k1k1k1k1k1k1k1k1k1k1k1k1k1k1k1k1k1k1k1k1k1k1k1k1k1k1k1k1k1k1k1k1k1k1k1k1k1k1k1k1k1k1k1k1k1k1k1k1k1k1k1k1k1k1k1k1k1k1k1k1k1k1k1k1k1k1k1k1k1k1k1k1k1k1k1k1k1k1k1k1k1k1k1k1k1k1k1k1k1k1k1k1k1k1k1k1k1k1k1k1k1k1k1k1k1k1k1k1k1k1k1k1k1k1k1k1k1k1k1k1k1k1k1k1k1k1k1O N7O7j f f 0 P7                                                                                                                                                                        ",
"                                                                                                                                                                      Q7< < 0 f f R7h@[7k1k1k1k1k1k1k1k1k1k1k1k1k1k1k1k1k1k1k1k1k1k1k1k1k1k1k1k1k1k1k1k1k1k1k1k1k1k1k1k1k1k1k1k1k1k1k1k1k1k1k1k1k1k1k1k1k1k1k1k1k1k1k1k1k1k1k1k1k1k1k1k1k1k1k1k1k1k1k1k1k1k1k1k1k1k1k1k1k1k1k1k1k1k1k1k1k1k1k1k1k1k1k1k1k1k1k1k1k1k1k1k1k1k1k1k1k1k1k1k1k1k1k1k1k1k1k1k1k1k1k1k1k1k1k1k1k1k1k1k1k1k1k1k1k1k1k1k1k1k1k1k1k1k1k1k1k1k1k1k1k1k1  e6]']']']'y1k1k1k1k1k1k1k1k1k1k1k1k1k1k1k1k1k1k1k1k1k1k1k1k1k1k1k1k1k1k1k1k1k1k1k1k1k1k1k1k1k1k1k1k1k1k1k1k1k1k1k1k1k1k1k1k1k1k1k1k1k1k1k1k1k1k1k1k1k1k1k1k1k1k1k1k1k1k1k1k1k1k1k1k1k1k1k1k1k1k1k1k1k1k1k1k1k1k1k1k1k1k1k1k1k1k1k1k1k1k1k1k1k1k1k1k1k1k1k1k1k1k1k1k1k1k1k1k1k1k1k1k1k1k1k1k1k1k1k1k1k1k1k1k1k1k1k1k1k1k1k1k1k1k1k1k1k1k1k1k1675 S7< < K } T7                                                                                                                                                                      ",
"                                                                                                                                                                      < < 0 q 52X|*@k1k1k1k1k1k1k1k1k1k1k1k1k1k1k1k1k1k1k1k1k1k1k1k1k1k1k1k1k1k1k1k1k1k1k1k1k1k1k1k1k1k1k1k1k1k1k1k1k1k1k1k1k1k1k1k1k1k1k1k1k1k1k1k1k1k1k1k1k1k1k1k1k1k1k1k1k1k1k1k1k1k1k1k1k1k1k1k1k1k1k1k1k1k1k1k1k1k1k1k1k1k1k1k1k1k1k1k1k1k1k1k1k1k1k1k1k1k1k1k1k1k1k1k1k1k1k1k1k1k1k1k1k1k1k1k1k1k1k1k1k1k1k1k1k1k1k1k1k1k1k1k1k1k1k1k1k1k1k1k1k1k1k1k1k1  e6]']'y1k1k1k1k1k1k1k1k1k1k1k1k1k1k1k1k1k1k1k1k1k1k1k1k1k1k1k1k1k1k1k1k1k1k1k1k1k1k1k1k1k1k1k1k1k1k1k1k1k1k1k1k1k1k1k1k1k1k1k1k1k1k1k1k1k1k1k1k1k1k1k1k1k1k1k1k1k1k1k1k1k1k1k1k1k1k1k1k1k1k1k1k1k1k1k1k1k1k1k1k1k1k1k1k1k1k1k1k1k1k1k1k1k1k1k1k1k1k1k1k1k1k1k1k1k1k1k1k1k1k1k1k1k1k1k1k1k1k1k1k1k1k1k1k1k1k1k1k1k1k1k1k1k1k1k1k1k1k1k1k1k1k1k1U7` C#[ 2 } 27                                                                                                                                                                    ",
"                                                                                                                                                                    { } } 5'V7*@k1k1k1k1k1k1k1k1k1k1k1k1k1k1k1k1k1k1k1k1k1k1k1k1k1k1k1k1k1k1k1k1k1k1k1k1k1k1k1k1k1k1k1k1k1k1k1k1k1k1k1k1k1k1k1k1k1k1k1k1k1k1k1k1k1k1k1k1k1k1k1k1k1k1k1k1k1k1k1k1k1k1k1k1k1k1k1k1k1k1k1k1k1k1k1k1k1k1k1k1k1k1k1k1k1k1k1k1k1k1k1k1k1k1k1k1k1k1k1k1k1k1k1k1k1k1k1k1k1k1k1k1k1k1k1k1k1k1k1k1k1k1k1k1k1k1k1k1k1k1k1k1k1k1k1k1k1k1k1k1k1k1k1k1k1k1k1k1  e6y1k1k1k1k1k1k1k1k1k1k1k1k1k1k1k1k1k1k1k1k1k1k1k1k1k1k1k1k1k1k1k1k1k1k1k1k1k1k1k1k1k1k1k1k1k1k1k1k1k1k1k1k1k1k1k1k1k1k1k1k1k1k1k1k1k1k1k1k1k1k1k1k1k1k1k1k1k1k1k1k1k1k1k1k1k1k1k1k1k1k1k1k1k1k1k1k1k1k1k1k1k1k1k1k1k1k1k1k1k1k1k1k1k1k1k1k1k1k1k1k1k1k1k1k1k1k1k1k1k1k1k1k1k1k1k1k1k1k1k1k1k1k1k1k1k1k1k1k1k1k1k1k1k1k1k1k1k1k1k1k1k1k1k1k1k1k1#+7*W7+'X7Y7                                                                                                                                                                  ",
"                                                                                                                                                                , Z7e7`7 8[#  k1k1k1k1k1k1k1k1k1k1k1k1k1k1k1k1k1k1k1k1k1k1k1k1k1k1k1k1k1k1k1k1k1k1k1k1k1k1k1k1k1k1k1k1k1k1k1k1k1k1k1k1k1k1k1k1k1k1k1k1k1k1k1k1k1k1k1k1k1k1k1k1k1k1k1k1k1k1k1k1k1k1k1k1k1k1k1k1k1k1k1k1k1k1k1k1k1k1k1k1k1k1k1k1k1k1k1k1k1k1k1k1k1k1k1k1k1k1k1k1k1k1k1k1k1k1k1k1k1k1k1k1k1k1k1k1k1k1k1k1k1k1k1k1k1k1k1k1k1k1k1k1k1k1k1k1k1k1k1k1k1k1k1k1k1k1k1k1k1k1.8k1k1k1k1k1k1k1k1k1k1k1k1k1k1k1k1k1k1k1k1k1k1k1k1k1k1k1k1k1k1k1k1k1k1k1k1k1k1k1k1k1k1k1k1k1k1k1k1k1k1k1k1k1k1k1k1k1k1k1k1k1k1k1k1k1k1k1k1k1k1k1k1k1k1k1k1k1k1k1k1k1k1k1k1k1k1k1k1k1k1k1k1k1k1k1k1k1k1k1k1k1k1k1k1k1k1k1k1k1k1k1k1k1k1k1k1k1k1k1k1k1k1k1k1k1k1k1k1k1k1k1k1k1k1k1k1k1k1k1k1k1k1k1k1k1k1k1k1k1k1k1k1k1k1k1k1k1k1k1k1k1k1k1k1k1k167( | ,5+8c1C2                                                                                                                                                                  ",
"                                                                                                                                                                <#,;5 ` ) s>    k1k1k1k1k1k1k1k1k1k1k1k1k1k1k1k1k1k1k1k1k1k1k1k1k1k1k1k1k1k1k1k1k1k1k1k1k1k1k1k1k1k1k1k1k1k1k1k1k1k1k1k1k1k1k1k1k1k1k1k1k1k1k1k1k1k1k1k1k1k1k1k1k1k1k1k1k1k1k1k1k1k1k1k1k1k1k1k1k1k1k1k1k1k1k1k1k1k1k1k1k1k1k1k1k1k1k1k1k1k1k1k1k1k1k1k1k1k1k1k1k1k1k1k1k1k1k1k1k1k1k1k1k1k1k1k1k1k1k1k1k1k1k1k1k1k1k1k1k1k1k1k1k1k1k1k1k1k1k1k1k1k1k1k1k1k1k1k1@8#8$8k1k1k1k1k1k1k1k1k1k1k1k1k1k1k1k1k1k1k1k1k1k1k1k1k1k1k1k1k1k1k1k1k1k1k1k1k1k1k1k1k1k1k1k1k1k1k1k1k1k1k1k1k1k1k1k1k1k1k1k1k1k1k1k1k1k1k1k1k1k1k1k1k1k1k1k1k1k1k1k1k1k1k1k1k1k1k1k1k1k1k1k1k1k1k1k1k1k1k1k1k1k1k1k1k1k1k1k1k1k1k1k1k1k1k1k1k1k1k1k1k1k1k1k1k1k1k1k1k1k1k1k1k1k1k1k1k1k1k1k1k1k1k1k1k1k1k1k1k1k1k1k1k1k1k1k1k1k1k1k1k1k1k1%8*@&2&8} { ,                                                                                                                                                                       ",
"                                                                                                                                                                      { ] *856_   k1k1k1k1k1k1k1k1k1k1k1k1k1k1k1k1k1k1k1k1k1k1k1k1k1k1k1k1k1k1k1k1k1k1k1k1k1k1k1k1k1k1k1k1k1k1k1k1k1k1k1k1k1k1k1k1k1k1k1k1k1k1k1k1k1k1k1k1k1k1k1k1k1k1k1k1k1k1k1k1k1k1k1k1k1k1k1k1k1k1k1k1k1k1k1k1k1k1k1k1k1k1k1k1k1k1k1k1k1k1k1k1k1k1k1k1k1k1k1k1k1k1k1k1k1k1k1k1k1k1k1k1k1k1k1k1k1k1k1k1k1k1k1k1k1k1k1k1k1k1k1k1k1k1k1k1k1k1k1k1k1k1k1k1k1k1@8=8=8-8k1k1k1k1k1k1k1k1k1k1k1k1k1k1k1k1k1k1k1k1k1k1k1k1k1k1k1k1k1k1k1k1k1k1k1k1k1k1k1k1k1k1k1k1k1k1k1k1k1k1k1k1k1k1k1k1k1k1k1k1k1k1k1k1k1k1k1k1k1k1k1k1k1k1k1k1k1k1k1k1k1k1k1k1k1k1k1k1k1k1k1k1k1k1k1k1k1k1k1k1k1k1k1k1k1k1k1k1k1k1k1k1k1k1k1k1k1k1k1k1k1k1k1k1k1k1k1k1k1k1k1k1k1k1k1k1k1k1k1k1k1k1k1k1k1k1k1k1k1k1k1k1k1k1k1k1k1k1k1k1k1k1. G4;8< < [ } y)                                                                                                                                                                      ",
"                                                                                                                                                                        ] } } >8o>[#k1k1k1k1k1k1k1k1k1k1k1k1k1k1k1k1k1k1k1k1k1k1k1k1k1k1k1k1k1k1k1k1k1k1k1k1k1k1k1k1k1k1k1k1k1k1k1k1k1k1k1k1k1k1k1k1k1k1k1k1k1k1k1k1k1k1k1k1k1k1k1k1k1k1k1k1k1k1k1k1k1k1k1k1k1k1k1k1k1k1k1k1k1k1k1k1k1k1k1k1k1k1k1k1k1k1k1k1k1k1k1k1k1k1k1k1k1k1k1k1k1k1k1k1k1k1k1k1k1k1k1k1k1k1k1k1k1k1k1k1k1k1k1k1k1k1k1k1k1k1k1k1k1k1k1k1k1k1k1k1k1k1k1k1@8=8=8=8=8-8k1k1k1k1k1k1k1k1k1k1k1k1k1k1k1k1k1k1k1k1k1k1k1k1k1k1k1k1k1k1k1k1k1k1k1k1k1k1k1k1k1k1k1k1k1k1k1k1k1k1k1k1k1k1k1k1k1k1k1k1k1k1k1k1k1k1k1k1k1k1k1k1k1k1k1k1k1k1k1k1k1k1k1k1k1k1k1k1k1k1k1k1k1k1k1k1k1k1k1k1k1k1k1k1k1k1k1k1k1k1k1k1k1k1k1k1k1k1k1k1k1k1k1k1k1k1k1k1k1k1k1k1k1k1k1k1k1k1k1k1k1k1k1k1k1k1k1k1k1k1k1k1k1k1k1k1k1k1k1# m ,8q q < < K B7                                                                                                                                                                        ",
"                                                                                                                                                                        !'< < f f '8)8= k1k1k1k1k1k1k1k1k1k1k1k1k1k1k1k1k1k1k1k1k1k1k1k1k1k1k1k1k1k1k1k1k1k1k1k1k1k1k1k1k1k1k1k1k1k1k1k1k1k1k1k1k1k1k1k1k1k1k1k1k1k1k1k1k1k1k1k1k1k1k1k1k1k1k1k1k1k1k1k1k1k1k1k1k1k1k1k1k1k1k1k1k1k1k1k1k1k1k1k1k1k1k1k1k1k1k1k1k1k1k1k1k1k1k1k1k1k1k1k1k1k1k1k1k1k1k1k1k1k1k1k1k1k1k1k1k1k1k1k1k1k1k1k1k1k1k1k1k1k1k1k1k1k1k1k1k1k1k1k1k1@8=8=8=8=8=8=8-8k1k1k1k1k1k1k1k1k1k1k1k1k1k1k1k1k1k1k1k1k1k1k1k1k1k1k1k1k1k1k1k1k1k1k1k1k1k1k1k1k1k1k1k1k1k1k1k1k1k1k1k1k1k1k1k1k1k1k1k1k1k1k1k1k1k1k1k1k1k1k1k1k1k1k1k1k1k1k1k1k1k1k1k1k1k1k1k1k1k1k1k1k1k1k1k1k1k1k1k1k1k1k1k1k1k1k1k1k1k1k1k1k1k1k1k1k1k1k1k1k1k1k1k1k1k1k1k1k1k1k1k1k1k1k1k1k1k1k1k1k1k1k1k1k1k1k1k1k1k1k1k1k1k1k1k1k1. F r r j e f f !8                                                                                                                                                                          ",
"                                                                                                                                                                          ~8< 0 0 f e 0.s>k1k1k1k1k1k1k1k1k1k1k1k1k1k1k1k1k1k1k1k1k1k1k1k1k1k1k1k1k1k1k1k1k1k1k1k1k1k1k1k1k1k1k1k1k1k1k1k1k1k1k1k1k1k1k1k1k1k1k1k1k1k1k1k1k1k1k1k1k1k1k1k1k1k1k1k1k1k1k1k1k1k1k1k1k1k1k1k1k1k1k1k1k1k1k1k1k1k1k1k1k1k1k1k1k1k1k1k1k1k1k1k1k1k1k1k1k1k1k1k1k1k1k1k1k1k1k1k1k1k1k1k1k1k1k1k1k1k1k1k1k1k1k1k1k1k1k1k1k1k1k1k1k1k1k1k1k1k1k1@8=8=8=8=8=8=8=8=8-8k1k1k1k1k1k1k1k1k1k1k1k1k1k1k1k1k1k1k1k1k1k1k1k1k1k1k1k1k1k1k1k1k1k1k1k1k1k1k1k1k1k1k1k1k1k1k1k1k1k1k1k1k1k1k1k1k1k1k1k1k1k1k1k1k1k1k1k1k1k1k1k1k1k1k1k1k1k1k1k1k1k1k1k1k1k1k1k1k1k1k1k1k1k1k1k1k1k1k1k1k1k1k1k1k1k1k1k1k1k1k1k1k1k1k1k1k1k1k1k1k1k1k1k1k1k1k1k1k1k1k1k1k1k1k1k1k1k1k1k1k1k1k1k1k1k1k1k1k1k1k1k1k1k1{8f+]8x G j e e q ^8/8                                                                                                                                                                          ",
"                                                                                                                                                                          ;=m;e e j r x (8_8# k1k1k1k1k1k1k1k1k1k1k1k1k1k1k1k1k1k1k1k1k1k1k1k1k1k1k1k1k1k1k1k1k1k1k1k1k1k1k1k1k1k1k1k1k1k1k1k1k1k1k1k1k1k1k1k1k1k1k1k1k1k1k1k1k1k1k1k1k1k1k1k1k1k1k1k1k1k1k1k1k1k1k1k1k1k1k1k1k1k1k1k1k1k1k1k1k1k1k1k1k1k1k1k1k1k1k1k1k1k1k1k1k1k1k1k1k1k1k1k1k1k1k1k1k1k1k1k1k1k1k1k1k1k1k1k1k1k1k1k1k1k1k1k1k1k1k1k1k1k1k1k1k1k1k1k1@8=8=8=8=8=8=8=8=8=8=8-8k1k1k1k1k1k1k1k1k1k1k1k1k1k1k1k1k1k1k1k1k1k1k1k1k1k1k1k1k1k1k1k1k1k1k1k1k1k1k1k1k1k1k1k1k1k1k1k1k1k1k1k1k1k1k1k1k1k1k1k1k1k1k1k1k1k1k1k1k1k1k1k1k1k1k1k1k1k1k1k1k1k1k1k1k1k1k1k1k1k1k1k1k1k1k1k1k1k1k1k1k1k1k1k1k1k1k1k1k1k1k1k1k1k1k1k1k1k1k1k1k1k1k1k1k1k1k1k1k1k1k1k1k1k1k1k1k1k1k1k1k1k1k1k1k1k1k1k1k1k1k1k1= :8R L v w x r r { 42                                                                                                                                                                            ",
"                                                                                                                                                                          ^.R&] e j G x x w <8*@k1k1k1k1k1k1k1k1k1k1k1k1k1k1k1k1k1k1k1k1k1k1k1k1k1k1k1k1k1k1k1k1k1k1k1k1k1k1k1k1k1k1k1k1k1k1k1k1k1k1k1k1k1k1k1k1k1k1k1k1k1k1k1k1k1k1k1k1k1k1k1k1k1k1k1k1k1k1k1k1k1k1k1k1k1k1k1k1k1k1k1k1k1k1k1k1k1k1k1k1k1k1k1k1k1k1k1k1k1k1k1k1k1k1k1k1k1k1k1k1k1k1k1k1k1k1k1k1k1k1k1k1k1k1k1k1k1k1k1k1k1k1k1k1k1k1k1k1k1k1k1k1k1k1@8=8=8=8=8=8=8=8=8=8=8=8=8-8k1k1k1k1k1k1k1k1k1k1k1k1k1k1k1k1k1k1k1k1k1k1k1k1k1k1k1k1k1k1k1k1k1k1k1k1k1k1k1k1k1k1k1k1k1k1k1k1k1k1k1k1k1k1k1k1k1k1k1k1k1k1k1k1k1k1k1k1k1k1k1k1k1k1k1k1k1k1k1k1k1k1k1k1k1k1k1k1k1k1k1k1k1k1k1k1k1k1k1k1k1k1k1k1k1k1k1k1k1k1k1k1k1k1k1k1k1k1k1k1k1k1k1k1k1k1k1k1k1k1k1k1k1k1k1k1k1k1k1k1k1k1k1k1k1k1k1k1k1%8[8}8R R L v w x r { +*8.                                                                                                                                                                            ",
"                                                                                                                                                                          Q+|8, } x x v L R R 18_728k1k1k1k1k1k1k1k1k1k1k1k1k1k1k1k1k1k1k1k1k1k1k1k1k1k1k1k1k1k1k1k1k1k1k1k1k1k1k1k1k1k1k1k1k1k1k1k1k1k1k1k1k1k1k1k1k1k1k1k1k1k1k1k1k1k1k1k1k1k1k1k1k1k1k1k1k1k1k1k1k1k1k1k1k1k1k1k1k1k1k1k1k1k1k1k1k1k1k1k1k1k1k1k1k1k1k1k1k1k1k1k1k1k1k1k1k1k1k1k1k1k1k1k1k1k1k1k1k1k1k1k1k1k1k1k1k1k1k1k1k1k1k1k1k1k1k1k1k1k1k1@8=8=8=8=8=8=8=8=8=8=8=8=8=8=8-8k1k1k1k1k1k1k1k1k1k1k1k1k1k1k1k1k1k1k1k1k1k1k1k1k1k1k1k1k1k1k1k1k1k1k1k1k1k1k1k1k1k1k1k1k1k1k1k1k1k1k1k1k1k1k1k1k1k1k1k1k1k1k1k1k1k1k1k1k1k1k1k1k1k1k1k1k1k1k1k1k1k1k1k1k1k1k1k1k1k1k1k1k1k1k1k1k1k1k1k1k1k1k1k1k1k1k1k1k1k1k1k1k1k1k1k1k1k1k1k1k1k1k1k1k1k1k1k1k1k1k1k1k1k1k1k1k1k1k1k1k1k1k1k1k1k1k16$,.#.#.Q Q R R 38T@48583=5                                                                                                                                                                             ",
"                                                                                                                                                                          ^.68R&R&} x w w R R -.-.7888k1k1k1k1k1k1k1k1k1k1k1k1k1k1k1k1k1k1k1k1k1k1k1k1k1k1k1k1k1k1k1k1k1k1k1k1k1k1k1k1k1k1k1k1k1k1k1k1k1k1k1k1k1k1k1k1k1k1k1k1k1k1k1k1k1k1k1k1k1k1k1k1k1k1k1k1k1k1k1k1k1k1k1k1k1k1k1k1k1k1k1k1k1k1k1k1k1k1k1k1k1k1k1k1k1k1k1k1k1k1k1k1k1k1k1k1k1k1k1k1k1k1k1k1k1k1k1k1k1k1k1k1k1k1k1k1k1k1k1k1k1k1k1k1k1k1k1k1k1@8=8=8=8=8=8=8=8=8=8=8=8=8=8=8=8=8-8k1k1k1k1k1k1k1k1k1k1k1k1k1k1k1k1k1k1k1k1k1k1k1k1k1k1k1k1k1k1k1k1k1k1k1k1k1k1k1k1k1k1k1k1k1k1k1k1k1k1k1k1k1k1k1k1k1k1k1k1k1k1k1k1k1k1k1k1k1k1k1k1k1k1k1k1k1k1k1k1k1k1k1k1k1k1k1k1k1k1k1k1k1k1k1k1k1k1k1k1k1k1k1k1k1k1k1k1k1k1k1k1k1k1k1k1k1k1k1k1k1k1k1k1k1k1k1k1k1k1k1k1k1k1k1k1k1k1k1k1k1k1k1k1k1<+98@.#.|.-.-.08a8b8c8)'d8$;j5a,                                                                                                                                                                          ",
"                                                                                                                                                                          y.Q&, R&, 2 R R Q Q Q |.@.=~3#k1k1k1k1k1k1k1k1k1k1k1k1k1k1k1k1k1k1k1k1k1k1k1k1k1k1k1k1k1k1k1k1k1k1k1k1k1k1k1k1k1k1k1k1k1k1k1k1k1k1k1k1k1k1k1k1k1k1k1k1k1k1k1k1k1k1k1k1k1k1k1k1k1k1k1k1k1k1k1k1k1k1k1k1k1k1k1k1k1k1k1k1k1k1k1k1k1k1k1k1k1k1k1k1k1k1k1k1k1k1k1k1k1k1k1k1k1k1k1k1k1k1k1k1k1k1k1k1k1k1k1k1k1k1k1k1k1k1k1k1k1k1k1k1k1k1k1@8=8=8=8=8=8=8=8=8=8=8=8=8=8=8=8=8=8=8-8k1k1k1k1k1k1k1k1k1k1k1k1k1k1k1k1k1k1k1k1k1k1k1k1k1k1k1k1k1k1k1k1k1k1k1k1k1k1k1k1k1k1k1k1k1k1k1k1k1k1k1k1k1k1k1k1k1k1k1k1k1k1k1k1k1k1k1k1k1k1k1k1k1k1k1k1k1k1k1k1k1k1k1k1k1k1k1k1k1k1k1k1k1k1k1k1k1k1k1k1k1k1k1k1k1k1k1k1k1k1k1k1k1k1k1k1k1k1k1k1k1k1k1k1k1k1k1k1k1k1k1k1k1k1k1k1k1k1k1k1k1k1%8e8m7{.{.%.@.f8g8g#t@q7< } } { { s&                                                                                                                                                                          ",
"                                                                                                                                                                          o=h8I&_;i8' [ R -.Q Q |.@.@.j8k8[7k1k1k1k1k1k1k1k1k1k1k1k1k1k1k1k1k1k1k1k1k1k1k1k1k1k1k1k1k1k1k1k1k1k1k1k1k1k1k1k1k1k1k1k1k1k1k1k1k1k1k1k1k1k1k1k1k1k1k1k1k1k1k1k1k1k1k1k1k1k1k1k1k1k1k1k1k1k1k1k1k1k1k1k1k1k1k1k1k1k1k1k1k1k1k1k1k1k1k1k1k1k1k1k1k1k1k1k1k1k1k1k1k1k1k1k1k1k1k1k1k1k1k1k1k1k1k1k1k1k1k1k1k1k1k1k1k1k1k1k1k1k1k1k1@8=8=8=8=8=8=8=8=8=8=8=8=8=8=8=8=8=8=8=8=8-8k1k1k1k1k1k1k1k1k1k1k1k1k1k1k1k1k1k1k1k1k1k1k1k1k1k1k1k1k1k1k1k1k1k1k1k1k1k1k1k1k1k1k1k1k1k1k1k1k1k1k1k1k1k1k1k1k1k1k1k1k1k1k1k1k1k1k1k1k1k1k1k1k1k1k1k1k1k1k1k1k1k1k1k1k1k1k1k1k1k1k1k1k1k1k1k1k1k1k1k1k1k1k1k1k1k1k1k1k1k1k1k1k1k1k1k1k1k1k1k1k1k1k1k1k1k1k1k1k1k1k1k1k1k1k1k1k1k1k1k16$3~(.(.{.{.l8G#w7j$5'q < < } } { 8                                                                                                                                                                             ",
"                                                                                                                                                                          {2m8n8B2o8C2p8B q8#.@.@.{.{.(.(.r8o6k1k1k1k1k1k1k1k1k1k1k1k1k1k1k1k1k1k1k1k1k1k1k1k1k1k1k1k1k1k1k1k1k1k1k1k1k1k1k1k1k1k1k1k1k1k1k1k1k1k1k1k1k1k1k1k1k1k1k1k1k1k1k1k1k1k1k1k1k1k1k1k1k1k1k1k1k1k1k1k1k1k1k1k1k1k1k1k1k1k1k1k1k1k1k1k1k1k1k1k1k1k1k1k1k1k1k1k1k1k1k1k1k1k1k1k1k1k1k1k1k1k1k1k1k1k1k1k1k1k1k1k1k1k1k1k1k1k1k1k1k1k1@8=8=8=8=8=8=8=8=8=8=8=8=8=8=8=8=8=8=8=8=8=8=8-8k1k1k1k1k1k1k1k1k1k1k1k1k1k1k1k1k1k1k1k1k1k1k1k1k1k1k1k1k1k1k1k1k1k1k1k1k1k1k1k1k1k1k1k1k1k1k1k1k1k1k1k1k1k1k1k1k1k1k1k1k1k1k1k1k1k1k1k1k1k1k1k1k1k1k1k1k1k1k1k1k1k1k1k1k1k1k1k1k1k1k1k1k1k1k1k1k1k1k1k1k1k1k1k1k1k1k1k1k1k1k1k1k1k1k1k1k1k1k1k1k1k1k1k1k1k1k1k1k1k1k1k1k1k1k1k1k1k1B.s8a.4.5.(.t8_81|[4r j e f f < < m;_,                                                                                                                                                                            ",
"                                                                                                                                                                          u8R&{ { } } v8*'` w,w8#.{.{.~.i.5.x8t.k1k1k1k1k1k1k1k1k1k1k1k1k1k1k1k1k1k1k1k1k1k1k1k1k1k1k1k1k1k1k1k1k1k1k1k1k1k1k1k1k1k1k1k1k1k1k1k1k1k1k1k1k1k1k1k1k1k1k1k1k1k1k1k1k1k1k1k1k1k1k1k1k1k1k1k1k1k1k1k1k1k1k1k1k1k1k1k1k1k1k1k1k1k1k1k1k1k1k1k1k1k1k1k1k1k1k1k1k1k1k1k1k1k1k1k1k1k1k1k1k1k1k1k1k1k1k1k1k1k1k1k1k1k1k1k1k1k1k1k1@8=8=8=8=8=8=8=8=8=8=8=8=8=8=8=8=8=8=8=8=8=8=8=8=8-8k1k1k1k1k1k1k1k1k1k1k1k1k1k1k1k1k1k1k1k1k1k1k1k1k1k1k1k1k1k1k1k1k1k1k1k1k1k1k1k1k1k1k1k1k1k1k1k1k1k1k1k1k1k1k1k1k1k1k1k1k1k1k1k1k1k1k1k1k1k1k1k1k1k1k1k1k1k1k1k1k1k1k1k1k1k1k1k1k1k1k1k1k1k1k1k1k1k1k1k1k1k1k1k1k1k1k1k1k1k1k1k1k1k1k1k1k1k1k1k1k1k1k1k1k1k1k1k1k1k1k1k1k1k1k1k1y8z8a.4.5.A8B8C84)w G G e e q 0 < ] R&i5                                                                                                                                                                            ",
"                                                                                                                                                                        o;<,s&, { < < f f D8~'E8q}F8(.5.5.4.a.G8H8o7k1k1k1k1k1k1k1k1k1k1k1k1k1k1k1k1k1k1k1k1k1k1k1k1k1k1k1k1k1k1k1k1k1k1k1k1k1k1k1k1k1k1k1k1k1k1k1k1k1k1k1k1k1k1k1k1k1k1k1k1k1k1k1k1k1k1k1k1k1k1k1k1k1k1k1k1k1k1k1k1k1k1k1k1k1k1k1k1k1k1k1k1k1k1k1k1k1k1k1k1k1k1k1k1k1k1k1k1k1k1k1k1k1k1k1k1k1k1k1k1k1k1k1k1k1k1k1k1k1k1k1k1k1k1k1k1k1@8=8=8=8=8=8=8=8=8=8=8=8=8=8=8=8=8=8=8=8=8=8=8=8=8=8=8I8k1k1k1k1k1k1k1k1k1k1k1k1k1k1k1k1k1k1k1k1k1k1k1k1k1k1k1k1k1k1k1k1k1k1k1k1k1k1k1k1k1k1k1k1k1k1k1k1k1k1k1k1k1k1k1k1k1k1k1k1k1k1k1k1k1k1k1k1k1k1k1k1k1k1k1k1k1k1k1k1k1k1k1k1k1k1k1k1k1k1k1k1k1k1k1k1k1k1k1k1k1k1k1k1k1k1k1k1k1k1k1k1k1k1k1k1k1k1k1k1k1k1k1k1k1k1k1k1k1k1k1k1k1E7J8P.n.r.v.4+O@K8R R L w x r r e e } , R&L8Z                                                                                                                                                                           ",
"                                                                                                                                                                        0&M8R&R&R&} < q q e j r ~'[8N8O85.4.a.v.v.7~6$k1k1k1k1k1k1k1k1k1k1k1k1k1k1k1k1k1k1k1k1k1k1k1k1k1k1k1k1k1k1k1k1k1k1k1k1k1k1k1k1k1k1k1k1k1k1k1k1k1k1k1k1k1k1k1k1k1k1k1k1k1k1k1k1k1k1k1k1k1k1k1k1k1k1k1k1k1k1k1k1k1k1k1k1k1k1k1k1k1k1k1k1k1k1k1k1k1k1k1k1k1k1k1k1k1k1k1k1k1k1k1k1k1k1k1k1k1k1k1k1k1k1k1k1k1k1k1k1k1k1k1k1k1k1k1@8=8=8=8=8=8=8=8=8=8=8=8=8=8=8=8=8=8=8=8=8=8=8=8=8=8=8=8=8I8k1k1k1k1k1k1k1k1k1k1k1k1k1k1k1k1k1k1k1k1k1k1k1k1k1k1k1k1k1k1k1k1k1k1k1k1k1k1k1k1k1k1k1k1k1k1k1k1k1k1k1k1k1k1k1k1k1k1k1k1k1k1k1k1k1k1k1k1k1k1k1k1k1k1k1k1k1k1k1k1k1k1k1k1k1k1k1k1k1k1k1k1k1k1k1k1k1k1k1k1k1k1k1k1k1k1k1k1k1k1k1k1k1k1k1k1k1k1k1k1k1k1k1k1k1k1k1k1k1k1k1Z+P8E.P.n.Q8R8'}S8R R R L w x r r e [ R&R&R&R&+                                                                                                                                                                           ",
"                                                                                                                                                                        {2, s&, s&, < j j r r w w T8U8V8W8v.r.n.n.E.X8Z+k1k1k1k1k1k1k1k1k1k1k1k1k1k1k1k1k1k1k1k1k1k1k1k1k1k1k1k1k1k1k1k1k1k1k1k1k1k1k1k1k1k1k1k1k1k1k1k1k1k1k1k1k1k1k1k1k1k1k1k1k1k1k1k1k1k1k1k1k1k1k1k1k1k1k1k1k1k1k1k1k1k1k1k1k1k1k1k1k1k1k1k1k1k1k1k1k1k1k1k1k1k1k1k1k1k1k1k1k1k1k1k1k1k1k1k1k1k1k1k1k1k1k1k1k1k1k1k1k1k1k1k1k1@8=8=8=8=8=8=8=8=8=8=8=8=8=8=8=8=8=8=8=8=8=8=8=8=8=8=8=8=8=8=8I8k1k1k1k1k1k1k1k1k1k1k1k1k1k1k1k1k1k1k1k1k1k1k1k1k1k1k1k1k1k1k1k1k1k1k1k1k1k1k1k1k1k1k1k1k1k1k1k1k1k1k1k1k1k1k1k1k1k1k1k1k1k1k1k1k1k1k1k1k1k1k1k1k1k1k1k1k1k1k1k1k1k1k1k1k1k1k1k1k1k1k1k1k1k1k1k1k1k1k1k1k1k1k1k1k1k1k1k1k1k1k1k1k1k1k1k1k1k1k1k1k1k1k1k1k1k1k1k1k1w+Y8Q.Q.H.b{C6Z8@.@.Q Q Q o.R L w w < , s&, s&, `8                                                                                                                                                                          ",
"                                                                                                                                                                       9|>R&R&R&R&R&R&< e G r w w L R .9+9@9#9n.n.E.E.$9S*k1k1k1k1k1k1k1k1k1k1k1k1k1k1k1k1k1k1k1k1k1k1k1k1k1k1k1k1k1k1k1k1k1k1k1k1k1k1k1k1k1k1k1k1k1k1k1k1k1k1k1k1k1k1k1k1k1k1k1k1k1k1k1k1k1k1k1k1k1k1k1k1k1k1k1k1k1k1k1k1k1k1k1k1k1k1k1k1k1k1k1k1k1k1k1k1k1k1k1k1k1k1k1k1k1k1k1k1k1k1k1k1k1k1k1k1k1k1k1k1k1k1k1k1k1k1k1k1k1k1k1@8=8=8=8=8=8=8=8=8=8=8=8=8=8=8=8=8=8=8=8=8=8=8=8=8=8=8=8=8=8=8=8=8I8k1k1k1k1k1k1k1k1k1k1k1k1k1k1k1k1k1k1k1k1k1k1k1k1k1k1k1k1k1k1k1k1k1k1k1k1k1k1k1k1k1k1k1k1k1k1k1k1k1k1k1k1k1k1k1k1k1k1k1k1k1k1k1k1k1k1k1k1k1k1k1k1k1k1k1k1k1k1k1k1k1k1k1k1k1k1k1k1k1k1k1k1k1k1k1k1k1k1k1k1k1k1k1k1k1k1k1k1k1k1k1k1k1k1k1k1k1k1k1k1k1k1k1k1k1k1k1r@%9Q.Q.&9*9C.=9%.#.#.Q Q R R v w x < R&R&R&R&R&R&v-<#                                                                                                                                                                        ",
"                                                                                                                                                                      y.n,, R&, R&, R&, 0 x w L R R -.Q Q -9*.g{E.Q.Q.Q.T%*&q4k1k1k1k1k1k1k1k1k1k1k1k1k1k1k1k1k1k1k1k1k1k1k1k1k1k1k1k1k1k1k1k1k1k1k1k1k1k1k1k1k1k1k1k1k1k1k1k1k1k1k1k1k1k1k1k1k1k1k1k1k1k1k1k1k1k1k1k1k1k1k1k1k1k1k1k1k1k1k1k1k1k1k1k1k1k1k1k1k1k1k1k1k1k1k1k1k1k1k1k1k1k1k1k1k1k1k1k1k1k1k1k1k1k1k1k1k1k1k1k1k1k1k1k1k1k1k1k1@8=8=8=8=8=8=8=8=8=8=8=8=8=8=8=8=8=8=8=8=8=8=8=8=8=8=8=8=8=8=8=8=8=8=8I8k1k1k1k1k1k1k1k1k1k1k1k1k1k1k1k1k1k1k1k1k1k1k1k1k1k1k1k1k1k1k1k1k1k1k1k1k1k1k1k1k1k1k1k1k1k1k1k1k1k1k1k1k1k1k1k1k1k1k1k1k1k1k1k1k1k1k1k1k1k1k1k1k1k1k1k1k1k1k1k1k1k1k1k1k1k1k1k1k1k1k1k1k1k1k1k1k1k1k1k1k1k1k1k1k1k1k1k1k1k1k1k1k1k1k1k1k1k1k1k1k1k1k1k1L5L[;9;+V.>9,9'95.~.~.{.{.#.#.Q Q R R f , R&, R&, R&, R&58                                                                                                                                                                        ",
"                                                                                                                                                                      $2R&R&R&R&R&R&R&R&R&f w L R R -.Q Q #.)91.!7;7Q.Q.}+V.!9o6k1k1k1k1k1k1k1k1k1k1k1k1k1k1k1k1k1k1k1k1k1k1k1k1k1k1k1k1k1k1k1k1k1k1k1k1k1k1k1k1k1k1k1k1k1k1k1k1k1k1k1k1k1k1k1k1k1k1k1k1k1k1k1k1k1k1k1k1k1k1k1k1k1k1k1k1k1k1k1k1k1k1k1k1k1k1k1k1k1k1k1k1k1k1k1k1k1k1k1k1k1k1k1k1k1k1k1k1k1k1k1k1k1k1k1k1k1k1k1k1k1k1k1k1k1k1@8=8=8=8=8=8=8=8=8=8=8=8=8=8=8=8=8=8=8=8=8=8=8=8=8=8=8=8=8=8=8=8=8=8=8=8=8I8k1k1k1k1k1k1k1k1k1k1k1k1k1k1k1k1k1k1k1k1k1k1k1k1k1k1k1k1k1k1k1k1k1k1k1k1k1k1k1k1k1k1k1k1k1k1k1k1k1k1k1k1k1k1k1k1k1k1k1k1k1k1k1k1k1k1k1k1k1k1k1k1k1k1k1k1k1k1k1k1k1k1k1k1k1k1k1k1k1k1k1k1k1k1k1k1k1k1k1k1k1k1k1k1k1k1k1k1k1k1k1k1k1k1k1k1k1k1k1k1k1k1P{:#=+=+;+P6H8~95.5.~.~.{.{.#.#.Q Q R f R&R&R&R&R&R&R&R&R&2717                                                                                                                                                                      ",
"                                                                                                                                                                    0&~ s&, s&, s&, s&, s&, j o.-.Q Q @.@.{.{.(.{992}-V.V.>+>+]9u#k1k1k1k1k1k1k1k1k1k1k1k1k1k1k1k1k1k1k1k1k1k1k1k1k1k1k1k1k1k1k1k1k1k1k1k1k1k1k1k1k1k1k1k1k1k1k1k1k1k1k1k1k1k1k1k1k1k1k1k1k1k1k1k1k1k1k1k1k1k1k1k1k1k1k1k1k1k1k1k1k1k1k1k1k1k1k1k1k1k1k1k1k1k1k1k1k1k1k1k1k1k1k1k1k1k1k1k1k1k1k1k1k1k1k1k1k1k1k1k1k1k1k1k1@8=8=8=8=8=8=8=8=8=8=8=8=8=8=8=8=8=8=8=8=8=8=8=8=8=8=8=8=8=8=8=8=8=8=8=8=8=8=8I8k1k1k1k1k1k1k1k1k1k1k1k1k1k1k1k1k1k1k1k1k1k1k1k1k1k1k1k1k1k1k1k1k1k1k1k1k1k1k1k1k1k1k1k1k1k1k1k1k1k1k1k1k1k1k1k1k1k1k1k1k1k1k1k1k1k1k1k1k1k1k1k1k1k1k1k1k1k1k1k1k1k1k1k1k1k1k1k1k1k1k1k1k1k1k1k1k1k1k1k1k1k1k1k1k1k1k1k1k1k1k1k1k1k1k1k1k1k1k1k1^9t]F+d+W*I6/9.{v.a.a.5.5.(.~.{.{.@.@.j , s&, s&, s&, s&, s&, t+                                                                                                                                                                      ",
"                                                                                                                                                                    p7R&R&R&R&R&R&R&R&R&R&R&R&j R Q Q #.#.{.{.~.~.(+(9X&_9=+=+e+F@:9k1k1k1k1k1k1k1k1k1k1k1k1k1k1k1k1k1k1k1k1k1k1k1k1k1k1k1k1k1k1k1k1k1k1k1k1k1k1k1k1k1k1k1k1k1k1k1k1k1k1k1k1k1k1k1k1k1k1k1k1k1k1k1k1k1k1k1k1k1k1k1k1k1k1k1k1k1k1k1k1k1k1k1k1k1k1k1k1k1k1k1k1k1k1k1k1k1k1k1k1k1k1k1k1k1k1k1k1k1k1k1k1k1k1k1k1k1k1k1k1k1k1@8=8=8=8=8=8=8=8=8=8=8=8=8=8=8=8=8=8=8=8=8=8=8=8=8=8=8=8=8=8=8=8=8=8=8=8=8=8=8=8=8I8k1k1k1k1k1k1k1k1k1k1k1k1k1k1k1k1k1k1k1k1k1k1k1k1k1k1k1k1k1k1k1k1k1k1k1k1k1k1k1k1k1k1k1k1k1k1k1k1k1k1k1k1k1k1k1k1k1k1k1k1k1k1k1k1k1k1k1k1k1k1k1k1k1k1k1k1k1k1k1k1k1k1k1k1k1k1k1k1k1k1k1k1k1k1k1k1k1k1k1k1k1k1k1k1k1k1k1k1k1k1k1k1k1k1k1k1k1k1S-i2H+H+F1F;<9n.v.v.a.4.5.(.i.i.{.%.#.j R&R&R&R&R&R&R&R&R&R&R&R&i8h,                                                                                                                                                                    ",
"                                                                                                                                                                  0&[9, R&, s&, R&, R&, R&, s&, r #.@.{.{.~.(.5.5.a.a.}9x@|9d+F+H+19<*k1k1k1k1k1k1k1k1k1k1k1k1k1k1k1k1k1k1k1k1k1k1k1k1k1k1k1k1k1k1k1k1k1k1k1k1k1k1k1k1k1k1k1k1k1k1k1k1k1k1k1k1k1k1k1k1k1k1k1k1k1k1k1k1k1k1k1k1k1k1k1k1k1k1k1k1k1k1k1k1k1k1k1k1k1k1k1k1k1k1k1k1k1k1k1k1k1k1k1k1k1k1k1k1k1k1k1k1k1k1k1k1k1k1k1k1k1k1k1k1@8=8=8=8=8=8=8=8=8=8=8=8=8=8=8=8=8=8=8=8=8=8=8=8=8=8=8=8=8=8=8=8=8=8=8=8=8=8=8=8=8=8=8I8k1k1k1k1k1k1k1k1k1k1k1k1k1k1k1k1k1k1k1k1k1k1k1k1k1k1k1k1k1k1k1k1k1k1k1k1k1k1k1k1k1k1k1k1k1k1k1k1k1k1k1k1k1k1k1k1k1k1k1k1k1k1k1k1k1k1k1k1k1k1k1k1k1k1k1k1k1k1k1k1k1k1k1k1k1k1k1k1k1k1k1k1k1k1k1k1k1k1k1k1k1k1k1k1k1k1k1k1k1k1k1k1k1k1k1k1@=%[$#I+29H839H.H.P.n.r.v.a.4.5.5.~.~.x , R&, R&, R&, s&, R&, R&, R&%7                                                                                                                                                                    ",
"                                                                                                                                                                  $2R&R&R&R&R&R&R&R&R&R&R&R&R&R&R&x #.{.{.~.(.5.5.a.a.r.49596979H+E+89b'L5k1k1k1k1k1k1k1k1k1k1k1k1k1k1k1k1k1k1k1k1k1k1k1k1k1k1k1k1k1k1k1k1k1k1k1k1k1k1k1k1k1k1k1k1k1k1k1k1k1k1k1k1k1k1k1k1k1k1k1k1k1k1k1k1k1k1k1k1k1k1k1k1k1k1k1k1k1k1k1k1k1k1k1k1k1k1k1k1k1k1k1k1k1k1k1k1k1k1k1k1k1k1k1k1k1k1k1k1k1k1k1k1k1k1k1k1k1@8=8=8=8=8=8=8=8=8=8=8=8=8=8=8=8=8=8=8=8=8=8=8=8=8=8=8=8=8=8=8=8=8=8=8=8=8=8=8=8=8=8=8=8=8I8k1k1k1k1k1k1k1k1k1k1k1k1k1k1k1k1k1k1k1k1k1k1k1k1k1k1k1k1k1k1k1k1k1k1k1k1k1k1k1k1k1k1k1k1k1k1k1k1k1k1k1k1k1k1k1k1k1k1k1k1k1k1k1k1k1k1k1k1k1k1k1k1k1k1k1k1k1k1k1k1k1k1k1k1k1k1k1k1k1k1k1k1k1k1k1k1k1k1k1k1k1k1k1k1k1k1k1k1k1k1k1k1k1f49909#@$#02a9b9Q.E.E.P.n.r.v.a.4.5.5.i.r R&R&R&R&R&R&R&R&R&R&R&R&R&R&R&y6Q+                                                                                                                                                                  ",
"                                                                                                                                                                N.$;s&, s&, s&, s&, s&, s&, s&, s&, L (.(.5.5.a.a.n.n.P.E.H._{%%='$#$##@c93+k1k1k1k1k1k1k1k1k1k1k1k1k1k1k1k1k1k1k1k1k1k1k1k1k1k1k1k1k1k1k1k1k1k1k1k1k1k1k1k1k1k1k1k1k1k1k1k1k1k1k1k1k1k1k1k1k1k1k1k1k1k1k1k1k1k1k1k1k1k1k1k1k1k1k1k1k1k1k1k1k1k1k1k1k1k1k1k1k1k1k1k1k1k1k1k1k1k1k1k1k1k1k1k1k1k1k1k1k1k1k1k1k1k1k1@8=8=8=8=8=8=8=8=8=8=8=8=8=8=8=8=8=8=8=8=8=8=8=8=8=8=8=8=8=8=8=8=8=8=8=8=8=8=8=8=8=8=8=8=8=8=8I8k1k1k1k1k1k1k1k1k1k1k1k1k1k1k1k1k1k1k1k1k1k1k1k1k1k1k1k1k1k1k1k1k1k1k1k1k1k1k1k1k1k1k1k1k1k1k1k1k1k1k1k1k1k1k1k1k1k1k1k1k1k1k1k1k1k1k1k1k1k1k1k1k1k1k1k1k1k1k1k1k1k1k1k1k1k1k1k1k1k1k1k1k1k1k1k1k1k1k1k1k1k1k1k1k1k1k1k1k1k1k1o6d9%#%#e9s2:#=+V.V.Q.Q.H.H.P.P.r.v.a.4.w , s&, s&, s&, s&, s&, s&, s&, s&, Z7                                                                                                                                                                  ",
"                                                                                                                                                              h,j5R&R&R&R&R&R&R&R&R&R&R&R&R&R&R&R&R&R&R i.(.5.4.a.v.r.n.n.E.E.Y6*&66I+#@#@8[-1k1k1k1k1k1k1k1k1k1k1k1k1k1k1k1k1k1k1k1k1k1k1k1k1k1k1k1k1k1k1k1k1k1k1k1k1k1k1k1k1k1k1k1k1k1k1k1k1k1k1k1k1k1k1k1k1k1k1k1k1k1k1k1k1k1k1k1k1k1k1k1k1k1k1k1k1k1k1k1k1k1k1k1k1k1k1k1k1k1k1k1k1k1k1k1k1k1k1k1k1k1k1k1k1k1k1k1k1k1k1k1k1k1@8=8=8=8=8=8=8=8=8=8=8=8=8=8=8=8=8=8=8=8=8=8=8=8=8=8=8=8=8=8=8=8=8=8=8=8=8=8=8=8=8=8=8=8=8=8=8=8=8I8k1k1k1k1k1k1k1k1k1k1k1k1k1k1k1k1k1k1k1k1k1k1k1k1k1k1k1k1k1k1k1k1k1k1k1k1k1k1k1k1k1k1k1k1k1k1k1k1k1k1k1k1k1k1k1k1k1k1k1k1k1k1k1k1k1k1k1k1k1k1k1k1k1k1k1k1k1k1k1k1k1k1k1k1k1k1k1k1k1k1k1k1k1k1k1k1k1k1k1k1k1k1k1k1k1k1k1k1k1@+f9F#%#g9#!-#;+;+.+}+Q.Q.E.E.n.n.a.a.4.w R&R&R&R&R&R&R&R&R&R&R&R&R&R&R&R&R&R&`><#                                                                                                                                                                ",
"                                                                                                                                                              h9R&, R&, R&, R&, R&, R&, R&, R&, R&, R&, R 4.a.v.v.n.P.H.H.Q.Q.V.i9N}j9k9%#6#=626k1k1k1k1k1k1k1k1k1k1k1k1k1k1k1k1k1k1k1k1k1k1k1k1k1k1k1k1k1k1k1k1k1k1k1k1k1k1k1k1k1k1k1k1k1k1k1k1k1k1k1k1k1k1k1k1k1k1k1k1k1k1k1k1k1k1k1k1k1k1k1k1k1k1k1k1k1k1k1k1k1k1k1k1k1k1k1k1k1k1k1k1k1k1k1k1k1k1k1k1k1k1k1k1k1k1k1k1k1k1k1@8=8=8=8=8=8=8=8=8=8=8=8=8=8=8=8=8=8=8=8=8=8=8=8=8=8=8=8=8=8=8=8=8=8=8=8=8=8=8=8=8=8=8=8=8=8=8=8=8=8=8I8k1k1k1k1k1k1k1k1k1k1k1k1k1k1k1k1k1k1k1k1k1k1k1k1k1k1k1k1k1k1k1k1k1k1k1k1k1k1k1k1k1k1k1k1k1k1k1k1k1k1k1k1k1k1k1k1k1k1k1k1k1k1k1k1k1k1k1k1k1k1k1k1k1k1k1k1k1k1k1k1k1k1k1k1k1k1k1k1k1k1k1k1k1k1k1k1k1k1k1k1k1k1k1k1k1k1k1P{$17#T#l9!)+|d+e+e+;+;+V.V.Q.Q.H.E.n.n.L , R&, R&, R&, R&, R&, R&, R&, R&, R&, R&m9I                                                                                                                                                               ",
"                                                                                                                                                            x.[9R&R&R&R&R&R&R&R&R&R&R&R&R&R&R&R&R&R&R&R&R&Q a.v.r.n.P.E.E.Q.Q.V.V.;+n9o9p9F#6#i*o&k1k1k1k1k1k1k1k1k1k1k1k1k1k1k1k1k1k1k1k1k1k1k1k1k1k1k1k1k1k1k1k1k1k1k1k1k1k1k1k1k1k1k1k1k1k1k1k1k1k1k1k1k1k1k1k1k1k1k1k1k1k1k1k1k1k1k1k1k1k1k1k1k1k1k1k1k1k1k1k1k1k1k1k1k1k1k1k1k1k1k1k1k1k1k1k1k1k1k1k1k1k1k1k1k1k1k1k1k1@8=8=8=8=8=8=8=8=8=8=8=8=8=8=8=8=8=8=8=8=8=8=8=8=8=8=8=8=8=8=8=8=8=8=8=8=8=8=8=8=8=8=8=8=8=8=8=8=8=8=8=8=8I8k1k1k1k1k1k1k1k1k1k1k1k1k1k1k1k1k1k1k1k1k1k1k1k1k1k1k1k1k1k1k1k1k1k1k1k1k1k1k1k1k1k1k1k1k1k1k1k1k1k1k1k1k1k1k1k1k1k1k1k1k1k1k1k1k1k1k1k1k1k1k1k1k1k1k1k1k1k1k1k1k1k1k1k1k1k1k1k1k1k1k1k1k1k1k1k1k1k1k1k1k1k1k1k1k1^9q9I#r9L^V@s9H+d+e+e+;+;+V.V.Q.Q.E.E.n.R R&R&R&R&R&R&R&R&R&R&R&R&R&R&R&R&R&R&R&R&R&R&*6                                                                                                                                                              ",
"                                                                                                                                                          o-m8, s&, s&, s&, s&, s&, s&, s&, s&, s&, s&, s&, #.P.P.H.H.Q.Q.V.V.=+=+e+e+|}#!,(7#I#t94;k1k1k1k1k1k1k1k1k1k1k1k1k1k1k1k1k1k1k1k1k1k1k1k1k1k1k1k1k1k1k1k1k1k1k1k1k1k1k1k1k1k1k1k1k1k1k1k1k1k1k1k1k1k1k1k1k1k1k1k1k1k1k1k1k1k1k1k1k1k1k1k1k1k1k1k1k1k1k1k1k1k1k1k1k1k1k1k1k1k1k1k1k1k1k1k1k1k1k1k1k1k1k1k1k1k1k1@8=8=8=8=8=8=8=8=8=8=8=8=8=8=8=8=8=8=8=8=8=8=8=8=8=8=8=8=8=8=8=8=8=8=8=8=8=8=8=8=8=8=8=8=8=8=8=8=8=8=8=8=8=8=8I8k1k1k1k1k1k1k1k1k1k1k1k1k1k1k1k1k1k1k1k1k1k1k1k1k1k1k1k1k1k1k1k1k1k1k1k1k1k1k1k1k1k1k1k1k1k1k1k1k1k1k1k1k1k1k1k1k1k1k1k1k1k1k1k1k1k1k1k1k1k1k1k1k1k1k1k1k1k1k1k1k1k1k1k1k1k1k1k1k1k1k1k1k1k1k1k1k1k1k1k1k1k1k1l.u9W#v9!/d*$#$#E+E+F+F,e+e+=+;+V.V.Q.Q.w., s&, s&, s&, s&, s&, s&, s&, s&, s&, s&, s&, w9h                                                                                                                                                             ",
"                                                                                                                                                          x9R&R&R&R&R&R&R&R&R&R&R&R&R&R&R&R&R&R&R&R&R&R&R&R&R&#.n.E.E.Q.Q..+V.;+;+e+e+d+U@$/y9K<I#z9 667k1k1k1k1k1k1k1k1k1k1k1k1k1k1k1k1k1k1k1k1k1k1k1k1k1k1k1k1k1k1k1k1k1k1k1k1k1k1k1k1k1k1k1k1k1k1k1k1k1k1k1k1k1k1k1k1k1k1k1k1k1k1k1k1k1k1k1k1k1k1k1k1k1k1k1k1k1k1k1k1k1k1k1k1k1k1k1k1k1k1k1k1k1k1k1k1k1k1k1k1k1k1k1k1@8=8=8=8=8=8=8=8=8=8=8=8=8=8=8=8=8=8=8=8=8=8=8=8=8=8=8=8=8=8=8=8=8=8=8=8=8=8=8=8=8=8=8=8=8=8=8=8=8=8=8=8=8=8=8=8=8I8k1k1k1k1k1k1k1k1k1k1k1k1k1k1k1k1k1k1k1k1k1k1k1k1k1k1k1k1k1k1k1k1k1k1k1k1k1k1k1k1k1k1k1k1k1k1k1k1k1k1k1k1k1k1k1k1k1k1k1k1k1k1k1k1k1k1k1k1k1k1k1k1k1k1k1k1k1k1k1k1k1k1k1k1k1k1k1k1k1k1k1k1k1k1k1k1k1k1k1k1k1l&A9*$B9C9D9#@I+I+E+E+H+d+e+>+;+;+.+}+Q.Q R&R&R&R&R&R&R&R&R&R&R&R&R&R&R&R&R&R&R&R&R&R&R&R&R&y5$                                                                                                                                                           ",
"                                                                                                                                                        t+E9s&, R&, R&, R&, s&, R&, R&, R&, s&, R&, R&, R&, s&, %.Q.Q.V.V.;+=+e+e+d+F+E+E+ @K]!/y/*$*$Y5F9k1k1k1k1k1k1k1k1k1k1k1k1k1k1k1k1k1k1k1k1k1k1k1k1k1k1k1k1k1k1k1k1k1k1k1k1k1k1k1k1k1k1k1k1k1k1k1k1k1k1k1k1k1k1k1k1k1k1k1k1k1k1k1k1k1k1k1k1k1k1k1k1k1k1k1k1k1k1k1k1k1k1k1k1k1k1k1k1k1k1k1k1k1k1k1k1k1k1k1k1k1k1@8=8=8=8=8=8=8=8=8=8=8=8=8=8=8=8=8=8=8=8=8=8=8=8=8=8=8=8=8=8=8=8=8=8=8=8=8=8=8=8=8=8=8=8=8=8=8=8=8=8=8=8=8=8=8=8=8=8=8I8k1k1k1k1k1k1k1k1k1k1k1k1k1k1k1k1k1k1k1k1k1k1k1k1k1k1k1k1k1k1k1k1k1k1k1k1k1k1k1k1k1k1k1k1k1k1k1k1k1k1k1k1k1k1k1k1k1k1k1k1k1k1k1k1k1k1k1k1k1k1k1k1k1k1k1k1k1k1k1k1k1k1k1k1k1k1k1k1k1k1k1k1k1k1k1k1k1k1G9H9=$-$I9b/</%#%##@#@$#I+E+E+d+d+e+>+;+V.Q , R&, R&, R&, s&, R&, R&, R&, s&, R&, R&, R&, s&, R&, Z>9&                                                                                                                                                        ",
"                                                                                                                                                      - |&R&R&R&R&R&R&R&R&R&R&R&R&R&R&R&R&R&R&R&R&R&R&R&R&R&R&R&R&{.Q.V.V.;+=+e+e+d+H+E+I+I+$#J9K9L9*$-$M9y<k1k1k1k1k1k1k1k1k1k1k1k1k1k1k1k1k1k1k1k1k1k1k1k1k1k1k1k1k1k1k1k1k1k1k1k1k1k1k1k1k1k1k1k1k1k1k1k1k1k1k1k1k1k1k1k1k1k1k1k1k1k1k1k1k1k1k1k1k1k1k1k1k1k1k1k1k1k1k1k1k1k1k1k1k1k1k1k1k1k1k1k1k1k1k1k1k1k1k1k1@8=8=8=8=8=8=8=8=8=8=8=8=8=8=8=8=8=8=8=8=8=8=8=8=8=8=8=8=8=8=8=8=8=8=8=8=8=8=8=8=8=8=8=8=8=8=8=8=8=8=8=8=8=8=8=8=8=8=8=8=8I8k1k1k1k1k1k1k1k1k1k1k1k1k1k1k1k1k1k1k1k1k1k1k1k1k1k1k1k1k1k1k1k1k1k1k1k1k1k1k1k1k1k1k1k1k1k1k1k1k1k1k1k1k1k1k1k1k1k1k1k1k1k1k1k1k1k1k1k1k1k1k1k1k1k1k1k1k1k1k1k1k1k1k1k1k1k1k1k1k1k1k1k1k1k1k1k16$N9k$k$z5O9P96#%#%##@#@r#I+E+E+H+d+e+>+;+Q R&R&R&R&R&R&R&R&R&R&R&R&R&R&R&R&R&R&R&R&R&R&R&R&R&R&R&R&R&T                                                                                                                                                         ",
"                                                                                                                                                    N.Y;s&, s&, s&, s&, s&, s&, s&, s&, s&, s&, s&, s&, s&, s&, s&, (.=+=+e+e+F+F+E+I+$#$##@5#%#**d=[6'$k$Q9~5k1k1k1k1k1k1k1k1k1k1k1k1k1k1k1k1k1k1k1k1k1k1k1k1k1k1k1k1k1k1k1k1k1k1k1k1k1k1k1k1k1k1k1k1k1k1k1k1k1k1k1k1k1k1k1k1k1k1k1k1k1k1k1k1k1k1k1k1k1k1k1k1k1k1k1k1k1k1k1k1k1k1k1k1k1k1k1k1k1k1k1k1k1k1k1k1k1k1@8=8=8=8=8=8=8=8=8=8=8=8=8=8=8=8=8=8=8=8=8=8=8=8=8=8=8=8=8=8=8=8=8=8=8=8=8=8=8=8=8=8=8=8=8=8=8=8=8=8=8=8=8=8=8=8=8=8=8=8=8=8=8I8k1k1k1k1k1k1k1k1k1k1k1k1k1k1k1k1k1k1k1k1k1k1k1k1k1k1k1k1k1k1k1k1k1k1k1k1k1k1k1k1k1k1k1k1k1k1k1k1k1k1k1k1k1k1k1k1k1k1k1k1k1k1k1k1k1k1k1k1k1k1k1k1k1k1k1k1k1k1k1k1k1k1k1k1k1k1k1k1k1k1k1k1k1k1+6R9:%S9I5T9#>I#I#6#6#%#%##@#@$#$#E+E+H+d+#., s&, s&, s&, s&, s&, s&, s&, s&, s&, s&, s&, s&, s&, s&, s&U9V9                                                                                                                                                      ",
"                                                                                                                                                  f-W9R&R&R&R&R&R&R&R&R&R&R&R&R&R&R&R&R&R&R&R&R&R&R&R&R&R&R&R&R&R&R&R&(.;+>+e+d+d+E+E+I+I+#@#@%#)#c/Y5X9'${$Y9P{k1k1k1k1k1k1k1k1k1k1k1k1k1k1k1k1k1k1k1k1k1k1k1k1k1k1k1k1k1k1k1k1k1k1k1k1k1k1k1k1k1k1k1k1k1k1k1k1k1k1k1k1k1k1k1k1k1k1k1k1k1k1k1k1k1k1k1k1k1k1k1k1k1k1k1k1k1k1k1k1k1k1k1k1k1k1k1k1k1k1k1k1k1k1k1k1@8=8=8=8=8=8=8=8=8=8=8=8=8=8=8=8=8=8=8=8=8=8=8=8=8=8=8=8=8=8=8=8=8=8=8=8=8=8=8=8=8=8=8=8=8=8=8=8=8=8=8=8=8=8=8=8=8=8=8=8=8=8=8=8=8I8k1k1k1k1k1k1k1k1k1k1k1k1k1k1k1k1k1k1k1k1k1k1k1k1k1k1k1k1k1k1k1k1k1k1k1k1k1k1k1k1k1k1k1k1k1k1k1k1k1k1k1k1k1k1k1k1k1k1k1k1k1k1k1k1k1k1k1k1k1k1k1k1k1k1k1k1k1k1k1k1k1k1k1k1k1k1k1k1k1k1k1k1P{Z9|$ {`9 0I#I#7#T#6#F#)#)##@#@I+I+F+F+d+@.R&R&R&R&R&R&R&R&R&R&R&R&R&R&R&R&R&R&R&R&R&R&R&R&R&R&R&R&R&R&R&R&.0<#                                                                                                                                                    ",
"                                                                                                                                                  H,R&, R&, R&, R&, R&, R&, R&, R&, R&, R&, R&, R&, R&, R&, R&, R&, R&, 4.d+H+E+E+I+$##@#@%#%#6#6#7#I#+0@0#0|$$0%0k1k1k1k1k1k1k1k1k1k1k1k1k1k1k1k1k1k1k1k1k1k1k1k1k1k1k1k1k1k1k1k1k1k1k1k1k1k1k1k1k1k1k1k1k1k1k1k1k1k1k1k1k1k1k1k1k1k1k1k1k1k1k1k1k1k1k1k1k1k1k1k1k1k1k1k1k1k1k1k1k1k1k1k1k1k1k1k1k1k1k1k1k1k1@8=8=8=8=8=8=8=8=8=8=8=8=8=8=8=8=8=8=8=8=8=8=8=8=8=8=8=8=8=8=8=8=8=8=8=8=8=8=8=8=8=8=8=8=8=8=8=8=8=8=8=8=8=8=8=8=8=8=8=8=8=8=8=8=8=8=8I8k1k1k1k1k1k1k1k1k1k1k1k1k1k1k1k1k1k1k1k1k1k1k1k1k1k1k1k1k1k1k1k1k1k1k1k1k1k1k1k1k1k1k1k1k1k1k1k1k1k1k1k1k1k1k1k1k1k1k1k1k1k1k1k1k1k1k1k1k1k1k1k1k1k1k1k1k1k1k1k1k1k1k1k1k1k1k1k1k1k1P{v5!$&0*0=07$W#W#J#I#7#T#6#6#%#%##@#@I+I+%., R&, R&, R&, R&, R&, R&, R&, R&, R&, R&, R&, R&, R&, R&, R&, R&, R&B=[#                                                                                                                                                  ",
"                                                                                                                                                -0/*R&R&R&R&R&R&R&R&R&R&R&R&R&R&R&R&R&R&R&R&R&R&R&R&R&R&R&R&R&R&R&R&R&R&R&a.H+E+E+I+r##@#@%#%#6#6#7#I#J#;0>0c=~$a5+#k1k1k1k1k1k1k1k1k1k1k1k1k1k1k1k1k1k1k1k1k1k1k1k1k1k1k1k1k1k1k1k1k1k1k1k1k1k1k1k1k1k1k1k1k1k1k1k1k1k1k1k1k1k1k1k1k1k1k1k1k1k1k1k1k1k1k1k1k1k1k1k1k1k1k1k1k1k1k1k1k1k1k1k1k1k1k1k1k1k1k1k1@8=8=8=8=8=8=8=8=8=8=8=8=8=8=8=8=8=8=8=8=8=8=8=8=8=8=8=8=8=8=8=8=8=8=8=8=8=8=8=8=8=8=8=8=8=8=8=8=8=8=8=8=8=8=8=8=8=8=8=8=8=8=8=8=8=8=8=8=8I8k1k1k1k1k1k1k1k1k1k1k1k1k1k1k1k1k1k1k1k1k1k1k1k1k1k1k1k1k1k1k1k1k1k1k1k1k1k1k1k1k1k1k1k1k1k1k1k1k1k1k1k1k1k1k1k1k1k1k1k1k1k1k1k1k1k1k1k1k1k1k1k1k1k1k1k1k1k1k1k1k1k1k1k1k1k1k1k1y4-{m$,0'0K#7$7$W#W#J#I#7#7#6#6#%#)##@#@I+{.R&R&R&R&R&R&R&R&R&R&R&R&R&R&R&R&R&R&R&R&R&R&R&R&R&R&R&R&R&R&R&R&R&R&R&R&G,_                                                                                                                                                 ",
"                                                                                                                                              )0J,, s&, s&, s&, s&, s&, s&, s&, s&, s&, s&, s&, s&, s&, s&, s&, s&, s&, s&, n. @$##@#@%#%#6#6#I#I#J#&$W#*$!0M}~0m${0]0k1k1k1k1k1k1k1k1k1k1k1k1k1k1k1k1k1k1k1k1k1k1k1k1k1k1k1k1k1k1k1k1k1k1k1k1k1k1k1k1k1k1k1k1k1k1k1k1k1k1k1k1k1k1k1k1k1k1k1k1k1k1k1k1k1k1k1k1k1k1k1k1k1k1k1k1k1k1k1k1k1k1k1k1k1k1k1k1k1k1@8=8=8=8=8=8=8=8=8=8=8=8=8=8=8=8=8=8=8=8=8=8=8=8=8=8=8=8=8=8=8=8=8=8=8=8=8=8=8=8=8=8=8=8=8=8=8=8=8=8=8=8=8=8=8=8=8=8=8=8=8=8=8=8=8=8=8=8=8=8=8I8k1k1k1k1k1k1k1k1k1k1k1k1k1k1k1k1k1k1k1k1k1k1k1k1k1k1k1k1k1k1k1k1k1k1k1k1k1k1k1k1k1k1k1k1k1k1k1k1k1k1k1k1k1k1k1k1k1k1k1k1k1k1k1k1k1k1k1k1k1k1k1k1k1k1k1k1k1k1k1k1k1k1k1k1k1k19[u5L&!}^0/0{$'$'$=$=$*$W#J#I#I#7#6#6#%#%#{., s&, s&, s&, s&, s&, s&, s&, s&, s&, s&, s&, s&, s&, s&, s&, s&, s&, s&, s&m8)                                                                                                                                               ",
"                                                                                                                                            f-x-R&R&R&R&R&R&R&R&R&R&R&R&R&R&R&R&R&R&R&R&R&R&R&R&R&R&R&R&R&R&R&R&R&R&R&R&R&R&R&n.I+#@#@)#)#6#6#7#7#I#J#W#W#7$(0_0Q9!$:0G~z1k1k1k1k1k1k1k1k1k1k1k1k1k1k1k1k1k1k1k1k1k1k1k1k1k1k1k1k1k1k1k1k1k1k1k1k1k1k1k1k1k1k1k1k1k1k1k1k1k1k1k1k1k1k1k1k1k1k1k1k1k1k1k1k1k1k1k1k1k1k1k1k1k1k1k1k1k1k1k1k1k1k1k1k1k1k1k1@8=8=8=8=8=8=8=8=8=8=8=8=8=8=8=8=8=8=8=8=8=8=8=8=8=8=8=8=8=8=8=8=8=8=8=8=8=8=8=8=8=8=8=8=8=8=8=8=8=8=8=8=8=8=8=8=8=8=8=8=8=8=8=8=8=8=8=8=8=8=8=8=8I8k1k1k1k1k1k1k1k1k1k1k1k1k1k1k1k1k1k1k1k1k1k1k1k1k1k1k1k1k1k1k1k1k1k1k1k1k1k1k1k1k1k1k1k1k1k1k1k1k1k1k1k1k1k1k1k1k1k1k1k1k1k1k1k1k1k1k1k1k1k1k1k1k1k1k1k1k1k1k1k1k1k1k1k1^_<0F$5}[0}0k$k$-$-$7$7$W#W#I#I#7#T#6#%#)#~.R&R&R&R&R&R&R&R&R&R&R&R&R&R&R&s&R&s&R&, R&, R&, R&s&R&s&R&R&R&R&R&R&R&R&R&R&R&R&9 _                                                                                                                                             ",
"                                                                                                                                          ` |0, R&, s&, , { , { , { , { , { { { , { { { , { { { , { , { , { , , s&, R&, R&, s&, E.%#%#6#6#7#I#J#J#W#*$=$=$-$'$10[020F$e$7530k1k1k1k1k1k1k1k1k1k1k1k1k1k1k1k1k1k1k1k1k1k1k1k1k1k1k1k1k1k1k1k1k1k1k1k1k1k1k1k1k1k1k1k1k1k1k1k1k1k1k1k1k1k1k1k1k1k1k1k1k1k1k1k1k1k1k1k1k1k1k1k1k1k1k1k1k1k1k1k1k1k1k1k1k1@8=8=8=8=8=8=8=8=8=8=8=8=8=8=8=8=8=8=8=8=8=8=8=8=8=8=8=8=8=8=8=8=8=8=8=8=8=8=8=8=8=8=8=8=8=8=8=8=8=8=8=8=8=8=8=8=8=8=8=8=8=8=8=8=8=8=8=8=8=8=8=8=8=8=8I8k1k1k1k1k1k1k1k1k1k1k1k1k1k1k1k1k1k1k1k1k1k1k1k1k1k1k1k1k1k1k1k1k1k1k1k1k1k1k1k1k1k1k1k1k1k1k1k1k1k1k1k1k1k1k1k1k1k1k1k1k1k1k1k1k1k1k1k1k1k1k1k1k1k1k1k1k1k1k1k1k1%840506095s}~$~$|$|${${$'$-$=$=$W#W#J#I#7#T#(., R&, s&, , { , { , { { { { { { } { } { } { } { } { } { } { { { { { { , { , { , , s&]65                                                                                                                                           ",
"                                                                                                                                        ^.70R&, R&, , , , { , { , { , { , { { { , { { { , { { { , { , { , { , , , , , , R&s&R&R&R&H.%#6#6#7#I#J#J#W#*$=$7$-$'${${$809000e$a0}&k1k1k1k1k1k1k1k1k1k1k1k1k1k1k1k1k1k1k1k1k1k1k1k1k1k1k1k1k1k1k1k1k1k1k1k1k1k1k1k1k1k1k1k1k1k1k1k1k1k1k1k1k1k1k1k1k1k1k1k1k1k1k1k1k1k1k1k1k1k1k1k1k1k1k1k1k1k1k1k1k1k1k1@8=8=8=8=8=8=8=8=8=8=8=8=8=8=8=8=8=8=8=8=8=8=8=8=8=8=8=8=8=8=8=8=8=8=8=8=8=8=8=8=8=8=8=8=8=8=8=8=8=8=8=8=8=8=8=8=8=8=8=8=8=8=8=8=8=8=8=8=8=8=8=8=8=8=8=8=8I8k1k1k1k1k1k1k1k1k1k1k1k1k1k1k1k1k1k1k1k1k1k1k1k1k1k1k1k1k1k1k1k1k1k1k1k1k1k1k1k1k1k1k1k1k1k1k1k1k1k1k1k1k1k1k1k1k1k1k1k1k1k1k1k1k1k1k1k1k1k1k1k1k1k1k1k1k1k1k1f465b$b0c0d0~$~$~$|$|${${$'$-$7$7$W#W#J#I#7#(.R&, R&, , { , { , { , { { } { } ] } { } } } ] } } } ] } ] } { } { } { { { { , { , { , , m,5                                                                                                                                         ",
"                                                                                                                                      b#--m;{ } { } } } } } } 2 } 2 } 2 } 2 } [ } [ } [ } 2 } [ } 2 } 2 } } } } } } } } { } { { , { }+7#I#J#&$W#*$=$-$'$'${$_%|$|$~$)(,_e0b$c*+6k1k1k1k1k1k1k1k1k1k1k1k1k1k1k1k1k1k1k1k1k1k1k1k1k1k1k1k1k1k1k1k1k1k1k1k1k1k1k1k1k1k1k1k1k1k1k1k1k1k1k1k1k1k1k1k1k1k1k1k1k1k1k1k1k1k1k1k1k1k1k1k1k1k1k1k1k1k1k1k1k1@8=8=8=8=8=8=8=8=8=8=8=8=8=8=8=8=8=8=8=8=8=8=8=8=8=8=8=8=8=8=8=8=8=8=8=8=8=8=8=8=8=8=8=8=8=8=8=8=8=8=8=8=8=8=8=8=8=8=8=8=8=8=8=8=8=8=8=8=8=8=8=8=8=8=8=8=8=8=8I8k1k1k1k1k1k1k1k1k1k1k1k1k1k1k1k1k1k1k1k1k1k1k1k1k1k1k1k1k1k1k1k1k1k1k1k1k1k1k1k1k1k1k1k1k1k1k1k1k1k1k1k1k1k1k1k1k1k1k1k1k1k1k1k1k1k1k1k1k1k1k1k1k1k1k1k1k1[5;:d$f0g0@-!$!$!$!$~$~$|$|${${$'$'$=$7$W#W#4.{ { } } } } } } } } 2 } [ } < 2 < [ < [ < < < [ < < < [ < [ < [ < 2 < } 2 } 2 } } } } } } } h0_                                                                                                                                       ",
"                                                                                                                                    f.i0, { { } { } } } } } } } } } } } } } } K } } } K } } } } } } } } } } } } } } ] } { { , { , , , .+7#I#J#W#W#7$7$-$-$k${$|$|$~$~$j09~k0b$_*-1k1k1k1k1k1k1k1k1k1k1k1k1k1k1k1k1k1k1k1k1k1k1k1k1k1k1k1k1k1k1k1k1k1k1k1k1k1k1k1k1k1k1k1k1k1k1k1k1k1k1k1k1k1k1k1k1k1k1k1k1k1k1k1k1k1k1k1k1k1k1k1k1k1k1k1k1k1k1k1@8=8=8=8=8=8=8=8=8=8=8=8=8=8=8=8=8=8=8=8=8=8=8=8=8=8=8=8=8=8=8=8=8=8=8=8=8=8=8=8=8=8=8=8=8=8=8=8=8=8=8=8=8=8=8=8=8=8=8=8=8=8=8=8=8=8=8=8=8=8=8=8=8=8=8=8=8=8=8=8=8I8k1k1k1k1k1k1k1k1k1k1k1k1k1k1k1k1k1k1k1k1k1k1k1k1k1k1k1k1k1k1k1k1k1k1k1k1k1k1k1k1k1k1k1k1k1k1k1k1k1k1k1k1k1k1k1k1k1k1k1k1k1k1k1k1k1k1k1k1k1k1k1k1k1k1k1~5l0d$m0G%n0F$!$!$1$~$~$:%|$|$k$k$-$-$*$*$W#a., { { } { } } } } } } } } } } [ } [ K < K < K < K < K < K < K < } [ } K } } } } } } } } ] } { } o0.                                                                                                                                     ",
"                                                                                                                                  t+v1} } 2 } < } < < < < < < < < < < < < 0 < 0 < 0 < 0 < 0 < 0 < < < < < < < < < < [ < } [ } 2 } } } } ;+W#W#=$7$-$'${${$|$|$~$~$~$m$!$;{:[p0d$+:a%k1k1k1k1k1k1k1k1k1k1k1k1k1k1k1k1k1k1k1k1k1k1k1k1k1k1k1k1k1k1k1k1k1k1k1k1k1k1k1k1k1k1k1k1k1k1k1k1k1k1k1k1k1k1k1k1k1k1k1k1k1k1k1k1k1k1k1k1k1k1k1k1k1k1k1k1k1@8=8=8=8=8=8=8=8=8=8=8=8=8=8=8=8=8=8=8=8=8=8=8=8=8=8=8=8=8=8=8=8=8=8=8=8=8=8=8=8=8=8=8=8=8=8=8=8=8=8=8=8=8=8=8=8=8=8=8=8=8=8=8=8=8=8=8=8=8=8=8=8=8=8=8=8=8=8=8=8=8=8=8I8k1k1k1k1k1k1k1k1k1k1k1k1k1k1k1k1k1k1k1k1k1k1k1k1k1k1k1k1k1k1k1k1k1k1k1k1k1k1k1k1k1k1k1k1k1k1k1k1k1k1k1k1k1k1k1k1k1k1k1k1k1k1k1k1k1k1k1k1k1k1k1k1k1a%q0J$W_r0I~e$e$F$F${%!$1$~$~$~$|$|${${$-$-$r.} } 2 } < [ < < < < < < 0 < 0 < 0 < 0 0 f 0 q 0 f 0 f 0 f 0 q 0 q 0 0 < 0 < < < < < < < < [ < 2 [ } (,,;                                                                                                                                  ",
"                                                                                                                                )0s0} } } [ K < K < < < < < < 0 < 0 < 0 < 0 0 0 < 0 0 0 0 0 0 0 < 0 < 0 < < < < < < < < K < } [ } } } } } e+W#7$7$-$'${${$|$|$~$~$1$m$!${%t0u0v0d$w0a%k1k1k1k1k1k1k1k1k1k1k1k1k1k1k1k1k1k1k1k1k1k1k1k1k1k1k1k1k1k1k1k1k1k1k1k1k1k1k1k1k1k1k1k1k1k1k1k1k1k1k1k1k1k1k1k1k1k1k1k1k1k1k1k1k1k1k1k1k1k1k1k1k1k1k1@8=8=8=8=8=8=8=8=8=8=8=8=8=8=8=8=8=8=8=8=8=8=8=8=8=8=8=8=8=8=8=8=8=8=8=8=8=8=8=8=8=8=8=8=8=8=8=8=8=8=8=8=8=8=8=8=8=8=8=8=8=8=8=8=8=8=8=8=8=8=8=8=8=8=8=8=8=8=8=8=8=8=8=8=8I8k1k1k1k1k1k1k1k1k1k1k1k1k1k1k1k1k1k1k1k1k1k1k1k1k1k1k1k1k1k1k1k1k1k1k1k1k1k1k1k1k1k1k1k1k1k1k1k1k1k1k1k1k1k1k1k1k1k1k1k1k1k1k1k1k1k1k1k1k1k1k1X3&[Z$q0]=x0l$e$e$F$F${%!$1$~$~$~$|$|$k$k$-$r.} } } [ K < < < < < < 0 < 0 < 0 0 q 0 q 0 f 0 q q f q f q f 0 q 0 q 0 q 0 q 0 0 < 0 < < < < < < [ < } K y -                                                                                                                                 ",
"                                                                                                                              y0z0< < 0 < 0 0 f 0 f f f f f f e f e e e e e e e e e e e e e e e f e f e f e f f f f q f 0 f 0 0 < < < < < < F+-$'${${$|$|$~$~$!$!$!${%L&L&e$A0B0C0Z$D0F&k1k1k1k1k1k1k1k1k1k1k1k1k1k1k1k1k1k1k1k1k1k1k1k1k1k1k1k1k1k1k1k1k1k1k1k1k1k1k1k1k1k1k1k1k1k1k1k1k1k1k1k1k1k1k1k1k1k1k1k1k1k1k1k1k1k1k1k1k1k1k1k1k1@8=8=8=8=8=8=8=8=8=8=8=8=8=8=8=8=8=8=8=8=8=8=8=8=8=8=8=8=8=8=8=8=8=8=8=8=8=8=8=8=8=8=8=8=8=8=8=8=8=8=8=8=8=8=8=8=8=8=8=8=8=8=8=8=8=8=8=8=8=8=8=8=8=8=8=8=8=8=8=8=8=8=8=8=8=8=8I8k1k1k1k1k1k1k1k1k1k1k1k1k1k1k1k1k1k1k1k1k1k1k1k1k1k1k1k1k1k1k1k1k1k1k1k1k1k1k1k1k1k1k1k1k1k1k1k1k1k1k1k1k1k1k1k1k1k1k1k1k1k1k1k1k1k1k1k1k1R]i^u$E0z^F0b$b$y%y%e$e$a$L&{%!$m$~$~$~$|$|$E.< < 0 < q 0 f q f f f f e f e e e e j e j e j e j j j j j j j e j e j e j e j e e e e f f f f q f 0 f < 0 < Y h,                                                                                                                              ",
"                                                                                                                          M.v7< < < < 0 < 0 0 q 0 q q f q f f e f e f e e e e e e e e e e e e e f e f e f e f f q f q q 0 0 0 0 < < < < < < K F+-$k$k$|$|$~$~$1$1$!${%F$F$e$e$l$G0H0v;I09[k1k1k1k1k1k1k1k1k1k1k1k1k1k1k1k1k1k1k1k1k1k1k1k1k1k1k1k1k1k1k1k1k1k1k1k1k1k1k1k1k1k1k1k1k1k1k1k1k1k1k1k1k1k1k1k1k1k1k1k1k1k1k1k1k1k1k1k1k1k1k1@8=8=8=8=8=8=8=8=8=8=8=8=8=8=8=8=8=8=8=8=8=8=8=8=8=8=8=8=8=8=8=8=8=8=8=8=8=8=8=8=8=8=8=8=8=8=8=8=8=8=8=8=8=8=8=8=8=8=8=8=8=8=8=8=8=8=8=8=8=8=8=8=8=8=8=8=8=8=8=8=8=8=8=8=8=8=8=8=8I8k1k1k1k1k1k1k1k1k1k1k1k1k1k1k1k1k1k1k1k1k1k1k1k1k1k1k1k1k1k1k1k1k1k1k1k1k1k1k1k1k1k1k1k1k1k1k1k1k1k1k1k1k1k1k1k1k1k1k1k1k1k1k1k1k1k1k1R]J0u$K0L0d$5%b$b$l$l$e$e$F$F$!$!$1$~$5]|$|$E.< < < 0 < 0 0 q 0 f q f q e f e e e e j e j e j e j e j e j e j e j e j e j e e e e e e f f q f 0 q 0 q < 0 < < O;3=                                                                                                                            ",
"                                                                                                                        8.(10 f q f f e f e e j e j j C j C j r j r r r r r r r r r r r r r r r r r r r j r j r j j j j e j e e f f f f q f 0 0 I+|$|$~$~$~$m$!${%L&a$e$e$h*y%b$b$M0 =N0h%O0k1k1k1k1k1k1k1k1k1k1k1k1k1k1k1k1k1k1k1k1k1k1k1k1k1k1k1k1k1k1k1k1k1k1k1k1k1k1k1k1k1k1k1k1k1k1k1k1k1k1k1k1k1k1k1k1k1k1k1k1k1k1k1k1k1k1k1k1k1@8=8=8=8=8=8=8=8=8=8=8=8=8=8=8=8=8=8=8=8=8=8=8=8=8=8=8=8=8=8=8=8=8=8=8=8=8=8=8=8=8=8=8=8=8=8=8=8=8=8=8=8=8=8=8=8=8=8=8=8=8=8=8=8=8=8=8=8=8=8=8=8=8=8=8=8=8=8=8=8=8=8=8=8=8=8=8=8=8=8=8I8k1k1k1k1k1k1k1k1k1k1k1k1k1k1k1k1k1k1k1k1k1k1k1k1k1k1k1k1k1k1k1k1k1k1k1k1k1k1k1k1k1k1k1k1k1k1k1k1k1k1k1k1k1k1k1k1k1k1k1k1k1k1k1k1k1$>.-P0`:Q0J$c$N*d$d$b$b$y%h*e$e$F$F$!$!$~$~$Q.f q f f e f e e j e j j r j r r r r r r x r x r x r x r x r x x x r x r x r x r r r r r r j r j C e j e e e e f f q R0S0                                                                                                                          ",
"                                                                                                                      - ,5q 0 f q f f e e e e j e j j r j r G r G r r r r r r x r x r x r r r x r r r r G r G r j G j j e j e j e e f e q f 0 q < #@|$~$~$1$m$!${%F$a$e$e$h*y%b$b$d$f_T0v=G!U0k1k1k1k1k1k1k1k1k1k1k1k1k1k1k1k1k1k1k1k1k1k1k1k1k1k1k1k1k1k1k1k1k1k1k1k1k1k1k1k1k1k1k1k1k1k1k1k1k1k1k1k1k1k1k1k1k1k1k1k1k1k1k1k1k1k1k1@8=8=8=8=8=8=8=8=8=8=8=8=8=8=8=8=8=8=8=8=8=8=8=8=8=8=8=8=8=8=8=8=8=8=8=8=8=8=8=8=8=8=8=8=8=8=8=8=8=8=8=8=8=8=8=8=8=8=8=8=8=8=8=8=8=8=8=8=8=8=8=8=8=8=8=8=8=8=8=8=8=8=8=8=8=8=8=8=8=8=8=8=8I8k1k1k1k1k1k1k1k1k1k1k1k1k1k1k1k1k1k1k1k1k1k1k1k1k1k1k1k1k1k1k1k1k1k1k1k1k1k1k1k1k1k1k1k1k1k1k1k1k1k1k1k1k1k1k1k1k1k1k1k1k1k1k1C&V0W0p~X0J$J$c$c$d$d$b$b$y%h*e$e$F$F$!$!$~$Q.q f q e f e e j j j j G j r G r r x r x r x r x x w x x x w x w x w x x x x r x r x r r r r G r j r j j e j e e f e q f 0 Y0z                                                                                                                       ",
"                                                                                                                    Z0O.e j e j j r C r r r r x r x x w x w w v w v w v w v v L w L v L v L v L w v w v w v w v x w x w x x r x r r C r j j e j e e %#~$m$!${%L&a$e$e$y%y%b$>%d$d$c$c$`0V{ a.aW&)6k1k1k1k1k1k1k1k1k1k1k1k1k1k1k1k1k1k1k1k1k1k1k1k1k1k1k1k1k1k1k1k1k1k1k1k1k1k1k1k1k1k1k1k1k1k1k1k1k1k1k1k1k1k1k1k1k1k1k1k1k1k1k1k1@8=8=8=8=8=8=8=8=8=8=8=8=8=8=8=8=8=8=8=8=8=8=8=8=8=8=8=8=8=8=8=8=8=8=8=8=8=8=8=8=8=8=8=8=8=8=8=8=8=8=8=8=8=8=8=8=8=8=8=8=8=8=8=8=8=8=8=8=8=8=8=8=8=8=8=8=8=8=8=8=8=8=8=8=8=8=8=8=8=8=8=8=8=8=8I8k1k1k1k1k1k1k1k1k1k1k1k1k1k1k1k1k1k1k1k1k1k1k1k1k1k1k1k1k1k1k1k1k1k1k1k1k1k1k1k1k1k1k1k1k1k1k1k1k1k1k1k1k1k1k1k1k1k1k1k1k1A^+a+!W/o:u$j%j%Z$Z$c$c$d$d$b$b$y%y%e$e$L&F$V.j j C j r r r r x x x x w w v w v w L w L v L v L L R L R L R L R L R L R L R v L v L w v w v w w w w x x r x r r r r j j e j G|W                                                                                                                     ",
"                                                                                                                D2X|2=e f e e j e j j r G r r x r x x w x w w w w w w w w w w v w w w v w w w v w w w w w w w w x w x x r x r r G r j G j j e e f e q %#~$!$!$F$F$e$e$l$l$b$b$d$d$N*c$J$@aw!#a$a ~84k1k1k1k1k1k1k1k1k1k1k1k1k1k1k1k1k1k1k1k1k1k1k1k1k1k1k1k1k1k1k1k1k1k1k1k1k1k1k1k1k1k1k1k1k1k1k1k1k1k1k1k1k1k1k1k1k1k1k1k1k1k1@8=8=8=8=8=8=8=8=8=8=8=8=8=8=8=8=8=8=8=8=8=8=8=8=8=8=8=8=8=8=8=8=8=8=8=8=8=8=8=8=8=8=8=8=8=8=8=8=8=8=8=8=8=8=8=8=8=8=8=8=8=8=8=8=8=8=8=8=8=8=8=8=8=8=8=8=8=8=8=8=8=8=8=8=8=8=8=8=8=8=8=8=8=8=8=8=8I8k1k1k1k1k1k1k1k1k1k1k1k1k1k1k1k1k1k1k1k1k1k1k1k1k1k1k1k1k1k1k1k1k1k1k1k1k1k1k1k1k1k1k1k1k1k1k1k1k1k1k1k1k1k1k1k1k1k1k1u=%a&ai45;u$u$Z$Z$J$J$c$d$d$d$b$b$l$l$a$a$F$V.e e e j j G G r G r r x r w x w w w w v w v w L w L w R w R v R w R L R w L w L w v w v w w w w w w x w r x r r G r j G j j e e f M2g#                                                                                                                  ",
"                                                                                                              .$j$j j r j r r x r x x w w v w L w L L R L R R R R R R R R R R R R R R R R R R R R R R R R R R R L R L R v L w v w w w w x x r r G r j j T#F$F$e$e$h*y%b$b$d$d$c$c$J$Z$Z$Z$+>m/=<E%d4D5k1k1k1k1k1k1k1k1k1k1k1k1k1k1k1k1k1k1k1k1k1k1k1k1k1k1k1k1k1k1k1k1k1k1k1k1k1k1k1k1k1k1k1k1k1k1k1k1k1k1k1k1k1k1k1k1k1k1k1k1@8=8=8=8=8=8=8=8=8=8=8=8=8=8=8=8=8=8=8=8=8=8=8=8=8=8=8=8=8=8=8=8=8=8=8=8=8=8=8=8=8=8=8=8=8=8=8=8=8=8=8=8=8=8=8=8=8=8=8=8=8=8=8=8=8=8=8=8=8=8=8=8=8=8=8=8=8=8=8=8=8=8=8=8=8=8=8=8=8=8=8=8=8=8=8=8=8=8=8I8k1k1k1k1k1k1k1k1k1k1k1k1k1k1k1k1k1k1k1k1k1k1k1k1k1k1k1k1k1k1k1k1k1k1k1k1k1k1k1k1k1k1k1k1k1k1k1k1k1k1k1k1k1k1k1k1z1n/k**au==a,%G$G$u$u$j%Z$J$J$c$N*d$5%b$b$l$l$=+r r r r x x w w v w v v R L R R R R R R R R R R o.R Q R Q R Q w.Q R Q w.Q R Q R Q R w.R R R R R R R R L R v L w v w w x w r x r r j r -a;aN.                                                                                                              ",
"                                                                                                            8+T2e j j r G r r x x w w w w v w L w R R R R R R R R R R R R R R -.R w.R -.R w.R -.R R R R R R R R R R R R L R w L w w w w x w r x r r j G j I#F$e$e$l$y%b$b$d$d$c$c$J$Z$Z$Z$u$>a,a'aI$j=y{k1k1k1k1k1k1k1k1k1k1k1k1k1k1k1k1k1k1k1k1k1k1k1k1k1k1k1k1k1k1k1k1k1k1k1k1k1k1k1k1k1k1k1k1k1k1k1k1k1k1k1k1k1k1k1k1k1k1@8=8=8=8=8=8=8=8=8=8=8=8=8=8=8=8=8=8=8=8=8=8=8=8=8=8=8=8=8=8=8=8=8=8=8=8=8=8=8=8=8=8=8=8=8=8=8=8=8=8=8=8=8=8=8=8=8=8=8=8=8=8=8=8=8=8=8=8=8=8=8=8=8=8=8=8=8=8=8=8=8=8=8=8=8=8=8=8=8=8=8=8=8=8=8=8=8=8=8=8=8I8k1k1k1k1k1k1k1k1k1k1k1k1k1k1k1k1k1k1k1k1k1k1k1k1k1k1k1k1k1k1k1k1k1k1k1k1k1k1k1k1k1k1k1k1k1k1k1k1k1k1k1k1k1k1q4a-)a!ap*~a,%,%-&-&u$u$Z$Z$Q>J$c$N*d$d$b$b$l${aG r r x x w x w w v w L L R R R R R R R R w.R -.R Q R Q -.Q -.Q -.Q -.Q -.Q -.Q -.Q R -.R -.R R R R R R R R L R w L w w w w x x r r G r j j {4t                                                                                                             ",
"                                                                                                        N.[.]ax r x x w w v v L L R R R R R R Q R Q Q Q Q Q Q Q Q Q Q Q Q Q Q #.Q #.Q #.Q #.Q #.Q Q Q Q Q Q Q Q Q Q Q Q w.Q R o.R R R R L R v L w v w w x x W#h*y%b$b$d$d$c$J$Z$Z$j%9%u$u$G$G$^a/aG/w$(ai;k1k1k1k1k1k1k1k1k1k1k1k1k1k1k1k1k1k1k1k1k1k1k1k1k1k1k1k1k1k1k1k1k1k1k1k1k1k1k1k1k1k1k1k1k1k1k1k1k1k1k1k1k1k1k1k1@8=8=8=8=8=8=8=8=8=8=8=8=8=8=8=8=8=8=8=8=8=8=8=8=8=8=8=8=8=8=8=8=8=8=8=8=8=8=8=8=8=8=8=8=8=8=8=8=8=8=8=8=8=8=8=8=8=8=8=8=8=8=8=8=8=8=8=8=8=8=8=8=8=8=8=8=8=8=8=8=8=8=8=8=8=8=8=8=8=8=8=8=8=8=8=8=8=8=8=8=8=8=8I8k1k1k1k1k1k1k1k1k1k1k1k1k1k1k1k1k1k1k1k1k1k1k1k1k1k1k1k1k1k1k1k1k1k1k1k1k1k1k1k1k1k1k1k1k1k1k1k1k1k1k1k1f4_a:a<a-/[aE%v$v$o%o%G$G$u$u$j%j%Z$J$c$N*d$5%d+w w v w L L R R R R R R Q w.Q Q Q Q Q Q Q Q #.Q #.Q #.|.#.#.@.#.@.#.@.#.@.#.@.#.#.#.#.Q #.Q #.Q Q Q Q Q Q Q Q w.Q R o.R R R R L L v v w w x x r }af#                                                                                                          ",
"                                                                                                      0&|aG G r r x x w w w w L w R R R R R R -.R -.-.Q -.Q Q Q Q Q Q Q Q Q Q #.Q |.Q #.Q |.Q |.Q Q Q Q Q Q Q Q -.Q -.Q R -.R R R R R R L R w L w w w w r x m4*$l$b$b$d$d$N*c$J$Q>Z$Z$u$u$-&-&,%,%1aR>'%2a<~k1k1k1k1k1k1k1k1k1k1k1k1k1k1k1k1k1k1k1k1k1k1k1k1k1k1k1k1k1k1k1k1k1k1k1k1k1k1k1k1k1k1k1k1k1k1k1k1k1k1k1k1k1k1@8=8=8=8=8=8=8=8=8=8=8=8=8=8=8=8=8=8=8=8=8=8=8=8=8=8=8=8=8=8=8=8=8=8=8=8=8=8=8=8=8=8=8=8=8=8=8=8=8=8=8=8=8=8=8=8=8=8=8=8=8=8=8=8=8=8=8=8=8=8=8=8=8=8=8=8=8=8=8=8=8=8=8=8=8=8=8=8=8=8=8=8=8=8=8=8=8=8=8=8=8=8=8=8=8I8k1k1k1k1k1k1k1k1k1k1k1k1k1k1k1k1k1k1k1k1k1k1k1k1k1k1k1k1k1k1k1k1k1k1k1k1k1k1k1k1k1k1k1k1k1k1k1k1k1k13aK(O%'a4a5aE%E%_-_-,%,%-&-&u$u$Z$Z$J$J$d$d$>%d+r w w w w v v R R R R R R -.R Q -.Q Q Q Q Q Q |.Q #.Q #.|.#.#.#.#.#.#.#.#.#.#.#.|.#.|.#.Q #.Q #.Q Q Q Q Q Q -.Q R -.R R R R R R w L w w w w x x r r 6aN#+                                                                                                       ",
"                                                                                                    R+7ax w w v w L L R R R R Q R Q Q Q Q Q Q #.Q #.#.@.#.@.#.@.#.@.@.%.@.%.@.{.@.%.@.{.@.%.@.{.@.%.@.%.@.@.@.@.#.@.#.@.|.#.Q #.Q Q Q Q Q Q R o.R R R R v L w R =$5%d$N*c$J$Z$j%j%u$u$G$G$,%o%v$v$E%a'2<8a9a!>k1k1k1k1k1k1k1k1k1k1k1k1k1k1k1k1k1k1k1k1k1k1k1k1k1k1k1k1k1k1k1k1k1k1k1k1k1k1k1k1k1k1k1k1k1k1k1k1k1k1k1k1@8=8=8=8=8=8=8=8=8=8=8=8=8=8=8=8=8=8=8=8=8=8=8=8=8=8=8=8=8=8=8=8=8=8=8=8=8=8=8=8=8=8=8=8=8=8=8=8=8=8=8=8=8=8=8=8=8=8=8=8=8=8=8=8=8=8=8=8=8=8=8=8=8=8=8=8=8=8=8=8=8=8=8=8=8=8=8=8=8=8=8=8=8=8=8=8=8=8=8=8=8=8=8=8=8=8=8I8k1k1k1k1k1k1k1k1k1k1k1k1k1k1k1k1k1k1k1k1k1k1k1k1k1k1k1k1k1k1k1k1k1k1k1k1k1k1k1k1k1k1k1k1k1k1k1k10a~_Y$aabah4w$x$x$H$E%v$v$o%,%G$G$u$u$Z$Z$J$J$F+L v R R R R w.R Q Q Q Q Q Q #.|.#.#.@.#.@.@.@.@.%.@.{.%.{.%.{.{.{.{.{.{.{.{.{.{.{.%.{.%.{.%.{.%.{.@.@.@.@.#.@.#.@.Q #.Q Q Q Q Q Q R w.R R R R L L w w x w cag.                                                                                                    ",
"                                                                                                8.(3dax x w w v w R R R R R R Q -.Q Q Q Q Q Q #.|.#.#.@.#.@.#.%.#.%.@.{.%.{.%.{.%.{.%.{.%.{.%.{.%.{.%.{.@.%.@.%.#.@.#.@.#.#.|.#.Q Q Q Q Q Q -.Q R R R R L R w v ea'$d$N*c$J$Z$Z$H%u$u$G$G$,%o%v$v$E%H$faK(B<Y3N]k1k1k1k1k1k1k1k1k1k1k1k1k1k1k1k1k1k1k1k1k1k1k1k1k1k1k1k1k1k1k1k1k1k1k1k1k1k1k1k1k1k1k1k1k1k1k1k1k1k1@8=8=8=8=8=8=8=8=8=8=8=8=8=8=8=8=8=8=8=8=8=8=8=8=8=8=8=8=8=8=8=8=8=8=8=8=8=8=8=8=8=8=8=8=8=8=8=8=8=8=8=8=8=8=8=8=8=8=8=8=8=8=8=8=8=8=8=8=8=8=8=8=8=8=8=8=8=8=8=8=8=8=8=8=8=8=8=8=8=8=8=8=8=8=8=8=8=8=8=8=8=8=8=8=8=8=8=8=8I8k1k1k1k1k1k1k1k1k1k1k1k1k1k1k1k1k1k1k1k1k1k1k1k1k1k1k1k1k1k1k1k1k1k1k1k1k1k1k1k1k1k1k1k1k1k1;3gaY$haW:'%w$w$w$x$H$H$v$v$o%,%G$G$u$u$Z$Z$J$E+w R L R R R R -.-.Q Q Q Q #.Q #.#.@.#.@.#.%.@.%.%.{.%.{.{.{.{.{.{.{.{.{.{.{.{.{.{.{.{.{.{.{.%.{.%.{.@.%.@.%.#.@.#.@.#.#.Q #.Q Q Q Q -.-.R R R R L R w w w w r ]8iaja                                                                                                ",
"                                                                                              ~@kav w L L R R R R Q Q Q Q Q Q #.|.@.#.@.@.%.@.{.%.{.{.{.{.{.{.~.{.~.~.(.~.(.~.(.~.(.~.(.~.(.~.(.~.(.~.(.{.~.{.~.{.{.{.{.{.{.{.{.@.%.@.@.#.@.#.#.Q Q Q Q Q Q R R R Q _%J$Z$j%9%u$u$G$G$o%o%v$E%I$H$x$w$G-d<1]%-laN]k1k1k1k1k1k1k1k1k1k1k1k1k1k1k1k1k1k1k1k1k1k1k1k1k1k1k1k1k1k1k1k1k1k1k1k1k1k1k1k1k1k1k1k1k1k1k1k1@8=8=8=8=8=8=8=8=8=8=8=8=8=8=8=8=8=8=8=8=8=8=8=8=8=8=8=8=8=8=8=8=8=8=8=8=8=8=8=8=8=8=8=8=8=8=8=8=8=8=8=8=8=8=8=8=8=8=8=8=8=8=8=8=8=8=8=8=8=8=8=8=8=8=8=8=8=8=8=8=8=8=8=8=8=8=8=8=8=8=8=8=8=8=8=8=8=8=8=8=8=8=8=8=8=8=8=8=8=8=8I8k1k1k1k1k1k1k1k1k1k1k1k1k1k1k1k1k1k1k1k1k1k1k1k1k1k1k1k1k1k1k1k1k1k1k1k1k1k1k1k1k1k1k1k1y{mana]]oa,&,&'%'%'%k%w$w$I$H$v$v$o%,%G$G$u$u$$#R R Q w.Q Q Q Q #.#.@.#.@.@.{.%.{.{.{.{.{.{.~.{.~.~.(.~.(.(.(.(.(.(.(.(.(.(.(.(.(.(.(.(.(.(.(.~.(.~.(.~.~.{.~.{.{.{.{.{.{.%.%.@.@.#.@.#.#.Q Q Q Q Q Q R R R R v v w T@h@                                                                                              ",
"                                                                                          0&F.D$x w w v w R R R R R R Q -.Q Q #.Q #.#.@.#.@.@.{.%.{.{.{.{.{.{.i.{.i.{.~.i.~.i.(.i.~.i.(.i.~.i.(.i.~.i.~.{.i.{.i.{.{.{.{.%.{.%.{.#.@.#.@.#.#.|.#.Q Q Q Q R -.R R R R R |$J$Z$Z$u$u$-&-&,%,%v$v$H$H$x$x$w$w$Y3a-3_paN]k1k1k1k1k1k1k1k1k1k1k1k1k1k1k1k1k1k1k1k1k1k1k1k1k1k1k1k1k1k1k1k1k1k1k1k1k1k1k1k1k1k1k1k1k1k1@8=8=8=8=8=8=8=8=8=8=8=8=8=8=8=8=8=8=8=8=8=8=8=8=8=8=8=8=8=8=8=8=8=8=8=8=8=8=8=8=8=8=8=8=8=8=8=8=8=8=8=8=8=8=8=8=8=8=8=8=8=8=8=8=8=8=8=8=8=8=8=8=8=8=8=8=8=8=8=8=8=8=8=8=8=8=8=8=8=8=8=8=8=8=8=8=8=8=8=8=8=8=8=8=8=8=8=8=8=8=8=8=8qak1k1k1k1k1k1k1k1k1k1k1k1k1k1k1k1k1k1k1k1k1k1k1k1k1k1k1k1k1k1k1k1k1k1k1k1k1k1k1k1k1k1!,rasata*(,&O%O%'%'%w$w$x$I$H$E%_-o%,%,%U$U$u$$#R R R -.R Q Q Q Q |.|.#.#.@.#.%.@.{.%.{.{.{.{.i.{.i.i.(.i.(.~.(.~.(.(.(.(.(.(.(.(.(.(.(.~.(.~.(.i.(.i.~.{.i.{.i.{.{.{.{.%.{.@.%.#.#.#.#.Q |.Q Q -.Q R R R R R R w w w w uah$h,                                                                                          ",
"                                                                                        vawaw L v R R R R Q Q Q Q Q Q #.#.@.@.%.%.{.{.{.{.~.{.~.i.(.(.(.(.(.(.5.(.5.5.5.5.5.5.4.5.5.5.4.5.e.5.4.5.5.5.5.5.5.(.5.(.(.(.(.(.(.~.(.{.~.{.{.{.{.%.{.@.@.#.@.|.#.Q Q Q Q R Q ~$u$u$G$G$,%o%v$v$H$H$w$w$w$k%'%'%O%e4xayaza!>k1k1k1k1k1k1k1k1k1k1k1k1k1k1k1k1k1k1k1k1k1k1k1k1k1k1k1k1k1k1k1k1k1k1k1k1k1k1k1k1k1k1k1k1@8=8=8=8=8=8=8=8=8=8=8=8=8=8=8=8=8=8=8=8=8=8=8=8=8=8=8=8=8=8=8=8=8=8=8=8=8=8=8=8=8=8=8=8=8=8=8=8=8=8=8=8=8=8=8=8=8=8=8=8=8=8=8=8=8=8=8=8=8=8=8=8=8=8=8=8=8=8=8=8=8=8=8=8=8=8=8=8=8=8=8=8=8=8=8=8=8=8=8=8=8=8=8=8=8=8=8=8=8=8=8=8=8=8=8qak1k1k1k1k1k1k1k1k1k1k1k1k1k1k1k1k1k1k1k1k1k1k1k1k1k1k1k1k1k1k1k1k1k1k1k1k1k1k1k13]AaBaCaraY$&-Y$Y$,&,&'%'%w$w$w$x$H$E%v$E&,%G$#@Q Q Q Q #.Q #.#.@.@.{.%.{.{.{.{.~.i.(.~.(.(.(.(.5.(.5.5.4.5.4.5.4.5.4.4.4.e.4.4.4.e.4.4.4.5.4.5.4.5.4.5.}$5.5.(.5.(.(.(.(.~.~.i.~.{.{.{.{.%.%.@.@.#.#.Q Q Q Q Q Q R R R R w v ka[8                                                                                        ",
"                                                                                    W s|Daw w L L R R R R Q Q Q Q #.#.#.#.@.@.{.%.{.{.{.{.~.i.(.i.(.(.(.(.5.(.5.5.5.5.e.5.e.5.4.5.e.5.4.5.4.5.4.5.e.5.e.5.5.5.5.(.5.(.5.(.(.(.(.i.~.{.i.{.{.{.{.@.%.#.@.#.#.Q Q Q Q -.-.Q ~$u$-&-&,%o%v$v$H$H$w$w$w$j&'%'%O%O%EaB-Fau;N]k1k1k1k1k1k1k1k1k1k1k1k1k1k1k1k1k1k1k1k1k1k1k1k1k1k1k1k1k1k1k1k1k1k1k1k1k1k1k1k1k1k1@8=8=8=8=8=8=8=8=8=8=8=8=8=8=8=8=8=8=8=8=8=8=8=8=8=8=8=8=8=8=8=8=8=8=8=8=8=8=8=8=8=8=8=8=8=8=8=8=8=8=8=8=8=8=8=8=8=8=8=8=8=8=8=8=8=8=8=8=8=8=8=8=8=8=8=8=8=8=8=8=8=8=8=8=8=8=8=8=8=8=8=8=8=8=8=8=8=8=8=8=8=8=8=8=8=8=8=8=8=8=8=8=8=8=8=8=8qak1k1k1k1k1k1k1k1k1k1k1k1k1k1k1k1k1k1k1k1k1k1k1k1k1k1k1k1k1k1k1k1k1k1k1k1k1k1)-GaHaq;Aa)%V$V$Y$Y$O%O%'%'%w$w$w$x$H$E%v$o%,%#@R Q Q Q Q #.#.#.#.%.@.{.{.{.{.i.i.(.i.(.(.(.(.5.5.5.5.5.5.4.5.4.e.4.e.4.4.a.e.a.4.a.4.a.4.a.e.4.e.4.5.4.5.4.5.5.5.5.(.5.(.(.~.(.i.~.{.{.{.{.%.%.@.@.#.#.|.#.Q Q -.Q R R R R w v w Iaj${|                                                                                    ",
"                                                                                Q+4 L.L L R R o.R Q Q Q Q #.#.@.@.{.%.{.{.6.{.(.~.(.(.5.(.5.5.4.5.4.4.a.4.a.a.a.a.a.a.v.a.v.a.v.a.v.a.v.a.v.a.v.a.v.a.v.a.a.a.a.a.a.4.a.4.4.4.4.5.5.5.5.(.(.(.(.i.~.{.{.{.{.@.%.#.@.#.#.Q @.{%,%,%v$v$H$H$w$w$'%'%'%~%,&,&Y$Y$S&JaKaLa{[K'k1k1k1k1k1k1k1k1k1k1k1k1k1k1k1k1k1k1k1k1k1k1k1k1k1k1k1k1k1k1k1k1k1k1k1k1k1k1k1k1@8=8=8=8=8=8=8=8=8=8=8=8=8=8=8=8=8=8=8=8=8=8=8=8=8=8=8=8=8=8=8=8=8=8=8=8=8=8=8=8=8=8=8=8=8=8=8=8=8=8=8=8=8=8=8=8=8=8=8=8=8=8=8=8=8=8=8=8=8=8=8=8=8=8=8=8=8=8=8=8=8=8=8=8=8=8=8=8=8=8=8=8=8=8=8=8=8=8=8=8=8=8=8=8=8=8=8=8=8=8=8=8=8=8=8=8=8=8=8qak1k1k1k1k1k1k1k1k1k1k1k1k1k1k1k1k1k1k1k1k1k1k1k1k1k1k1k1k1k1k1k1k1k1k1k1!>Ma33w[Nal%l%X$X$)%)%Y$Y$,&,&'%'%k%G-x$x$H$E%%#Q |.@.#.@.@.{.{.{.{.~.~.(.(.(.(.5.5.4.5.4.4.a.4.a.a.a.a.a.a.v.a.v.v.n.v.n.v.n.v.n.v.n.v.n.v.n.v.n.v.n.a.v.a.v.a.a.a.a.4.a.4.4.5.4.5.5.(.(.(.(.~.~.{.6.{.{.%.%.@.@.#.#.Q Q Q Q R R R R v .9Oa.$                                                                                ",
"                                                                              C$x)w w L w R R R R Q Q Q Q #.#.@.#.%.%.{.{.{.{.~.i.(.(.(.(.5.5.5.5.e.e.4.e.a.a.a.a.a.a.a.a.a.a.v.a.v.a.v.a.v.a.v.a.a.a.a.a.a.a.a.a.a.4.a.e.4.5.e.5.5.5.5.(.(.~.(.i.i.{.{.%.{.@.%.#.#.|.|.Q Q #.F$,%o%v$E%H$x$w$w$w$'%'%O%O%Y$Y$V$V$PaA-Y<i]`&k1k1k1k1k1k1k1k1k1k1k1k1k1k1k1k1k1k1k1k1k1k1k1k1k1k1k1k1k1k1k1k1k1k1k1k1k1k1@8=8=8=8=8=8=8=8=8=8=8=8=8=8=8=8=8=8=8=8=8=8=8=8=8=8=8=8=8=8=8=8=8=8=8=8=8=8=8=8=8=8=8=8=8=8=8=8=8=8=8=8=8=8=8=8=8=8=8=8=8=8=8=8=8=8=8=8=8=8=8=8=8=8=8=8=8=8=8=8=8=8=8=8=8=8=8=8=8=8=8=8=8=8=8=8=8=8=8=8=8=8=8=8=8=8=8=8=8=8=8=8=8=8=8=8=8=8=8=8=8qak1k1k1k1k1k1k1k1k1k1k1k1k1k1k1k1k1k1k1k1k1k1k1k1k1k1k1k1k1k1k1k1k1k1!>H'5[I<Y<W$l%l%X$)%S&S&Y$Y$O%O%'%'%w$w$I$H$E%%#Q Q Q #.#.@.@.{.%.{.{.i.i.(.(.(.(.5.5.5.5.e.e.a.e.a.a.a.a.a.a.v.a.v.v.r.v.r.v.r.v.r.v.r.v.r.v.r.v.r.v.v.a.v.a.v.a.a.a.a.4.a.e.4.5.5.5.5.(.(.(.(.i.~.{.{.{.{.%.%.#.#.#.#.Q Q -.Q R R R R w w w T@Z0                                                                              ",
"                                                                          3#/#Qav R R R R Q Q Q Q #.#.@.@.{.{.{.{.~.~.(.(.(.(.5.5.4.4.a.4.a.a.a.a.v.v.n.v.n.n.n.n.n.n.n.n.n.n.P.n.P.n.P.n.P.n.P.n.n.n.n.n.n.n.n.n.n.r.n.v.v.a.v.a.a.a.a.4.4.e.4.5.5.(.(.~.(.i.~.{.{.%.%.@.@.#.{.e$E%H$x$w$w$'%'%'%,&,&Y$Y$S&)%X$X$l%RaSaD<Ta;>k1k1k1k1k1k1k1k1k1k1k1k1k1k1k1k1k1k1k1k1k1k1k1k1k1k1k1k1k1k1k1k1k1k1k1k1@8=8=8=8=8=8=8=8=8=8=8=8=8=8=8=8=8=8=8=8=8=8=8=8=8=8=8=8=8=8=8=8=8=8=8=8=8=8=8=8=8=8=8=8=8=8=8=8=8=8=8=8=8=8=8=8=8=8=8=8=8=8=8=8=8=8=8=8=8=8=8=8=8=8=8=8=8=8=8=8=8=8=8=8=8=8=8=8=8=8=8=8=8=8=8=8=8=8=8=8=8=8=8=8=8=8=8=8=8=8=8=8=8=8=8=8=8=8=8=8=8=8=8qak1k1k1k1k1k1k1k1k1k1k1k1k1k1k1k1k1k1k1k1k1k1k1k1k1k1k1k1k1k1k1k1}'UaVaWaXai&i&K-K-W$l%X$X$)%S&Y$Y$,&O%'%'%w$w$6#@.#.@.%.{.{.{.{.(.~.(.(.5.5.4.e.4.4.a.a.a.a.v.v.n.v.n.n.n.n.n.n.P.n.P.P.E.P.E.E.E.P.E.E.E.E.E.E.E.P.E.P.E.n.P.n.P.n.n.n.n.r.n.v.v.a.a.a.a.4.4.4.4.5.5.(.(.(.(.~.~.{.{.%.%.@.@.#.#.Q Q Q Q R R R L IaYaa,                                                                          ",
"                                                                      2}iaZaw v w R R R R Q Q |.Q #.#.%.@.{.{.{.{.~.~.(.(.5.5.e.5.4.4.a.a.a.a.v.a.v.v.n.r.n.n.n.n.n.n.P.n.P.n.E.n.E.P.E.n.E.P.E.n.E.n.P.n.n.n.n.n.n.r.n.r.r.v.v.a.a.a.a.4.a.e.4.5.5.5.5.(.(.i.~.{.{.{.{.@.@.#.#.%.l$H$x$w$w$j&'%'%,&,&Y$Y$S&)%X$X$l%l%Z3q;`a bq_k1k1k1k1k1k1k1k1k1k1k1k1k1k1k1k1k1k1k1k1k1k1k1k1k1k1k1k1k1k1k1k1k1k1@8=8=8=8=8=8=8=8=8=8=8=8=8=8=8=8=8=8=8=8=8=8=8=8=8=8=8=8=8=8=8=8=8=8=8=8=8=8=8=8=8=8=8=8=8=8=8=8=8=8=8=8=8=8=8=8=8=8=8=8=8=8=8=8=8=8=8=8=8=8=8=8=8=8=8=8=8=8=8=8=8=8=8=8=8=8=8=8=8=8=8=8=8=8=8=8=8=8=8=8=8=8=8=8=8=8=8=8=8=8=8=8=8=8=8=8=8=8=8=8=8=8=8=8=8qak1k1k1k1k1k1k1k1k1k1k1k1k1k1k1k1k1k1k1k1k1k1k1k1k1k1k1k1k1k1}'.b+b@b#bn%i&i&K-K-W$l%X$X$)%S&Y$Y$O%O%'%'%w$6##.@.#.%.%.{.{.i.i.(.(.(.5.5.5.4.e.a.a.a.a.v.a.r.v.n.r.n.n.n.n.P.n.E.n.E.E.E.E.E.E.E.E.E.E.E.E.E.E.E.E.E.E.E.P.E.n.E.n.n.n.n.r.n.r.r.a.v.a.a.a.a.4.4.5.5.5.5.(.(.i.~.{.{.{.{.@.@.#.#.Q Q Q Q R R R R w w M $bb                                                                       ",
"                                                                  ($.@%bv R R R R Q Q Q Q @.@.%.@.{.{.~.{.(.(.(.(.5.5.4.4.a.a.a.a.v.v.n.n.n.n.P.n.E.P.E.E.H.E.H.E.H.H.Q.H.Q.H.Q.H.Q.D.Q.H.Q.Q.Q.H.Q.H.Q.H.D.H.H.E.H.E.H.E.E.P.E.n.n.n.n.n.n.v.v.a.a.a.a.4.4.5.5.(.(.(.(.{.6.{.{.@.~.b$w$)='%'%,&,&Y$Y$)%)%X$l%W$W$K-L-i&&b*b=b-be!k1k1k1k1k1k1k1k1k1k1k1k1k1k1k1k1k1k1k1k1k1k1k1k1k1k1k1k1k1k1k1k1@8=8=8=8=8=8=8=8=8=8=8=8=8=8=8=8=8=8=8=8=8=8=8=8=8=8=8=8=8=8=8=8=8=8=8=8=8=8=8=8=8=8=8=8=8=8=8=8=8=8=8=8=8=8=8=8=8=8=8=8=8=8=8=8=8=8=8=8=8=8=8=8=8=8=8=8=8=8=8=8=8=8=8=8=8=8=8=8=8=8=8=8=8=8=8=8=8=8=8=8=8=8=8=8=8=8=8=8=8=8=8=8=8=8=8=8=8=8=8=8=8=8=8=8=8=8=8qak1k1k1k1k1k1k1k1k1k1k1k1k1k1k1k1k1k1k1k1k1k1k1k1k1k1k1k1}'d!d!Ka;bz%z%4%4%H&H&i&L-W$W$X$X$)%S&Y$Y$,&O%I#{.{.{.{.~.~.(.(.5.5.4.4.a.a.a.a.v.v.n.n.n.n.P.n.E.E.H.E.H.E.H.H.Q.H.Q.D.Q.Q.Q.Q.Q.Q.Q.Q.Q.Q.Q.Q.Q.Q.Q.Q.Q.Q.Q.Q.Q.H.Q.H.H.E.H.E.E.E.E.n.P.n.n.n.n.v.4@a.a.a.a.4.4.5.5.(.(.~.(.{.{.{.{.@.@.#.#.Q Q Q Q R R L L >b& t                                                                   ",
"                                                              D2f+|+x w w L R R R -.-.Q Q #.#.@.#.{.{.{.{.~.~.(.(.5.5.e.5.a.a.a.a.v.a.r.r.n.n.n.n.P.n.E.E.E.E.E.E.E.E.H.E.H.E.Q.E.Q.H.Q.E.Q.H.Q.E.Q.E.Q.E.H.E.H.E.E.E.E.E.E.n.E.n.n.r.n.r.r.a.v.a.a.a.a.5.e.5.5.(.(.i.~.{.{.{.{.#.@.<3>%w$'%'%O%O%Y$Y$S&S&X$X$l%W$W$K-i&i&,b'b)b!b~bk1k1k1k1k1k1k1k1k1k1k1k1k1k1k1k1k1k1k1k1k1k1k1k1k1k1k1k1k1k1@8=8=8=8=8=8=8=8=8=8=8=8=8=8=8=8=8=8=8=8=8=8=8=8=8=8=8=8=8=8=8=8=8=8=8=8=8=8=8=8=8=8=8=8=8=8=8=8=8=8=8=8=8=8=8=8=8=8=8=8=8=8=8=8=8=8=8=8=8=8=8=8=8=8=8=8=8=8=8=8=8=8=8=8=8=8=8=8=8=8=8=8=8=8=8=8=8=8=8=8=8=8=8=8=8=8=8=8=8=8=8=8=8=8=8=8=8=8=8=8=8=8=8=8=8=8=8=8=8qak1k1k1k1k1k1k1k1k1k1k1k1k1k1k1k1k1k1k1k1k1k1k1k1k1k1}'{b]b^b/bz%z%z%n%n%i&i&K-W$W$l%X$)%V$Y$2&,&O%I##.%.%.{.{.i.i.(.(.5.5.e.5.4.4.a.a.v.v.r.r.n.n.n.n.E.E.E.E.E.E.H.E.H.E.Q.E.Q.Q.Q.Q.Q.Q.Q.Q.Q.Q.Q.Q.Q.Q.Q.Q.Q.Q.Q.H.Q.E._#E.E.E.E.E.E.P.E.n.n.n.n.r.r.a.v.a.a.4.a.5.5.5.5.(.(.i.i.{.{.%.%.#.#.|.|.Q Q R R R R w w x x (bT.0&                                                              ",
"                                                          jag)`%x v v R R R w.Q Q #.#.@.@.{.{.{.{.~.(.(.(.5.5.4.4.a.a.v.a.n.r.n.n.P.n.E.E.E.E.H.E.Q.H.Q.Q.Q.Q.Q.Q.Q.Q.}+Q.@@Q.V.Q.V.}+V.Q.V.}+V.Q.V.Q.V.Q.Q.Q.Q.Q.Q.Q.Q.Q.Q.D.Q.E.H.E.H.E.E.P.P.n.n.r.n.a.v.a.a.4.4.5.5.(.(.(.(.{.{.{.e.d$O%,&Y$Y$S&)%X$X$W$W$L-];i&H&4%n%z%_bQ[:b<bk]k1k1k1k1k1k1k1k1k1k1k1k1k1k1k1k1k1k1k1k1k1k1k1k1k1k1k1k1@8=8=8=8=8=8=8=8=8=8=8=8=8=8=8=8=8=8=8=8=8=8=8=8=8=8=8=8=8=8=8=8=8=8=8=8=8=8=8=8=8=8=8=8=8=8=8=8=8=8=8=8=8=8=8=8=8=8=8=8=8=8=8=8=8=8=8=8=8=8=8=8=8=8=8=8=8=8=8=8=8=8=8=8=8=8=8=8=8=8=8=8=8=8=8=8=8=8=8=8=8=8=8=8=8=8=8=8=8=8=8=8=8=8=8=8=8=8=8=8=8=8=8=8=8=8=8=8=8=8=8qak1k1k1k1k1k1k1k1k1k1k1k1k1k1k1k1k1k1k1k1k1k1k1k1}'[b}b['|b1%1%1%1%z%z%4%4%i&i&K-K-l%l%X$)%Y$Y$J#{.{.~.~.(.(.5.5.4.4.a.a.v.a.n.r.n.n.P.P.E.E.H.E.H.H.Q.Q.Q.Q.Q.Q.Q.Q.@@Q.V.}+V.V.V.V.V.V.V.V.V.V.V.V.V.V.V.V.V.V.V.}+V.Q.@@Q.Q.Q.Q.Q.Q.Q.Q.H.H.E.H.E.E.n.P.n.n.r.n.a.a.a.a.e.4.5.5.(.(.~.~.{.{.%.%.#.#.Q Q Q Q R R L L w w 1bL4-                                                           ",
"                                                      Q+}.s+r w w v v R R w.-.Q Q #.#.@.@.{.{.{.{.(.(.5.(.5.5.a.4.a.a.v.v.n.r.n.n.P.P.E.E.E.E.Q.E.Q.Q.Q.Q.Q.Q.Q.Q.}+Q..+Q.V.}+V.}+V..+V..+V..+V.}+V.}+V.Q..+Q.}+Q.Q.Q.Q.Q.Q.Q.Q.H.H.E.H.E.E.E.E.n.n.r.n.v.v.a.a.4.a.e.e.5.5.(.(.i.i.{.{.(.c$O%Y$Y$S&)%X$X$W$W$];];i&H&n%n%z%z%z%[>2bT]['k1k1k1k1k1k1k1k1k1k1k1k1k1k1k1k1k1k1k1k1k1k1k1k1k1k1@8=8=8=8=8=8=8=8=8=8=8=8=8=8=8=8=8=8=8=8=8=8=8=8=8=8=8=8=8=8=8=8=8=8=8=8=8=8=8=8=8=8=8=8=8=8=8=8=8=8=8=8=8=8=8=8=8=8=8=8=8=8=8=8=8=8=8=8=8=8=8=8=8=8=8=8=8=8=8=8=8=8=8=8=8=8=8=8=8=8=8=8=8=8=8=8=8=8=8=8=8=8=8=8=8=8=8=8=8=8=8=8=8=8=8=8=8=8=8=8=8=8=8=8=8=8=8=8=8=8=8=8=8qak1k1k1k1k1k1k1k1k1k1k1k1k1k1k1k1k1k1k1k1k1k1n^3bP24b:}t&1%1%1%1%z%z%4%4%i&i&K-K-l%l%X$)%Y$&${.{.{.~.(.(.(.5.5.4.4.a.a.v.v.n.r.n.n.E.E.E.E.H.E.Q.H.Q.Q.Q.Q.Q.Q.}+Q.V.}+V..+V.V.V.V.V.V.V.V.V.V.V.V.V.V.V.V.V.V.V..+V.}+V.Q.}+Q.Q.Q.Q.Q.Q.H.H.E.H.E.E.P.E.n.n.r.n.a.v.a.a.e.4.5.5.(.(.~.~.{.{.%.%.#.#.Q Q Q Q R R R L w w r r 5b;a5                                                       ",
"                                                  c.6b{@x w w L L R R Q Q Q |.@.@.%.{.{.{.(.(.(.(.5.e.a.4.a.a.n.v.n.n.P.P.E.E.H.E.Q.Q.Q.Q.Q.Q.@@Q.V.V.V.V.V.V.;+V.;+V.=+;+=+;+>+;+=+=+>+=+>+=+>+;+=+;+=+;+=+;+;+V.V.V.V.V.V.V.V.Q.@@Q.Q.Q.Q.Q.Q.H.H.E.H.P.P.n.n.r.n.v.v.a.a.4.4.5.5.(.(.{.4.Z$S&S&X$X$W$W$L-i&H&n%4%4%z%z%1%1%1%1%)37b8b*>k1k1k1k1k1k1k1k1k1k1k1k1k1k1k1k1k1k1k1k1k1k1k1k1@8=8=8=8=8=8=8=8=8=8=8=8=8=8=8=8=8=8=8=8=8=8=8=8=8=8=8=8=8=8=8=8=8=8=8=8=8=8=8=8=8=8=8=8=8=8=8=8=8=8=8=8=8=8=8=8=8=8=8=8=8=8=8=8=8=8=8=8=8=8=8=8=8=8=8=8=8=8=8=8=8=8=8=8=8=8=8=8=8=8=8=8=8=8=8=8=8=8=8=8=8=8=8=8=8=8=8=8=8=8=8=8=8=8=8=8=8=8=8=8=8=8=8=8=8=8=8=8=8=8=8=8=8=8=8qak1k1k1k1k1k1k1k1k1k1k1k1k1k1k1k1k1k1k1k1W>9b0bb>U^m%m%3%3%t&t&1%1%z%z%4%4%H&i&K-W$l%l%W#~.(.(.(.5.e.a.4.a.a.n.v.n.n.P.P.E.E.H.H.Q.Q.Q.Q.Q.Q.V.}+V.V.V.V.V.V.=+;+=+;+>+=+>+=+>+=+>+>+>+=+>+>+>+>+>+>+>+=+>+=+>+=+=+;+=+V.;+V.V.V.V.V.V.Q.@@Q.Q.Q.Q.D.Q.E.H.E.E.n.n.n.n.v.v.a.a.4.4.5.5.(.(.~.~.{.{.@.@.#.#.Q Q w.R R R v v x x *3(3a,                                                  ",
"                                              t abbbj r r w w L L R R Q -.Q Q #.#.%.%.{.{.~.~.(.(.5.5.4.4.a.a.v.v.n.n.n.n.E.E.E.E.H.H.Q.Q.Q.Q.}+Q..+}+V..+V.V.V.V.;+V.;+;+=+;+=+;+=+;+=+;+=+;+=+;+=+;+=+;+;+;+;+V.V.V.V.V.V..+V.Q.}+Q.Q.Q.Q.Q.Q.E.E.E.E.P.P.n.n.r.r.a.a.a.a.e.e.5.5.(.(.{.{.e.Z$Y$)%X$l%W$K-];i&i&n%4%z%z%q,1%1%1%t&cbc,dbebk1k1k1k1k1k1k1k1k1k1k1k1k1k1k1k1k1k1k1k1k1k1@8=8=8=8=8=8=8=8=8=8=8=8=8=8=8=8=8=8=8=8=8=8=8=8=8=8=8=8=8=8=8=8=8=8=8=8=8=8=8=8=8=8=8=8=8=8=8=8=8=8=8=8=8=8=8=8=8=8=8=8=8=8=8=8=8=8=8=8=8=8=8=8=8=8=8=8=8=8=8=8=8=8=8=8=8=8=8=8=8=8=8=8=8=8=8=8=8=8=8=8=8=8=8=8=8=8=8=8=8=8=8=8=8=8=8=8=8=8=8=8=8=8=8=8=8=8=8=8=8=8=8=8=8=8=8=8=8qak1k1k1k1k1k1k1k1k1k1k1k1k1k1k1k1k1k1$,fbN~gbhbP>m%m%3%3%D%D%1%1%z%z%n%n%i&i&W$W$!%W#{.~.~.(.(.5.5.4.4.a.a.r.v.n.n.P.n.E.E.H.E.Q.Q.Q.Q.Q.Q..+}+V.V.V.V.V.V.;+;+=+;+=+;+=+=+>+=+>+=+>+=+>+=+>+=+>+=+>+=+=+=+=+;+=+;+=+V.;+V.V.V.V..+V.Q.Q.Q.Q.Q.Q.H._#E.E.E.E.n.n.r.n.a.a.a.a.e.e.5.5.(.(.i.{.{.{.@.@.|.|.Q Q R R R R w w x x j j ib{4`.8.                                            ",
"                                        w-~@jbkbj r x w w R R R R Q Q #.#.@.@.{.{.~.~.(.(.5.5.4.4.a.a.v.v.n.n.P.P.E.E.H.H.Q.Q.Q.Q.}+}+V.V.V.V.;+V.=+;+>+=+>+>+e+>+e+e+e+e+d+e+d+e+d+e+d+e+d+d+d+e+d+e+d+e+e+e+e+>+e+>+>+=+>+=+=+;+;+V.V.V.V.V.V.Q.Q.Q.Q.Q.Q.H.H.E.E.n.n.n.n.v.v.a.a.4.4.(.(.(.4@u$l%l%K-K-i&H&4%4%z%z%1%1%D%t&3%3%m%m%d,K2lbmbz1k1k1k1k1k1k1k1k1k1k1k1k1k1k1k1k1k1k1k1@8=8=8=8=8=8=8=8=8=8=8=8=8=8=8=8=8=8=8=8=8=8=8=8=8=8=8=8=8=8=8=8=8=8=8=8=8=8=8=8=8=8=8=8=8=8=8=8=8=8=8=8=8=8=8=8=8=8=8=8=8=8=8=8=8=8=8=8=8=8=8=8=8=8=8=8=8=8=8=8=8=8=8=8=8=8=8=8=8=8=8=8=8=8=8=8=8=8=8=8=8=8=8=8=8=8=8=8=8=8=8=8=8=8=8=8=8=8=8=8=8=8=8=8=8=8=8=8=8=8=8=8=8=8=8=8=8=8=8nbk1k1k1k1k1k1k1k1k1k1k1k1k1k1k1k1ob(~$)Z!pbP%P%r>r>m%m%+&+&t&D%1%1%z%z%n%n%i&i&qb(.(.5.5.4.4.a.a.n.v.n.n.E.E.E.E.Q.H.Q.Q.Q.Q.V.V.V.V.V.V.=+;+=+=+>+=+e+>+e+e+d+e+d+e+d+d+d+d+d+d+F+d+d+d+H+d+d+d+d+d+d+d+d+e+d+e+d+>+e+>+>+=+>+=+=+V.;+V.V.V.V.Q.@@Q.Q.Q.Q.H.H.E.E.n.n.n.n.a.v.a.a.e.4.5.(.~.~.{.{.%.%.#.#.Q Q Q Q R R v v x x r r e 7.<4-                                         ",
"                                    + [.#5e e j j r x w w R R R R Q Q #.#.@.@.{.{.i.i.(.(.5.5.4.4.a.a.r.r.n.n.E.E.E.E.Q.H.Q.Q.Q.Q..+}+V.V.V.V.;+;+=+=+>+=+>+>+e+e+e+e+d+e+d+d+d+d+d+d+d+d+d+d+d+d+d+d+d+e+d+e+d+e+e+e+e+=+>+=+>+;+=+;+;+V.V.V.V.Q.}+Q.Q.Q.Q.H.H.E.E.P.P.n.n.v.v.a.a.4.4.5.5.(.(.a.-&l%W$K-i&H&4%4%z%z%1%1%D%t&+&+&m%m%2%3>rbsbi}tbk1k1k1k1k1k1k1k1k1k1k1k1k1k1k1k1k1@8=8=8=8=8=8=8=8=8=8=8=8=8=8=8=8=8=8=8=8=8=8=8=8=8=8=8=8=8=8=8=8=8=8=8=8=8=8=8=8=8=8=8=8=8=8=8=8=8=8=8=8=8=8=8=8=8=8=8=8=8=8=8=8=8=8=8=8=8=8=8=8=8=8=8=8=8=8=8=8=8=8=8=8=8=8=8=8=8=8=8=8=8=8=8=8=8=8=8=8=8=8=8=8=8=8=8=8=8=8=8=8=8=8=8=8=8=8=8=8=8=8=8=8=8=8=8=8=8=8=8=8=8=8=8=8=8=8=8=8=8nbk1k1k1k1k1k1k1k1k1k1k1k1k1k1!!w2ub)~vb1&P%P%r>r>m%m%+&+&t&D%1%1%z%z%n%n%i&-$~.(.(.5.5.a.a.a.a.n.r.n.n.E.E.E.E.Q.Q.Q.Q.}+Q.V.V.V.V.;+;+=+=+>+=+e+>+e+e+d+e+d+d+d+d+d+d+H+d+H+d+F+d+H+H+F+d+H+d+H+d+d+d+<&a2wbxbybzb<@AbBbQ6>+=+=+;+;+V.V.V.V.}+V.Q.Q.Q.Q.E.H.E.E.n.n.n.n.v.v.a.a.e.e.5.5.(.~.{.{.%.%.#.#.Q Q -.Q R R v v x x r r e e f I'Cb+ 5                                   ",
"                              Db^.Eb>be e C r x x v v R R o.Q Q Q @.@.%.%.{.{.(.(.5.5.4.4.a.a.4@v.n.n.E.E.H.H.Q.Q.Q.Q.@@Q.V.V.V.V.;+;+>+=+>+>+e+n&`@m@-=c6z[a9FbGbV@HbIbJbKbE+E+E+E+E+E+E+E+E+E+E+E+E+E+F+E+F+E+F+F+H+F+d+d+d+d+e+d+e+e+>+>+=+>+;+;+V.V.V.V.Q.K|Q.Q.D.D.E.E.P.P.n.n.v.v.a.a.4.4.(.n.o%i&i&4%4%z%z%1%1%3%3%+&m%2%2%r>r>P%P%LbMbNbObo3k1k1k1k1k1k1k1k1k1k1k1k1k1k1k1@8=8=8=8=8=8=8=8=8=8=8=8=8=8=8=8=8=8=8=8=8=8=8=8=8=8=8=8=8=8=8=8=8=8=8=8=8=8=8=8=8=8=8=8=8=8=8=8=8=8=8=8=8=8=8=8=8=8=8=8=8=8=8=8=8=8=8=8=8=8=8=8=8=8=8=8=8=8=8=8=8=8=8=8=8=8=8=8=8=8=8=8=8=8=8=8=8=8=8=8=8=8=8=8=8=8=8=8=8=8=8=8=8=8=8=8=8=8=8=8=8=8=8=8=8=8=8=8=8=8=8=8=8=8=8=8=8=8=8=8=8=8=8nbk1k1k1k1k1k1k1k1k1k1k1k13)H2Pbl'QbA%%,A%A%1&1&r>r>2%2%+&+&t&D%1%`;z%u&-$5.5.4.4.a.a.n.n.n.n.E.E.H.H.Q.Q.Q.Q.V.V.V.V.;+;+>+=+>+>+e+e+d+d+d+d+F+d+F+F+E+F+E+E+E+E+I+E+I+E+I+I+I+I+I+I+I+I+I+I+19RbA#f1$@<*x@Sb    $@2.V%z$b+^1TbUbQ#>+>+=+>+;+=+V.V.V.V.Q.Q.Q.Q.H.H.E.E.n.n.n.n.a.a.a.a.5.5.(.(.~.~.{.{.@.@.#.#.Q Q R R L L w w r r j j f f Vb 8Z                               ",
"                        42Z :,Wb< 0 0 f e j j r r w w R R R R Q Q #.#.@.@.{.{.~.i.(.5.e.5.a.a.v.a.n.r.P.n.E.E.H.E.Q.Q.Q.Q..+.+V.V.;+;+=+XbYbZb |`bY@                    l@$@*& cv+E+F+E+F+E+E+E+F+E+F+E+H+E+H+F+H+H+H+H+d+d+d+d+e+e+e+e+=+=+=+=+V.;+V.V.}+.+Q.Q.Q.Q.E.H.E.E.n.n.r.r.a.a.a.a.5.5.(.(..c_-i&n%n%z%z%q,1%D%D%+&+&m%m%2%2%P%P%P%t,l'Qb+cG9k1k1k1k1k1k1k1k1k1k1k1k1k1@8=8=8=8=8=8=8=8=8=8=8=8=8=8=8=8=8=8=8=8=8=8=8=8=8=8=8=8=8=8=8=8=8=8=8=8=8=8=8=8=8=8=8=8=8=8=8=8=8=8=8=8=8=8=8=8=8=8=8=8=8=8=8=8=8=8=8=8=8=8=8=8=8=8=8=8=8=8=8=8=8=8=8=8=8=8=8=8=8=8=8=8=8=8=8=8=8=8=8=8=8=8=8=8=8=8=8=8=8=8=8=8=8=8=8=8=8=8=8=8=8=8=8=8=8=8=8=8=8=8=8=8=8=8=8=8=8=8=8=8=8=8=8=8=8nbk1k1k1k1k1k1k1k1k1k1T;1'@cg^sbC%A%A%A%A%P%P%r>r>m%m%3%3%D%1%z%z%4%'$(.5.5.4.e.a.a.r.r.n.n.E.E.E.E.Q.Q.Q.Q..+}+V.V.;+V.=+=+>+=+e+e+d+e+d+d+H+d+H+H+F+H+E+F+E+E+E+E+I+E+I+I+I+E+I+I+I+E+X[#c8@                                r}J.E1r+q==+;+;+V.V.}+.+Q.Q.Q.Q.E.E.E.E.n.n.r.r.a.a.4.4.5.5.(.(.{.{.%.%.#.#.Q Q -.w.R R w w x x G j e e q 0 < < $c(5%c$                         ",
"                    <#o &c4=< 0 0 f e j j x x v w R R o.-.Q Q @.#.%.{.{.{.(.(.5.5.4.4.a.a.n.n.n.n.E.E.H.H.Q.Q.Q.Q.V.V.V.V.=+=+>+=+*c4'x@$@                                      $@#$=c$#I+$#$##@I+$#I+$#I+$#I+ @I+I+I+I+E+I+E+E+F+F+H+F+d+d+d+d+e+e+>+>+;+=+V.V.V.V.Q.Q.Q.Q.H.H.E.E.n.n.r.n.a.a.4.4.5.E.H$u&z%1%1%D%t&+&+&m%2%r>r>P%!&A%A%A%A%-c;c,2[{f3k1k1k1k1k1k1k1k1k1k1k1@8=8=8=8=8=8=8=8=8=8=8=8=8=8=8=8=8=8=8=8=8=8=8=8=8=8=8=8=8=8=8=8=8=8=8=8=8=8=8=8=8=8=8=8=8=8=8=8=8=8=8=8=8=8=8=8=8=8=8=8=8=8=8=8=8=8=8=8=8=8=8=8=8=8=8=8=8=8=8=8=8=8=8=8=8=8=8=8=8=8=8=8=8=8=8=8=8=8=8=8=8=8=8=8=8=8=8=8=8=8=8=8=8=8=8=8=8=8=8=8=8=8=8=8=8=8=8=8=8=8=8=8=8=8=8=8=8=8=8=8=8=8=8=8=8=8=8nbk1k1k1k1k1k1k1k1P,>c,c'c)cQ%Q%h&h&h&h&A%A%1&!&r>r>m%m%3%3%1%1%'$4.e.a.a.v.v.n.n.E.E.H.H.Q.Q.Q.Q.V.V.V.V.=+;+>+>+e+e+d+d+d+d+F+F+E+F+E+E+I+I+I+I+ @I+$# @#@$##@$##@$##@#@#@#@#@#@!cE^T+                                            $@#746;-=+>+;+;+V.V.V.V.Q.Q.Q.Q.E.H.E.E.n.n.v.v.a.a.4.4.(.(.~.~.{.{.@.@.|.Q Q Q R R L v x x r r e e f f < < } ~c{cC2-                   ",
"              x.]c^c/c} } < < 0 0 e e j j r x w w R R -.-.Q Q #.#.%.{.{.i.(.(.5.5.4.a.a.a.r.n.P.n.E.E.Q.H.Q.Q.}+}+V.V.;+;+=+(c}->$c@                                                S*_c$##@$##@r##@r##@I+$#I+$#I+I+I+I+I+I+E+I+F+E+H+F+H+H+d+d+e+e+>+>+=+=+;+;+V.V.}+}+Q.Q.Q.Q.E.E.P.P.r.n.v.a.a.4.5.5.P.x$z%c>q,1%t&+&+&m%P>r>r>P%7'A%A%A%A%h&<2:c<c[c}ck1k1k1k1k1k1k1k1k1@8=8=8=8=8=8=8=8=8=8=8=8=8=8=8=8=8=8=8=8=8=8=8=8=8=8=8=8=8=8=8=8=8=8=8=8=8=8=8=8=8=8=8=8=8=8=8=8=8=8=8=8=8=8=8=8=8=8=8=8=8=8=8=8=8=8=8=8=8=8=8=8=8=8=8=8=8=8=8=8=8=8=8=8=8=8=8=8=8=8=8=8=8=8=8=8=8=8=8=8=8=8=8=8=8=8=8=8=8=8=8=8=8=8=8=8=8=8=8=8=8=8=8=8=8=8=8=8=8=8=8=8=8=8=8=8=8=8=8=8=8=8=8=8=8=8=8=8=8nbk1k1k1k1k1k1Y2|c1c2c3ct'Q%Q%P~P~h&h&A%A%P%P%r>r>m%m%3%t&1%'$5.4.e.a.a.r.r.n.n.E.E.H.H.Q.Q.Q.Q.V.V.V.V.=+=+>+>+e+e+d+d+H+H+F+F+E+E+I+I+I+I+I+I+$#I+#@$##@$##@#@#@#@#@#@#@#@#@A6l.                                                      O+N,K%=+=+V.V.V.V.Q.Q.Q.Q.E.E.E.E.n.n.v.v.a.a.e.e.(.(.~.~.{.{.@.@.|.Q Q Q R R L v w x r r e e q q < < } } ] { ~ X;5               ",
"            0&p={ } } < < 0 f e e C r x x v v R R Q Q Q |.@.@.{.{.~.~.(.(.4.4.a.a.v.r.n.n.E.E.H.H.Q.Q.K|Q.V.V.;+;+>+=+e+Ab#$&+                                                        +#4c5c)#%#5#%#5#%##@)##@5##@#@#@#@#@#@#@#@ @$#I+ @I+I+E+E+F+F+H+F+d+d+e+e+=+>+;+;+V.V.V.V.Q.Q.D.D.E.E.n.n.r.4@a.a.4.D.w$1%D%3%+&C,2%r>P%1&1&A%A%h&h&h&h&Q%Q%i{[{6c7c84k1k1k1k1k1k1k1@8=8=8=8=8=8=8=8=8=8=8=8=8=8=8=8=8=8=8=8=8=8=8=8=8=8=8=8=8=8=8=8=8=8=8=8=8=8=8=8=8=8=8=8=8=8=8=8=8=8=8=8=8=8=8=8=8=8=8=8=8=8=8=8=8=8=8=8=8=8=8=8=8=8=8=8=8=8=8=8=8=8=8=8=8=8=8=8=8=8=8=8=8=8=8=8=8=8=8=8=8=8=8=8=8=8=8=8=8=8=8=8=8=8=8=8=8=8=8=8=8=8=8=8=8=8=8=8=8=8=8=8=8=8=8=8=8=8=8=8=8=8=8=8=8=8=8=8=8=8=8nbk1k1k1k18cW]U|9c0cB%B%B%B% & &Q%Q%h&h&A%A%1&!&r>2%m%+&{$4.a.v.v.n.n.E.E.H.H.Q.Q.Q.Q.V.V.V.;+>+=+>+e+d+d+d+d+F+F+E+E+I+I+I+I+$#$##@#@#@#@#@#@5##@%#)#%#)#%#%#%#%#%#%#%#%#acbc                                                            :=ccyb>+>+=+=+V.V.V.V.Q.Q.Q.Q.E.E.P.P.n.n.a.a.4.4.5.5.(.(.{.{.%.@.#.#.Q Q R R L L w x r r j e f f < < } } } { k,              ",
"            o , , } } [ < < 0 f f j j r r w w R R R -.Q Q #.#.{.{.{.i.(.(.5.5.a.a.v.v.n.n.E.E.E.E.Q.Q.Q.Q.V.V.;+V.=+)*dck2                                                                ]1ec)#5#)#5#)##@)##@5##@#@#@#@#@#@#@#@I+r#I+I+I+I+E+E+H+F+H+H+d+d+e+e+=+=+;+;+V.V.}+}+Q.Q.H.H.E.E.n.n.r.v.a.a.e.e.E.'%1%t&3%m%m%r>r>P%7'A%A%h&C%h&h&Q%Q%Q%fc+cgchcick1k1k1k1k1@8=8=8=8=8=8=8=8=8=8=8=8=8=8=8=8=8=8=8=8=8=8=8=8=8=8=8=8=8=8=8=8=8=8=8=8=8=8=8=8=8=8=8=8=8=8=8=8=8=8=8=8=8=8=8=8=8=8=8=8=8=8=8=8=8=8=8=8=8=8=8=8=8=8=8=8=8=8=8=8=8=8=8=8=8=8=8=8=8=8=8=8=8=8=8=8=8=8=8=8=8=8=8=8=8=8=8=8=8=8=8=8=8=8=8=8=8=8=8=8=8=8=8=8=8=8=8=8=8=8=8=8=8=8=8=8=8=8=8=8=8=8=8=8=8=8=8=8=8=8=8=8=8nbk1k1%'jckclcmcB%B%B%B%B% &t'Q%Q%h&h&A%A%P%P%P>m%+&{$5.4.a.a.a.n.n.E.P.E.E.Q.Q.Q.Q.V..+V.V.=+=+>+e+d+e+d+d+F+H+E+E+I+I+I+I+$#I+#@#@#@#@#@#@5##@)#)#%#)#%#)#%#)#%#)#%#ncF~                                                                  c@c^oc;+;+V.V..+.+Q.Q.Q.Q.E.E.n.n.r.r.a.a.e.e.5.(.i.i.{.{.#.#.|.Q -.-.R R w w x x G j e e 0 0 < < } } { { )0              ",
"            pc} } [ < 0 0 f e j j r x v w R R Q Q Q |.@.@.{.{.~.~.(.5.4.4.a.a.n.r.n.P.E.E.Q.Q.Q.Q.V.V.V.V.=+=+e+qcE^7+                                                                      rc5c6#6#6#6#%#6#%#6#%#%#%#%#%#%#)#%##@5##@#@#@#@$#$#I+I+I+I+E+E+F+F+d+d+e+e+=+>+;+;+V.V.Q.Q.Q.Q.H.H.E.P.n.n.v.a.a.Q.O%+&m%2%r>P%1&A%A%h&h&Q%Q%t' &B%B%B%B%sctcucvcwck1k1k1@8=8=8=8=8=8=8=8=8=8=8=8=8=8=8=8=8=8=8=8=8=8=8=8=8=8=8=8=8=8=8=8=8=8=8=8=8=8=8=8=8=8=8=8=8=8=8=8=8=8=8=8=8=8=8=8=8=8=8=8=8=8=8=8=8=8=8=8=8=8=8=8=8=8=8=8=8=8=8=8=8=8=8=8=8=8=8=8=8=8=8=8=8=8=8=8=8=8=8=8=8=8=8=8=8=8=8=8=8=8=8=8=8=8=8=8=8=8=8=8=8=8=8=8=8=8=8=8=8=8=8=8=8=8=8=8=8=8=8=8=8=8=8=8=8=8=8=8=8=8=8=8=8=8=8xcyczckcAcO>O>C)O>C)O>O>s)B%B% &Q%Q%h&%,A%1&r>r>|$a.a.v.r.n.n.E.E.Q.Q.Q.Q.V.V.V.V.=+=+>+e+d+d+H+H+E+F+E+I+I+I+$#$##@#@#@#@5##@%#%#%#%#%#%#6#%#6#6#6#6#6#6#T#6#T#6#7!w'                                                                        c@l;*;>+>+;+;+V.V.}+Q.Q.Q.H.H.E.P.n.n.a.a.a.4.5.5.(.(.{.{.%.@.#.#.Q Q R R L v x x r C e e q 0 < < } } I               ",
"            5 } } K < 0 0 f e j j r x w w R R Q -.Q |.@.@.{.{.~.i.(.5.4.e.a.a.r.r.n.P.E.E.Q.Q.Q.Q.V.V.V.V.=+o2BcJ.                                                                            Cc6#6#6#6#6#6#6#6#%#F#%#%#%#%#)#%#5#)##@#@#@#@#@#@I+I+I+I+E+E+F+F+d+d+e+e+=+>+=+=+V.V.}+}+Q.Q.H.H.E.E.n.n.v.v.a.a.Dc,&m%2%2%P%P%A%A%h&h&Q%Q% &B%B%B%B%B%s)EcObFcMb<^k1@8=8=8=8=8=8=8=8=8=8=8=8=8=8=8=8=8=8=8=8=8=8=8=8=8=8=8=8=8=8=8=8=8=8=8=8=8=8=8=8=8=8=8=8=8=8=8=8=8=8=8=8=8=8=8=8=8=8=8=8=8=8=8=8=8=8=8=8=8=8=8=8=8=8=8=8=8=8=8=8=8=8=8=8=8=8=8=8=8=8=8=8=8=8=8=8=8=8=8=8=8=8=8=8=8=8=8=8=8=8=8=8=8=8=8=8=8=8=8=8=8=8=8=8=8=8=8=8=8=8=8=8=8=8=8=8=8=8=8=8=8=8=8=8=8=8=8=8=8=8=8=8=8=8=8GcHczcIco|O>C)C)C)C)C)O>O>s)s)B% &Q%Q%C%A%A%1&r>|$4.a.a.r.r.n.n.E.E.Q.Q.Q.Q.V.V.;+;+=+=+e+e+d+d+H+H+E+E+I+I+I+I+#@#@#@#@#@#@)#)#%#%#%#%#%#%#6#F#6#6#6#6#6#6#T#6#T#JcI|                                                                              J.Kc>+;+;+V.V.}+}+Q.Q.H.H.E.E.n.n.a.a.a.4.5.5.(.(.{.{.%.@.#.|.Q Q R R v v x x G j e e q 0 < < } n=K>              ",
"            K>Lc< < 0 f f j j x x v v R R Q Q Q |.@.@.{.{.~.(.5.5.4.a.v.v.n.n.E.E.H.H.Q.Q.@@V.V.V.=+=+>+>+,@>$                                                                                  McI#I#I#I#I#I#I#T#I#T#7#6#T#6#T#6#6#%#%#%#%#%#%##@#@#@#@$#$#I+ @E+E+F+F+d+d+e+e+>+>+;+;+V.V.Q.Q.Q.Q.H.H.P.n.n.n.a.@@&-P%P%A%A%h&h&Q%t'B%B%=,=,O>O>C)O>C)O>NcOcPcQcRc=8=8=8=8=8=8=8=8=8=8=8=8=8=8=8=8=8=8=8=8=8=8=8=8=8=8=8=8=8=8=8=8=8=8=8=8=8=8=8=8=8=8=8=8=8=8=8=8=8=8=8=8=8=8=8=8=8=8=8=8=8=8=8=8=8=8=8=8=8=8=8=8=8=8=8=8=8=8=8=8=8=8=8=8=8=8=8=8=8=8=8=8=8=8=8=8=8=8=8=8=8=8=8=8=8=8=8=8=8=8=8=8=8=8=8=8=8=8=8=8=8=8=8=8=8=8=8=8=8=8=8=8=8=8=8=8=8=8=8=8=8=8=8=8=8=8=8=8=8=8=8=8=8=8ScTczckcb|(!(!)&)&)&)&)&(!(!C)O>=,B% &t'h&h&A%A%~$v.v.n.n.E.E.H.H.Q.Q.V.V.V.V.>+=+e+e+d+d+F+F+E+E+I+I+$#$##@#@#@#@%#%#%#%#%#%#6#6#T#6#T#T#7#7#I#I#I#I#I#I#I#I#I#I#Uc3+                                                                                    Vc*ce+>+>+;+;+V.V.Q.Q.Q.D.E.E.n.n.r.v.a.a.4.}$(.(.{.{.%.@.#.#.Q Q R R L v w x r C e e q 0 < Wc                ",
"              H;} < < q q e j r r w w R R R -.Q Q #.#.{.{.i.i.(.(.e.e.a.a.r.r.P.n.E.E.Q.Q.Q.Q.V.V.;+;+=+a*(@                                                                                    Xc,(I#I#7#I#7#I#6#7#6#T#6#6#6#6#F#6#%#%#)#%#)#)##@#@#@#@I+r#I+I+E+E+H+F+d+d+e+e+=+=+;+;+.+V.Q.Q.Q._#E.E.n.n.r.v.a.a.Q.S&r>P%A%%,C%h&Q% & &B%s)O>O>C)O>C)O>O>YcOcZc`c d=8=8=8=8=8=8=8=8=8=8=8=8=8=8=8=8=8=8=8=8=8=8=8=8=8=8=8=8=8=8=8=8=8=8=8=8=8=8=8=8=8=8=8=8=8=8=8=8=8=8=8=8=8=8=8=8=8=8=8=8=8=8=8=8=8=8=8=8=8=8=8=8=8=8=8=8=8=8=8=8=8=8=8=8=8=8=8=8=8=8=8=8=8=8=8=8=8=8=8=8=8=8=8=8=8=8=8=8=8=8=8=8=8=8=8=8=8=8=8=8=8=8=8=8=8=8=8=8=8=8=8=8=8=8=8=8=8=8=8=8=8=8=8=8=8=8=8=8=8=8=8=8.dHc+dIco|O>C)/!)&)&)&)&)&/!/!O>O>B%B%Q%Q%C%C%A%)$e.a.a.n.r.P.E.E.E.Q.Q.}+}+V.V.=+=+>+e+d+d+H+H+E+E+I+I+I+I+#@#@#@#@)#)#%#)#%#%#6#F#6#6#6#6#7#6#I#7#I#I#I#I#I#I#I#@dL$                                                                                        H*P6=+=+V.V.}+}+Q.Q.E.E.E.E.n.n.v.a.4.4.5.5.~.~.{.{.#.#.|.Q -.-.R R w w x r j j f f < < > )                 ",
"              7*#df f e j r r w w L R R -.Q Q @.@.{.{.~.~.(.5.4.4.a.v.n.n.E.E.H.H.Q.Q.V.V.V.V.>+=+e+z&F;                                                                                          c@$dW#&$W#J#W#J#&$I#J#I#I#I#I#7#I#T#T#6#6#6#6#%#%#%#%##@5##@#@$#$#I+I+E+E+F+F+d+d+e+e+=+=+V.V.}+}+Q.Q.H.H.E.P.n.n.a.V.X$A%A%h&h&t' &B%s)O>C)(!/!)&)&)&(!(!C)%dOcPc`c d=8=8=8=8=8=8=8=8=8=8=8=8=8=8=8=8=8=8=8=8=8=8=8=8=8=8=8=8=8=8=8=8=8=8=8=8=8=8=8=8=8=8=8=8=8=8=8=8=8=8=8=8=8=8=8=8=8=8=8=8=8=8=8=8=8=8=8=8=8=8=8=8=8=8=8=8=8=8=8=8=8=8=8=8=8=8=8=8=8=8=8=8=8=8=8=8=8=8=8=8=8=8=8=8=8=8=8=8=8=8=8=8=8=8=8=8=8=8=8=8=8=8=8=8=8=8=8=8=8=8=8=8=8=8=8=8=8=8=8=8=8=8=8=8=8=8=8=8=8=8&dU<*dkcb|/!/!)&'&*,*,*,*,*,'&)&(!C)O>=,B%t'Q%h&~$v.v.n.n.E.E.H.Q.Q.Q.V.V.;+;+>+>+d+e+d+H+E+E+I+I+$# @#@#@#@#@%#%#%#%#6#6#T#6#T#T#I#7#I#I#I#I#J#J#W#J#W#W#W#W#W#W#W#=d                                                                                            -dq2S@>+>+;+;+V.V.Q.Q.Q.Q.E.E.n.n.v.v.a.a.5.5.(.(.{.{.@.@.|.Q Q Q R R v w r r j j f f S                   ",
"                ;dq q e e r r w w L R R -.Q Q #.#.{.{.~.~.(.5.4.4.a.a.n.n.E.E.H.H.Q.Q.V..+V.;+=+=+^|}@                                                                                              >dW#W#W#W#W#J#W#J#J#I#I#I#I#I#I#7#7#6#6#6#6#%#%#%#%#)#)##@#@#@#@I+I+I+E+F+F+d+d+e+e+=+=+;+V..+.+Q.Q.H.H.E.E.n.n.a.a.,dl%A%h&h&Q% &B%s)O>C)(!/!)&)&)&)&)&/!C)YcOcFc'd)d=8=8=8=8=8=8=8=8=8=8=8=8=8=8=8=8=8=8=8=8=8=8=8=8=8=8=8=8=8=8=8=8=8=8=8=8=8=8=8=8=8=8=8=8=8=8=8=8=8=8=8=8=8=8=8=8=8=8=8=8=8=8=8=8=8=8=8=8=8=8=8=8=8=8=8=8=8=8=8=8=8=8=8=8=8=8=8=8=8=8=8=8=8=8=8=8=8=8=8=8=8=8=8=8=8=8=8=8=8=8=8=8=8=8=8=8=8=8=8=8=8=8=8=8=8=8=8=8=8=8=8=8=8=8=8=8=8=8=8=8=8=8=8=8=8=8=8=8!d~dW]{do|O>C)/!)&'&*,*,f~*,*,)&)&/!C)s)B% &t'h&~$a.v.v.n.n.E.E.Q.Q.Q.Q.V.V.;+;+>+>+d+d+H+H+E+E+I+I+$#r##@#@)##@%#%#%#%#6#6#T#6#7#7#I#I#I#I#J#I#J#J#W#P$W#W#*$W#*$W#]df$                                                                                                |{l6>+;+;+V.V.Q.Q.Q.Q.E.E.n.n.v.v.a.a.5.5.(.(.{.{.@.@.|.Q Q -.R R w w r r j j f P#z                   ",
"                  `2j r r w w L R R Q Q Q @.@.{.{.~.(.5.5.4.a.v.v.n.n.E.E.D.Q.Q.Q.V.V.;+;+>+>+d+:$(@                                                                                                Y@^d7$=$7$=$*$7$*$*$W#*$W#W#W#W#J#&$I#I#I#I#T#7#6#T#6#6#%#%#)#%##@#@#@#@I+ @E+E+F+F+d+d+e+>+=+;+V.V.Q.Q.Q.Q.E.E.n.n.v.=+i&Q%Q%B%B%O>O>(!)&'&'&*,*,f~*,*,)&)&/!Yc/d(d_d:d=8=8=8=8=8=8=8=8=8=8=8=8=8=8=8=8=8=8=8=8=8=8=8=8=8=8=8=8=8=8=8=8=8=8=8=8=8=8=8=8=8=8=8=8=8=8=8=8=8=8=8=8=8=8=8=8=8=8=8=8=8=8=8=8=8=8=8=8=8=8=8=8=8=8=8=8=8=8=8=8=8=8=8=8=8=8=8=8=8=8=8=8=8=8=8=8=8=8=8=8=8=8=8=8=8=8=8=8=8=8=8=8=8=8=8=8=8=8=8=8=8=8=8=8=8=8=8=8=8=8=8=8=8=8=8=8=8=8=8=8=8=8=8=8=8=8<d[d|c}d|dO>C))&)&*,f~.&.&R~/~/~*,'&)&(!O>O>B%B%~$n.n.P.P.H.H.Q.Q.V.V.V.V.>+>+e+e+d+H+E+E+I+I+$#$##@#@5#5#%#%#6#%#6#6#7#T#I#I#I#I#&$J#W#W#W#W#*$*$*$*$=$7$=$=$-$=$-$-$g1                                                                                                    Y+1de+e+=+=+V.V.V.@@Q.Q.H.H.P.n.n.4@a.a.5.5.(.(.{.{.@.@.#.Q Q Q R R w w r r j4:.                    ",
"                  _ 2dj G x w v L R R Q Q #.#.%.{.{.i.(.5.e.4.a.a.r.n.E.E.H.H.Q.Q..+V.;+;+=+=+a*n#                                                                                                    <$3d7$*$7$*$*$*$*$W#*$W#W#J#W#J#J#I#I#I#I#6#7#6#6#F#6#%#%#)#)##@#@#@$#I+I+E+E+H+H+d+d+>+>+;+;+V.V.Q.Q.Q._#E.E.n.n.v.a.;+i&h&t'B%s)O>C)/!)&'&*,*,*,7,7,)&)&C)O>X!/d4d5d6d=8=8=8=8=8=8=8=8=8=8=8=8=8=8=8=8=8=8=8=8=8=8=8=8=8=8=8=8=8=8=8=8=8=8=8=8=8=8=8=8=8=8=8=8=8=8=8=8=8=8=8=8=8=8=8=8=8=8=8=8=8=8=8=8=8=8=8=8=8=8=8=8=8=8=8=8=8=8=8=8=8=8=8=8=8=8=8=8=8=8=8=8=8=8=8=8=8=8=8=8=8=8=8=8=8=8=8=8=8=8=8=8=8=8=8=8=8=8=8=8=8=8=8=8=8=8=8=8=8=8=8=8=8=8=8=8=8=8=8=8=8=8=8=87dB(8dq19cB%O>O>/!)&'&7,/~/~R~/~f~'&)&/!C)s)B% &~$a.v.r.n.n.E.E.Q.Q.Q.}+V.V.=+=+e+e+d+d+F+F+I+I+$#I+#@#@5##@%#%#F#%#6#6#T#6#I#I#I#I#J#J#W#P$W#W#*$*$*$*$7$*$7$7$-$7$-$W5                                                                                                        $@g$>+=+;+V.V.Q.Q.Q.Q.E.E.n.n.v.v.a.4.5.5.~.~.{.{.#.#.Q Q R R R L w x r G 9d                      ",
"                    0dx x v L R R Q Q #.#.%.{.~.~.(.5.4.4.a.v.n.n.E.E.D.Q.Q.Q.V.V.;+=+>+e+d+c6                                                                                                          ad'$'$'$-$-$-$-$-$-$=$=$*$7$*$*$W#W#W#W#J#J#I#I#7#I#T#T#6#6#%#%#)#)##@#@$#$#I+I+E+F+d+d+e+e+=+=+V.V..+K|Q.Q.E.E.n.n.r.=+n%B%B%O>C)(!)&*,*,/~/~L|/~/~*,'&)&(!O>bd+c6ccddd=8=8=8=8=8=8=8=8=8=8=8=8=8=8=8=8=8=8=8=8=8=8=8=8=8=8=8=8=8=8=8=8=8=8=8=8=8=8=8=8=8=8=8=8=8=8=8=8=8=8=8=8=8=8=8=8=8=8=8=8=8=8=8=8=8=8=8=8=8=8=8=8=8=8=8=8=8=8=8=8=8=8=8=8=8=8=8=8=8=8=8=8=8=8=8=8=8=8=8=8=8=8=8=8=8=8=8=8=8=8=8=8=8=8=8=8=8=8=8=8=8=8=8=8=8=8=8=8=8=8=8=8=8=8=8=8=8=8=8=8=8=8edfdgd#1hdmcs)O>C))&)&*,f~.&L|R~/~/~*,'&)&(!O>O>~$n.n.P.E.H.H.Q.Q.V.V.;+;+>+>+d+d+F+F+E+E+ @I+#@#@5##@%#%#6#%#6#6#7#7#I#I#J#I#W#W#W#W#*$*$=$7$=$=$-$-$-$-$'$-$'$'${$'${$k5                                                                                                          (@H|e+e+=+=+V.V.}+Q.Q.Q.E.E.n.n.v.v.a.4.5.5.(.~.{.{.@.@.Q Q w.R L L w T@[#                      ",
"                      idx w L R R Q Q #.#.%.{.i.i.(.5.4.4.a.v.n.n.E.E.Q.Q.Q.Q.V.V.;+=+e+e+jd                                                                                                            W|)|'$k$-$'$-$'$-$-$-$-$7$7$*$7$*$*$W#W#J#J#I#I#I#I#T#T#6#6#%#%#)#)##@#@#@$#I+I+E+E+H+H+e+e+=+=+V.V..+}+Q.Q.E.E.n.n.r.v.=+4%B%O>O>/!)&'&7,/~/~R~/~/~7,'&/!C)O>=,R1kd}2ldmd=8=8=8=8=8=8=8=8=8=8=8=8=8=8=8=8=8=8=8=8=8=8=8=8=8=8=8=8=8=8=8=8=8=8=8=8=8=8=8=8=8=8=8=8=8=8=8=8=8=8=8=8=8=8=8=8=8=8=8=8=8=8=8=8=8=8=8=8=8=8=8=8=8=8=8=8=8=8=8=8=8=8=8=8=8=8=8=8=8=8=8=8=8=8=8=8=8=8=8=8=8=8=8=8=8=8=8=8=8=8=8=8=8=8=8=8=8=8=8=8=8=8=8=8=8=8=8=8=8=8=8=8=8=8=8=8=8=8=8=8ndod)]>'rbpdB%B%O>O>(!)&'&7,/~/~/~*,*,)&)&C)C)s)~$a.n.n.P.E.H.H.Q.Q.V.V.;+;+>+>+d+d+F+F+E+I+I+I+#@#@)#5#%#%#6#6#6#6#I#7#I#I#J#J#W#W#*$*$*$*$=$7$-$-$-$-$'$-$k$'$k$k${$k$qdy4                                                                                                            =#rde+=+=+V.V.}+Q.Q.Q.E.E.n.n.v.v.a.4.5.5.(.~.{.{.#.#.Q Q R R L v sds>                        ",
"                      - x)R R Q Q #.#.%.{.6.~.(.5.4.4.v.v.n.n.E.E.Q.Q.Q.}+V.V.>+=+e+e+d+F=                                                                                                              tdY9_%|${$_%{$_%{${$k${$'$'$-$'$-$-$=$=$*$*$W#W#W#W#I#I#I#I#T#T#6#6#%#%#)#5##@#@$#$#I+I+F+F+d+d+>+>+;+;+V.V.Q.Q.H.H.E.P.n.d+z%O>C))&)&*,*,.&L|R~L|.&f~*,)&)&C)O>B%fcud[|vdwd=8=8=8=8=8=8=8=8=8=8=8=8=8=8=8=8=8=8=8=8=8=8=8=8=8=8=8=8=8=8=8=8=8=8=8=8=8=8=8=8=8=8=8=8=8=8=8=8=8=8=8=8=8=8=8=8=8=8=8=8=8=8=8=8=8=8=8=8=8=8=8=8=8=8=8=8=8=8=8=8=8=8=8=8=8=8=8=8=8=8=8=8=8=8=8=8=8=8=8=8=8=8=8=8=8=8=8=8=8=8=8=8=8=8=8=8=8=8=8=8=8=8=8=8=8=8=8=8=8=8=8=8=8=8=8=8=8=8xdydw2zdAdBdt'B%s)O>C))&)&*,*,/~f~/~*,*,'&)&(!C)1$n.n.E.E.D.Q.Q.Q.V.V.=+=+e+e+d+H+E+E+I+I+#@#@#@#@%#%#6#6#T#T#I#I#I#I#W#&$W#W#*$*$=$=$-$-$-$-$'$'${${${${$_%{$|$_%|$|$|$|$O5                                                                                                                CdJbd+d+>+>+;+V.V.V.Q.Q.H.H.n.n.r.v.a.4.5.5.(.~.{.{.@.@.Q Q R ~|w7                          ",
"                        t.DdR -.-.Q |.@.@.{.{.(.(.5.e.a.a.r.n.E.E.E._#Q.Q.V.V.;+;+>+e+k@Cd                                                                                                                Ed_%|${${$k${$k$k$k$k$-$'$-$-$-$-$7$7$*$*$W#W#J#J#I#I#I#I#6#6#6#6#%#%##@#@#@#@I+I+I+E+H+H+d+e+=+=+;+V..+}+Q.Q.E.E.n.n.v.v.>+z%s)C)/!)&'&*,*,/~f~*,'&)&/!C)O>s) &t'$)FdQbGdHd=8=8=8=8=8=8=8=8=8=8=8=8=8=8=8=8=8=8=8=8=8=8=8=8=8=8=8=8=8=8=8=8=8=8=8=8=8=8=8=8=8=8=8=8=8=8=8=8=8=8=8=8=8=8=8=8=8=8=8=8=8=8=8=8=8=8=8=8=8=8=8=8=8=8=8=8=8=8=8=8=8=8=8=8=8=8=8=8=8=8=8=8=8=8=8=8=8=8=8=8=8=8=8=8=8=8=8=8=8=8=8=8=8=8=8=8=8=8=8=8=8=8=8=8=8=8=8=8=8=8=8=8=8=8=8=8IdJdKdLdMdNbh&P~t' &s)O>C)C))&)&'&)&'&)&)&C)C)O>~$a.r.r.E.E.E._#Q.Q.V.V.;+;+>+e+d+d+F+F+I+I+$##@#@#@)#)#%#%#6#6#7#7#I#I#J#J#W#W#*$*$7$7$-$c]-$-$'$'$k$k${$k${${$|${$|$|$|$|$z<                                                                                                                  *#Nde+=+=+V.V.}+Q.Q.Q.E.E.n.n.a.a.e.e.5.(.i.{.%.%.#.|.Q Q R V                             ",
"                          {|OdQ Q @.@.{.{.(.(.}$e.a.a.n.n.E.E.H.Q.Q.Q.V.V.=+=+e+e+d+:$W|                                                                                                                  e*)$~$|$)$|$:%|$|$|$|$_%_%{${$k${$'$'$-$-$=$=$*$*$W#W#W#W#I#I#I#I#6#T#%#%#%#%##@#@#@$#I+I+F+F+d+d+e+>+;+;+V.V.Q.Q.H.H.P.n.n.d+1%C)(!'&'&*,*,/~f~f~7,'&)&(!O>O>B%B%Q%<2PdQdRdSd=8=8=8=8=8=8=8=8=8=8=8=8=8=8=8=8=8=8=8=8=8=8=8=8=8=8=8=8=8=8=8=8=8=8=8=8=8=8=8=8=8=8=8=8=8=8=8=8=8=8=8=8=8=8=8=8=8=8=8=8=8=8=8=8=8=8=8=8=8=8=8=8=8=8=8=8=8=8=8=8=8=8=8=8=8=8=8=8=8=8=8=8=8=8=8=8=8=8=8=8=8=8=8=8=8=8=8=8=8=8=8=8=8=8=8=8=8=8=8=8=8=8=8=8=8=8=8=8=8=8=8=8=8=8TdUdVdWd_~XdC%h&Q%B%B%=,O>C)C))&)&'&)&'&)&)&/!C)~$n.n.E.E.Q.Q.Q.Q.V.V.=+=+e+e+d+H+E+E+I+I+#@#@5#)#%#%#6#6#T#T#I#I#&$J#W#W#*$*$=$=$-$-$'$'${$k${${$_%_%|$|$|$|$:%|$~$)$~$~$~$Yd4;                                                                                                                    @%Zdd+e+=+=+V.V.}+Q.Q.Q.E.E.n.n.a.a.4.4.(.(.i.{.%.@.#.#.`d                              ",
"                            ~@~&Q #.@.{.{.(.(.5.5.a.a.n.r.E.E.H._#Q.Q.V.V.=+=+e+e+:; e                                                                                                                    .e+e~$|$~$|$)$|$|$|$|$|$|${$_%k${$k$k$-$-$-$-$7$7$*$*$W#W#J#I#I#I#6#6#6#F#%#%##@#@#@#@I+I+E+F+d+d+e+e+;+;+V.V.Q.Q.H.H.E.P.r.r.e+1%C)(!(!)&'&7,'&'&)&)&C)C)s)B% &t'h&h&[/A!@e#e$e=8=8=8=8=8=8=8=8=8=8=8=8=8=8=8=8=8=8=8=8=8=8=8=8=8=8=8=8=8=8=8=8=8=8=8=8=8=8=8=8=8=8=8=8=8=8=8=8=8=8=8=8=8=8=8=8=8=8=8=8=8=8=8=8=8=8=8=8=8=8=8=8=8=8=8=8=8=8=8=8=8=8=8=8=8=8=8=8=8=8=8=8=8=8=8=8=8=8=8=8=8=8=8=8=8=8=8=8=8=8=8=8=8=8=8=8=8=8=8=8=8=8=8=8=8=8=8=8=8=8=8=8%ep(&e*e=e-eA%A%h&h&Q%Q%B%B%O>O>C)C)/!C)/!C)C)O>~$a.n.n.E.E.Q.Q.Q.}+V.V.=+=+e+e+H+H+E+E+I+r##@#@)#)#%#%#6#6#7#7#I#I#&$J#W#W#*$*$=$-$-$-$'$'${$k${${$|$|$|$|$:%|$~$)$~$~$~$~$~$$0;e                                                                                                                      Y&d+e+=+=+V.V.}+Q.Q.Q.E.E.n.n.a.a.4.e.(.(.i.{.%.@.#.78                                ",
"                              E8h7{.{.(.(.5.4.a.a.n.n.E.E.H.Q.Q.Q.V.V.=+=+e+d+F+U6Y+                                                                                                                      F~>e!$1$!$~$m$~$~$~$~$~$~$:%)$|$|$|$|${${$k${$'$'$-$-$7$7$*$*$W#W#I#I#7#7#6#6#%#%#%#%##@#@ @ @E+E+F+F+e+e+=+=+V.V.Q.Q.D.H.E.E.n.F+D%(!(!)&'&'&'&'&)&)&/!C)O>=,B% &Q%h&%,r,,eg!'e)e=8=8=8=8=8=8=8=8=8=8=8=8=8=8=8=8=8=8=8=8=8=8=8=8=8=8=8=8=8=8=8=8=8=8=8=8=8=8=8=8=8=8=8=8=8=8=8=8=8=8=8=8=8=8=8=8=8=8=8=8=8=8=8=8=8=8=8=8=8=8=8=8=8=8=8=8=8=8=8=8=8=8=8=8=8=8=8=8=8=8=8=8=8=8=8=8=8=8=8=8=8=8=8=8=8=8=8=8=8=8=8=8=8=8=8=8=8=8=8=8=8=8=8=8=8=8=8=8=8=8!e~e&({e7}]e1&A%A%h&h&t't'B%B%O>O>C)C)(!C)/!C)C)~$n.n.E.E.Q.Q.@@V.V.;+>+>+d+d+F+F+I+I+$#$##@#@%#%#6#6#T#T#I#I#&$J#W#W#*$*$=$-$-$-$'$k${${$_%|$|$|$:%:%~$~$~$~$~$~$!$m$!$m$!$!$!$,0                                                                                                                        T+s@F+d+d+>+>+V.V.V.K|Q.Q.E.E.n.n.v.a.4.4.(.(.{.{.^e#                                 ",
"                                k8%.{.i.i.5.5.a.a.v.r.n.P.E.H.Q.Q.V.V.;+;+e+e+d+N}                                                                                                                          /e!$1$m$~$1$~$~$~$~$~$~$|$|$|$|$|$|${${$k$k$-$-$-$-$*$*$*$W#J#J#I#I#7#7#6#6#%#%#)#5##@#@I+I+E+E+H+d+e+e+=+;+V.V.Q.Q.E.E.E.n.r.v.e+D%O>C)C)/!C)/!C)C)O>s)B%B%Q%Q%h&C%A%1&(e'/3%_e:e=8=8=8=8=8=8=8=8=8=8=8=8=8=8=8=8=8=8=8=8=8=8=8=8=8=8=8=8=8=8=8=8=8=8=8=8=8=8=8=8=8=8=8=8=8=8=8=8=8=8=8=8=8=8=8=8=8=8=8=8=8=8=8=8=8=8=8=8=8=8=8=8=8=8=8=8=8=8=8=8=8=8=8=8=8=8=8=8=8=8=8=8=8=8=8=8=8=8=8=8=8=8=8=8=8=8=8=8=8=8=8=8=8=8=8=8=8=8=8=8=8=8=8=8=8=8=8=8<e[eJ~}em>~,2%r>!&1&A%C%h&h&Q%t'B%B%B%B%=,s)s)B%~$a.r.n.E.E.H.Q.Q.}+V.V.=+=+e+d+H+H+E+I+r#r##@#@%#)#%#6#6#6#I#I#J#J#W#W#*$*$7$7$-$-$'$k${$k$_%|$|$|$|$|$~$~$~$~$~$~$m$1$!$m$!$m$!$|e                                                                                                                          }@N-e+e+=+=+V.V.Q.Q._#H.E.E.r.r.a.a.5.5.(.~.{.1e}%                                  ",
"                                  2e~.5.5.4.a.v.v.n.P.H.H.Q.Q.V.V.;+=+e+e+d+H+M& )                                                                                                                          3eF${%F${%{%!$!$!$!$m$!$~$~$~$~$~$~$|$|$|$|${${$k${$-$-$-$-$*$*$W#W#J#J#I#I#T#T#6#n!%#%##@#@$# @I+E+H+H+e+e+=+=+V.V.Q.Q.D.H.E.P.n.F+D%C)C)(!C)/!C)C)O>O>B%B%t'Q%h&h&A%A%P%4e5eQ^6e7e=8=8=8=8=8=8=8=8=8=8=8=8=8=8=8=8=8=8=8=8=8=8=8=8=8=8=8=8=8=8=8=8=8=8=8=8=8=8=8=8=8=8=8=8=8=8=8=8=8=8=8=8=8=8=8=8=8=8=8=8=8=8=8=8=8=8=8=8=8=8=8=8=8=8=8=8=8=8=8=8=8=8=8=8=8=8=8=8=8=8=8=8=8=8=8=8=8=8=8=8=8=8=8=8=8=8=8=8=8=8=8=8=8=8=8=8=8=8=8=8=8=8=8=8=8=88e9e0/0eE'k/m%r>P%1&A%%,h&h&Q%t't'B%B%B%B%=,B%=,_4n.n.E.E.Q.Q.Q.V.V.V.>+>+d+d+F+F+I+I+$##@#@#@%#%#6#6#T#7#I#I#W#W#*$*$=$=$-$-$'$k${${$|$|$|$|$~$~$~$~$~$~$!$m$!$!${%!$F${%F$F$L&F$L&ae                                                                                                                            P;F+F+d+e+=+=+V.V.Q.Q.Q.H.E.P.n.n.a.a.5.5.bew+                                    ",
"                                    F7ce5.4.a.v.v.n.P.E.E.Q.Q.V.V.;+=+e+e+d+,]r@                                                                                                                          C&deF$F$F${%F$!${%!$!$m$!$1$m$~$~$~$~$|$|$|$|$_%_%k${$'$'$-$-$7$7$*$W#J#J#I#I#6#6#6#6#)#)##@#@r#I+I+I+H+H+d+e+=+=+V.V.Q.Q.Q.H.E.P.r.r.d+1%s)O>s)O>s)=,B%B%t't'h&h&C%A%1&P%r>2%eefe-}gehe=8=8=8=8=8=8=8=8=8=8=8=8=8=8=8=8=8=8=8=8=8=8=8=8=8=8=8=8=8=8=8=8=8=8=8=8=8=8=8=8=8=8=8=8=8=8=8=8=8=8=8=8=8=8=8=8=8=8=8=8=8=8=8=8=8=8=8=8=8=8=8=8=8=8=8=8=8=8=8=8=8=8=8=8=8=8=8=8=8=8=8=8=8=8=8=8=8=8=8=8=8=8=8=8=8=8=8=8=8=8=8=8=8=8=8=8=8=8=8=8=8=8=8=8ieje$'keleme+&+&P>2%P%P%A%A%C%C%h&P~Q%Q%t't'B%t'|$a.n.n.E.E.Q.Q.}+.+V.;+=+>+d+d+F+E+I+I+#@#@5#5#%#%#6#6#7#I#I#I#W#W#*$*$=$=$-$-$k$k${${$|$|$|$|$~$~$~$~$1$1$!$m$!$!${%{%F$F$F$F$L&F$a$>ene                                                                                                                          Y+|}H+d+e+=+=+V.V.Q.Q._#H.E.P.r.r.a.4.5.oeB#                                      ",
"                                      peqev.v.n.n.H.H.Q.Q.V.V.=+=+e+e+d+H+E+re                                                                                                                            Xcsee$e$e$a$e$a$a$L&L&F$F${%F$!$!$!$!$~$~$~$~$)$)$|$|$_%_%{${$'$-$-$=$*$*$W#W#I#I#I#I#6#6#%#%#5##@#@$#I+I+F+F+d+d+>+>+V.V.Q.Q.Q.H.E.P.n.E+1%O>=,O>s)=,B%B%t't'Q%h&h&2'A%1&P%r>m%teuevewexe=8=8=8=8=8=8=8=8=8=8=8=8=8=8=8=8=8=8=8=8=8=8=8=8=8=8=8=8=8=8=8=8=8=8=8=8=8=8=8=8=8=8=8=8=8=8=8=8=8=8=8=8=8=8=8=8=8=8=8=8=8=8=8=8=8=8=8=8=8=8=8=8=8=8=8=8=8=8=8=8=8=8=8=8=8=8=8=8=8=8=8=8=8=8=8=8=8=8=8=8=8=8=8=8=8=8=8=8=8=8=8=8=8=8=8=8=8=8=8=8=8=8yeze]bAek]Bet&+&m%2%r>P%P%A%A%h&h&h&h&t'Q%t't' &|$n.n.E.E.Q.Q.V.V.V.;+>+>+d+d+E+E+I+ @#@#@)#%#%#%#T#T#I#I#&$&$W#W#7$=$-$-$'$k${${$|$|$:%|$~$~$~$~$!$!$!$!${%{%L&F$L&L&e$a$e$e$e$e$l$e$h*Cen-                                                                                                                            9@E+F+F+d+e+>+=+V.V.Q.Q.H.H.E.P.r.v.De                                          ",
"                                        ).c;a.n.n.E.E.Q.Q.Q..+V.;+=+>+d+d+:6$@                                                                                                                            y*Eee$a$e$a$a$O&a$F$F$F$F${%{%!$!$m$m$~$~$~$~$|$|$|$|${${$k$k$-$-$7$7$*$*$W#W#I#I#7#T#6#6#%#%##@#@$#r#I+E+H+H+e+e+=+=+V.V.Q.Q.E.E.P.n.v.v.d+c>Q% &Q%t'Q%Q%h&h&%,A%A%1&P%r>P>m%3%t&FeGeHeIeJe=8=8=8=8=8=8=8=8=8=8=8=8=8=8=8=8=8=8=8=8=8=8=8=8=8=8=8=8=8=8=8=8=8=8=8=8=8=8=8=8=8=8=8=8=8=8=8=8=8=8=8=8=8=8=8=8=8=8=8=8=8=8=8=8=8=8=8=8=8=8=8=8=8=8=8=8=8=8=8=8=8=8=8=8=8=8=8=8=8=8=8=8=8=8=8=8=8=8=8=8=8=8=8=8=8=8=8=8=8=8=8=8=8=8=8=8=8=8=8=8KeLeb3MeWaNeq,1%t&t&+&m%2%2%P%P%A%A%A%A%h&C%h&h&{$a.r.r.E.E.H.Q.Q.}+V.V.=+=+d+d+F+F+I+I+#@#@#@)#%#%#6#6#I#I#I#J#W#W#*$7$-$-$'$'${$k$|$|$|$|$~$~$~$~$m$m$!$!${%{%F$F$F$F$a$O&e$a$e$e$e$e$l$e$#=                                                                                                                            %*OeH+d+e+>+;+;+.+}+Q.Q.E.E.n.n.a.Pe                                            ",
"                                          c.QeE.E.D.Q.Q.}+V.;+>+>+d+d+F+E+re                                                                                                                              `-y%y%h*y%h*y%l$l$e$e$e$e$a$a$F$L&F$F$!$!$!$!$~$~$~$~$|$:%|$|${${$'$'$-$-$7$*$W#W#J#I#I#7#6#6#%#%#5##@#@$#I+I+F+F+d+e+=+=+V.V.Q.Q.H.H.P.n.r.Z_z%t't't'Q%Q%h&h&C%%,A%A%P%r>2%2%+&3%D%ReSeTeUeVe=8=8=8=8=8=8=8=8=8=8=8=8=8=8=8=8=8=8=8=8=8=8=8=8=8=8=8=8=8=8=8=8=8=8=8=8=8=8=8=8=8=8=8=8=8=8=8=8=8=8=8=8=8=8=8=8=8=8=8=8=8=8=8=8=8=8=8=8=8=8=8=8=8=8=8=8=8=8=8=8=8=8=8=8=8=8=8=8=8=8=8=8=8=8=8=8=8=8=8=8=8=8=8=8=8=8=8=8=8=8=8=8=8=8=8=8=8=8WeXeYeZe`e fz%1%1%3%3%m%m%2%2%P%P%A%A%A%A%h&C%h&{$n.n.P.E.D.Q.Q.}+V.V.>+>+d+d+F+E+I+I+#@#@)#)#%#6#T#T#I#I#&$&$W#*$=$=$-$-${$k$_%_%|$|$~$~$~$~$m$m$!$!$F$F$L&F$a$a$e$e$e$e$h*l$y%h*y%y%b$y%b$b$,_                                                                                                                              6^E+E+d+d+e+>+;+V.V.V.Q.Q.E.K.5=                                              ",
"                                            w+.fE.H.Q.Q.}+V.;+>+=+d+d+F+7^Y+                                                                                                                              +fy%b$y%y%h*y%l$l$l$l$e$e$a$e$F$a$F$F${%{%!$!$1$1$~$~$|$|$|$|${${$k$k$-$-$7$7$W#W#J#J#I#I#6#6#%#%#)##@#@$#I+I+F+H+d+e+=+=+V.V.Q.Q.H.H.P.n.r.v.H+z%h&h&C%h&A%A%A%A%P%P%2%2%m%+&t&D%1%@f#fL/J-$f%f=8=8=8=8=8=8=8=8=8=8=8=8=8=8=8=8=8=8=8=8=8=8=8=8=8=8=8=8=8=8=8=8=8=8=8=8=8=8=8=8=8=8=8=8=8=8=8=8=8=8=8=8=8=8=8=8=8=8=8=8=8=8=8=8=8=8=8=8=8=8=8=8=8=8=8=8=8=8=8=8=8=8=8=8=8=8=8=8=8=8=8=8=8=8=8=8=8=8=8=8=8=8=8=8=8=8=8=8=8=8=8=8=8=8=8=8&f*f]3=f`<-f4%4%z%c>1%1%3%3%m%m%2%2%P%P%!&7'A%A%k$a.r.r.P.E.Q.Q.Q.}+V.;+=+>+d+d+F+E+I+I+#@#@)#)#%#6#T#6#I#I#W#P$*$*$=$7$-$'${$k$_%|$|$|$~$~$~$~$m$m$!$!$F$F$a$F$a$a$e$e$l$l$y%l$y%y%b$y%b$b$b$b$W~                                                                                                                              ^[a2E+d+d+e+>+;+V..+}+Q.Q.s%m+                                                ",
"                                              '+;fQ.Q.V.V.>+>+d+d+F+E+I+A6>$                                                                                                                            Xc>fd$d$>%5%>%5%b$b$b$b$y%y%h*y%l$l$e$e$a$a$F$L&{%{%!$!$~$~$~$~$|$:%|$|${${$'$-$=$=$*$*$W#&$I#I#T#T#%#%#)#5##@#@I+I+F+F+d+e+>+>+V.V.Q.Q.H.H.P.n.v.Z_z%h&h&h&A%A%A%A%P%P%r>2%m%m%3%3%1%1%,f.,'f)f_}!f=8=8=8=8=8=8=8=8=8=8=8=8=8=8=8=8=8=8=8=8=8=8=8=8=8=8=8=8=8=8=8=8=8=8=8=8=8=8=8=8=8=8=8=8=8=8=8=8=8=8=8=8=8=8=8=8=8=8=8=8=8=8=8=8=8=8=8=8=8=8=8=8=8=8=8=8=8=8=8=8=8=8=8=8=8=8=8=8=8=8=8=8=8=8=8=8=8=8=8=8=8=8=8=8=8=8=8=8=8=8=8=8=8=8~f{f]f^fA-h3n%u&z%z%1%1%D%3%+&m%m%2%r>P%P%!&!&A%'$v.n.P.E.H.Q.Q.}+V.;+>+>+d+d+E+E+I+ @#@#@%#%#6#6#T#7#I#I#W#W#*$*$-$-$'$'${${$|$|$)$~$~$~$!$!$!$!$F$F$a$a$e$e$l$e$h*h*y%y%b$b$>%b$5%5%d$d$d$d$d$d$/f.~                                                                                                                              (f @E+E+d+d+>+>+;+V.V._f7+                                                  ",
"                                                  :f~7V.V.=+=+e+e+H+H+I+<f                                                                                                                              [fd$g=d$>%>%b$>%b$b$b$b$y%y%l$h*l$l$e$e$a$a$F$F${%{%!$!$~$~$~$~$|$|$|$_%k$k$-$-$7$7$*$W#J#J#I#I#6#6#%#%##@#@#@$#I+I+H+H+e+e+=+=+V.V.Q.Q.E.E.n.n.a.a.d+n%A%A%P%P%P%r>2%2%m%+&t&t&1%1%z%z%n%}f|f1f2ffd3f=8=8=8=8=8=8=8=8=8=8=8=8=8=8=8=8=8=8=8=8=8=8=8=8=8=8=8=8=8=8=8=8=8=8=8=8=8=8=8=8=8=8=8=8=8=8=8=8=8=8=8=8=8=8=8=8=8=8=8=8=8=8=8=8=8=8=8=8=8=8=8=8=8=8=8=8=8=8=8=8=8=8=8=8=8=8=8=8=8=8=8=8=8=8=8=8=8=8=8=8=8=8=8=8=8=8=8=8=8=8=8=84f5f6fg;B;q<K-];H&n%4%z%z%c>1%1%t&t&+&+&P>m%2%2%=$a.v.r.n.P.E._#Q.Q.V.V.=+=+d+d+F+F+I+I+#@#@)#)#%#F#6#T#I#I#W#W#*$*$=$-$'$'${${$|$|$|$~$~$~$m$m$!$!$F$F$a$F$e$e$l$e$l$l$y%y%b$b$b$b$>%>%d$g=d$d$d$d$d$ ~                                                                                                                              l=I+F+F+d+d+=+=+V.7fE@                                                      ",
"                                                    X.8f=+e+e+F+F+E+I+(^w'                                                                                                                              1(J$c$J$N*c$d$N*d$d$d$d$>%5%b$b$b$b$y%y%l$l$e$e$a$a$F$F$!$!$!$!$~$~$~$)$|$|${${$'$'$-$=$*$*$W#W#I#I#T#T#%#%#)#5##@$#I+I+F+F+d+e+=+=+V.V.Q.Q.H.E.n.n.v.H+H&1&P%!&P%r>2%2%m%m%3%3%1%1%z%z%4%4%9f^30fafbfcf=8=8=8=8=8=8=8=8=8=8=8=8=8=8=8=8=8=8=8=8=8=8=8=8=8=8=8=8=8=8=8=8=8=8=8=8=8=8=8=8=8=8=8=8=8=8=8=8=8=8=8=8=8=8=8=8=8=8=8=8=8=8=8=8=8=8=8=8=8=8=8=8=8=8=8=8=8=8=8=8=8=8=8=8=8=8=8=8=8=8=8=8=8=8=8=8=8=8=8=8=8=8=8=8=8=8=8=8=8=8dfefffgfhfQ3W$i&i&n%n%z%z%U;1%1%D%3%3%+&m%C,m%2%=$v.v.n.P.H.H.Q.Q.V.V.=+>+d+d+F+E+I+I+#@#@%#%#6#6#T#7#I#I#W#W#*$7$-$-$'$k$_%_%|$|$~$~$~$1$!$!$F$F$L&L&e$e$l$l$y%y%b$b$b$b$5%5%d$d$d$d$N*N*J$c$J$J$J$J$J$ift>                                                                                                                            w'jfI+I+F+F+d+e+w@w+                                                        ",
"                                                        |{1de+H+H+E+I+kf                                                                                                                              C&k[J$c$J$c$c$c$c$d$d$d$d$d$d$>%>%b$b$y%y%l$l$e$e$a$a$F$F${%{%!$!$~$~$~$~$|$|${${$'$'$-$-$*$*$W#W#I#I#T#6#%#%#)#5##@#@I+I+H+H+d+e+=+;+V.V.Q.Q.E.E.n.n.a.a.d+i&r>r>P>P>m%m%t&t&D%1%c>z%z%4%n%H&];+42-lfmfnfof=8=8=8=8=8=8=8=8=8=8=8=8=8=8=8=8=8=8=8=8=8=8=8=8=8=8=8=8=8=8=8=8=8=8=8=8=8=8=8=8=8=8=8=8=8=8=8=8=8=8=8=8=8=8=8=8=8=8=8=8=8=8=8=8=8=8=8=8=8=8=8=8=8=8=8=8=8=8=8=8=8=8=8=8=8=8=8=8=8=8=8=8=8=8=8=8=8=8=8=8=8=8=8=8=8=8=8=8=8pfv}qfrfsfX$!%W$W$i&i&n%n%z%z%z%q,1%1%t&t&+&3%7$4.v.v.n.P.H.H.Q.Q.V.V.=+=+d+d+F+E+I+I+#@#@)#)#6#6#7#7#I#J#W#W#*$7$-$-$k$k$_%|$|$|$~$~$1$m$!$!$F$F$a$a$e$e$l$l$y%y%b$b$b$b$d$d$d$d$N*d$c$c$J$c$J$J$J$J$J$J$tf                                                                                                                              ufI+I+F+F+J@(@                                                            ",
"                                                          R=/@i2I+$#vfwf                                                                                                                              xfZ$j%Z$Z$Z$Z$Z$Z$J$J$J$J$c$J$N*N*d$d$5%d$b$b$y%y%h*h*e$e$a$a$F$F$!$!$m$!$~$~$:%:%_%_%{$k$-$-$7$*$W#W#I#I#T#T#6#%#)#5##@#@I+I+F+F+d+e+=+=+V.V.Q.Q.E.E.n.n.a.F+L-r>P>2%m%m%3%3%D%1%1%`;z%z%n%n%i&i&yfh;XazfAfBf=8=8=8=8=8=8=8=8=8=8=8=8=8=8=8=8=8=8=8=8=8=8=8=8=8=8=8=8=8=8=8=8=8=8=8=8=8=8=8=8=8=8=8=8=8=8=8=8=8=8=8=8=8=8=8=8=8=8=8=8=8=8=8=8=8=8=8=8=8=8=8=8=8=8=8=8=8=8=8=8=8=8=8=8=8=8=8=8=8=8=8=8=8=8=8=8=8=8=8=8=8=8=8=8=8=8=8CfDfEfFfV,)%l%l%W$K-i&i&n%4%z%z%U;1%1%1%t&t&3%W#a.v.n.n.H.H.Q.Q.V.V.>+>+d+d+F+E+I+ @#@#@%#%#6#6#7#I#I#J#W#*$=$=$-$'${${$|$|$)$~$~$~$!$!${%F$L&L&e$e$h*l$y%y%b$b$5%5%d$d$d$d$J$c$J$J$Z$J$Z$Z$Z$Z$j%Z$9%Z$9%j%L<t>                                                                                                                            GfQ'66c9&+                                                                ",
"                                                                3+Hf&+                                                                                                                              4;k[Z$Z$Z$Z$Z$Z$Q>Z$J$J$c$J$c$c$d$d$d$d$>%>%b$b$y%y%l$l$e$e$O&F$F$F$!$!$1$~$~$~$|$|${${$k$'$-$=$*$*$P$J#I#I#6#6#%#%##@#@#@$#I+E+H+d+e+>+;+;+.+Q.Q.Q.E.E.r.r.a.4.e+W$t&3%t&D%1%1%z%z%z%4%n%n%];];W$W$X$Ifj(3[JfKfLf=8=8=8=8=8=8=8=8=8=8=8=8=8=8=8=8=8=8=8=8=8=8=8=8=8=8=8=8=8=8=8=8=8=8=8=8=8=8=8=8=8=8=8=8=8=8=8=8=8=8=8=8=8=8=8=8=8=8=8=8=8=8=8=8=8=8=8=8=8=8=8=8=8=8=8=8=8=8=8=8=8=8=8=8=8=8=8=8=8=8=8=8=8=8=8=8=8=8=8=8=8=8=8=8=8MfNfV$=4<'Y$Y$)%)%X$!%W$W$i&i&n%n%4%z%z%z%q,q,J#5.a.a.n.n.E.E.Q.Q..+V.;+=+e+e+H+H+I+I+#@#@5#)#%#F#6#7#I#I#W#W#*$7$-$-$k$k$_%|$|$|$~$~$m$m$!${%F$F$a$a$l$l$h*y%b$b$b$>%d$d$d$d$c$c$J$c$J$J$Z$Z$Z$Z$Z$Z$Z$Z$H%Z$9%Of                                                                                                                                                                                                      ",
"                                                                                                                                                                                                    Pfu$u$u$u$u$u$u$9%u$Z$j%Z$Z$Z$Z$J$J$c$J$N*N*d$d$5%5%b$b$y%y%l$e$e$e$F$F${%!$m$m$~$~$|$|$_%_%k$'$-$-$*$*$W#W#I#I#T#6#%#%#5##@$#$#I+E+H+d+e+>+;+V.V.Q.Q.H.E.P.r.v.a.d+l%3%t&t&1%1%z%z%z%u&n%n%i&i&W$W$X$X$Qf5/Rfb;SfTf=8=8=8=8=8=8=8=8=8=8=8=8=8=8=8=8=8=8=8=8=8=8=8=8=8=8=8=8=8=8=8=8=8=8=8=8=8=8=8=8=8=8=8=8=8=8=8=8=8=8=8=8=8=8=8=8=8=8=8=8=8=8=8=8=8=8=8=8=8=8=8=8=8=8=8=8=8=8=8=8=8=8=8=8=8=8=8=8=8=8=8=8=8=8=8=8=8=8=8=8=8=8=8UfVf&-WfXf,&Y$Y$)%)%l%l%W$W$i&i&n%n%4%z%z%z%1%J#a.a.n.n.E.E.Q.Q.V.V.;+=+e+e+H+F+I+I+#@#@)#)#%#6#T#7#I#J#W#W#7$7$-$-${${$|$|$:%~$~$~$!$!$F$F$L&a$e$e$h*h*b$b$b$>%d$d$d$d$J$c$J$J$Z$Z$Z$Z$9%Z$u$u$u$u$u$u$U$u$U$u$U$.-14                                                                                                                                                                                                    ",
"                                                                                                                                                                                                  {]YfU$u$u$u$u$u$u$u$u$H%9%Z$Z$Z$Z$Z$Z$c$J$c$c$d$d$d$d$b$b$y%y%l$l$e$e$F$F${%{%m$m$~$~$|$|$|$_%k$k$-$-$*$*$W#W#I#I#6#6#%#%#)##@$#r#I+E+H+d+e+>+;+V.}+Q.Q.H.E.P.r.v.a.4.e+)%1%1%z%z%z%4%n%n%i&i&W$W$l%X$)%)%Y$Zfxa`f[; g.g=8=8=8=8=8=8=8=8=8=8=8=8=8=8=8=8=8=8=8=8=8=8=8=8=8=8=8=8=8=8=8=8=8=8=8=8=8=8=8=8=8=8=8=8=8=8=8=8=8=8=8=8=8=8=8=8=8=8=8=8=8=8=8=8=8=8=8=8=8=8=8=8=8=8=8=8=8=8=8=8=8=8=8=8=8=8=8=8=8=8=8=8=8=8=8=8=8=8=8=8=8+g@gO%8;#g'%O%,&2&Y$V$)%X$l%l%W$W$i&i&H&n%4%n%I#5.a.a.r.n.E.E.Q.Q..+V.;+=+e+e+H+F+I+I+#@#@)#)#%#6#T#7#I#J#W#W#7$7$-$-$k${$|$|$)$~$~$~$!$!$F$F$a$a$e$e$h*y%b$b$>%>%d$d$N*c$J$c$J$J$Z$Z$Z$Z$u$H%u$u$u$u$U$u$U$U$-&U$-&U$$g                                                                                                                                                                                                    ",
"                                                                                                                                                                                                O0j:G$,%G$,%G$G$G$G$G$G$U$U$u$u$u$u$u$u$Z$Z$Z$Z$J$J$c$c$d$d$5%5%b$b$y%y%e$e$a$a$F$F$!$!$~$~$~$)$|$_%{${$-$-$7$*$W#W#I#I#T#T#%#%#5##@#@$#E+E+H+d+>+>+;+V.}+Q.Q.H.P.n.v.v.4.d+)%1%z%z%z%u&n%n%i&i&K-W$l%l%)%)%Y$Y$%g&gK;*g=g-g=8=8=8=8=8=8=8=8=8=8=8=8=8=8=8=8=8=8=8=8=8=8=8=8=8=8=8=8=8=8=8=8=8=8=8=8=8=8=8=8=8=8=8=8=8=8=8=8=8=8=8=8=8=8=8=8=8=8=8=8=8=8=8=8=8=8=8=8=8=8=8=8=8=8=8=8=8=8=8=8=8=8=8=8=8=8=8=8=8=8=8=8=8=8=8=8=8=8=8;g>gb<,g'g'%O%O%2&Y$S&S&)%X$l%l%W$K-i&i&H&n%4%7#4.a.4@n.P.E.Q.Q.Q.V.;+;+e+e+F+F+E+I+#@#@5#%#n!6#T#7#I#J#W#W#=$=$-$'${${$|$|$~$~$~$m$!$!$F$L&e$e$l$l$y%y%b$b$d$d$N*N*J$J$-,Z$Z$Z$9%9%u$u$u$u$G$U$G$G$G$G$,%,%,%,%o%,%o%,%$a+[                                                                                                                                                                                                  ",
"                                                                                                                                                                                              )ge<,%G$,%G$,%G$G$-&G$-&G$U$U$u$u$u$u$H%9%Z$Z$Z$Z$c$J$c$c$d$d$>%>%b$b$l$h*e$e$a$L&{%{%!$m$~$~$|$|$|$_%k$k$-$-$*$*$P$J#I#I#6#6#%#%##@#@I+I+E+F+d+d+=+=+V.V.Q.Q.E.E.n.n.a.a.e.5.=+Y$n%n%H&H&];];W$W$!%X$)%)%Y$Y$,&,&'%Y3!g~g94{g]g=8=8=8=8=8=8=8=8=8=8=8=8=8=8=8=8=8=8=8=8=8=8=8=8=8=8=8=8=8=8=8=8=8=8=8=8=8=8=8=8=8=8=8=8=8=8=8=8=8=8=8=8=8=8=8=8=8=8=8=8=8=8=8=8=8=8=8=8=8=8=8=8=8=8=8=8=8=8=8=8=8=8=8=8=8=8=8=8=8=8=8=8=8=8=8=8=8^g/g(gY/V:)aw$'%'%~%O%2&2&Y$V$)%)%X$!%W$W$K-K-6#(.e.4.a.v.n.E.H.H.Q.}+V.;+=+e+d+H+E+I+$##@#@)#%#%#6#6#I#I#W#W#7$7$-$-$k$k$|$|$~$~$~$1$!$!$F$F$a$a$e$l$y%y%b$b$d$d$d$d$c$c$J$Q>Z$Z$Z$H%u$u$u$u$-&U$G$-&G$G$,%,%,%,%,%,%o%,%o%V0U!                                                                                                                                                                                                ",
"                                                                                                                                                                                              ,!E&v$v$v$E&v$E&v$o%E&o%o%,%,%G$,%G$G$U$U$u$u$u$u$Z$Z$Z$Z$J$J$N*N*d$d$b$b$y%y%l$e$a$a$F$F$!$!$~$~$)$:%|$_%k$k$-$-$*$*$W#W#I#I#6#6#%#%##@#@I+I+E+F+d+e+>+=+V.V.Q.Q.E.E.n.n.a.a.5.e+2&4%H&H&i&i&W$W$l%l%)%)%Y$Y$2&,&~%'%d<K(_g:g<g4f=8=8=8=8=8=8=8=8=8=8=8=8=8=8=8=8=8=8=8=8=8=8=8=8=8=8=8=8=8=8=8=8=8=8=8=8=8=8=8=8=8=8=8=8=8=8=8=8=8=8=8=8=8=8=8=8=8=8=8=8=8=8=8=8=8=8=8=8=8=8=8=8=8=8=8=8=8=8=8=8=8=8=8=8=8=8=8=8=8=8=8=8=8=8=8[g}gw:C-|gC:w$w$'%'%O%O%2&Y$&-S&)%)%^;l%W$W$K-n!}$4.a.v.n.n.H.H.Q.Q.V.V.>+>+d+d+E+E+ @$##@5#%#%#T#T#I#I#W#W#7$=$-$-${${$|$|$~$~$1$m$!${%L&F$e$e$h*h*y%b$5%>%d$d$c$c$J$J$Z$Z$9%9%u$u$U$U$G$G$G$G$o%,%o%o%v$o%v$v$v$v$v$v$E%v$E%v$M:y;                                                                                                                                                                                              ",
"                                                                                                                                                                                            v,1gv$v$v$v$v$v$v$v$o%v$o%o%,%o%,%,%G$G$-&-&u$u$u$u$Z$Z$Z$Z$J$J$c$c$d$d$b$b$y%y%l$l$a$a$F$F$!$!$~$~$~$|$|$|$k$k$-$-$*$*$W#&$I#I#6#6#%#%##@#@I+I+E+F+d+e+=+=+V.V.Q.Q.E.E.n.n.a.a.5.5.;+O%];K-W$W$l%l%)%)%V$Y$2&,&O%O%'%'%w$fa2g'%3g4g5g=8=8=8=8=8=8=8=8=8=8=8=8=8=8=8=8=8=8=8=8=8=8=8=8=8=8=8=8=8=8=8=8=8=8=8=8=8=8=8=8=8=8=8=8=8=8=8=8=8=8=8=8=8=8=8=8=8=8=8=8=8=8=8=8=8=8=8=8=8=8=8=8=8=8=8=8=8=8=8=8=8=8=8=8=8=8=8=8=8=8=8=8=86g7gW08gp*9gE%H$I$w$w$'%'%O%O%2&Y$Y$Y$)%)%X$X$%#(.5.e.a.v.n.n.E.H.Q.Q.V.V.=+>+d+d+E+E+I+$##@#@%#%#6#6#I#I#W#W#7$7$-$-$k${$|$|$~$~$m$m$!${%F$F$e$e$h*l$b$b$5%>%d$d$c$c$J$Z$Z$Z$u$u$u$u$U$U$G$G$,%,%o%,%o%o%v$_-v$v$E%v$E%v$E%v$E%E%E%e<                                                                                                                                                                                              ",
"                                                                                                                                                                                          ;>0gI$H$I$H$I$H$I$H$I$E%H$E%E%v$E%v$v$o%E&o%o%G$G$G$G$u$u$u$u$Z$Z$Z$Z$J$J$d$d$5%5%b$b$h*h*e$e$F$F$!$!$1$~$~$)$|$|${${$-$-$7$*$W#&$I#I#6#6#%#%##@#@I+I+F+F+d+e+=+;+V.V.Q.Q.E.E.n.n.a.a.5.>+~%L-W$W$l%l%)%)%S&&-Y$2&,&O%'%'%w$w$a'agw$bgcg=8=8=8=8=8=8=8=8=8=8=8=8=8=8=8=8=8=8=8=8=8=8=8=8=8=8=8=8=8=8=8=8=8=8=8=8=8=8=8=8=8=8=8=8=8=8=8=8=8=8=8=8=8=8=8=8=8=8=8=8=8=8=8=8=8=8=8=8=8=8=8=8=8=8=8=8=8=8=8=8=8=8=8=8=8=8=8=8=8=8=8=8cfdgegfgu=]*E%E%I$x$w$w$'%'%,&,&2&Y$&-&-)%)%^;&<5.5.a.a.n.n.E.E.Q.Q.V.V.=+>+d+d+F+E+ @$##@#@%#%#6#T#I#I#W#W#7$7$-$'${${$|$|$~$~$m$!${%{%L&a$e$e$y%y%b$b$d$d$N*c$J$J$Z$Z$j%9%u$u$ggG$G$G$,%,%E&o%v$v$E%v$E%E%I$H$I$I$x$I$x$I$x$I$x$x$x$I$hg                                                                                                                                                                                            ",
"                                                                                                                                                                                        O0igH$H$H$H$H$H$H$H$H$H$E%H$E%E%v$v$v$v$o%o%,%,%G$G$-&-&u$u$u$u$Z$Z$J$J$c$c$d$d$>%b$b$y%l$l$a$a$F$F$!$!$~$~$|$|$_%{$k$'$-$7$*$W#J#I#I#7#6#%#)#)##@#@I+I+H+d+e+>+;+V.}+Q._#E.E.n.v.a.4.e.(.(.V.)=X$X$)%)%Y$Y$2&,&O%'%'%'%w$w$H$H$v$jgX*H$k_kg=8=8=8=8=8=8=8=8=8=8=8=8=8=8=8=8=8=8=8=8=8=8=8=8=8=8=8=8=8=8=8=8=8=8=8=8=8=8=8=8=8=8=8=8=8=8=8=8=8=8=8=8=8=8=8=8=8=8=8=8=8=8=8=8=8=8=8=8=8=8=8=8=8=8=8=8=8=8=8=8=8=8=8=8=8=8=8=8=8=8lgmgK4ngi:(:G$o%o%v$E%H$H$w$w$'%'%'%O%,&,&Y$Y$#@{.(.5.4.a.v.r.E.E._#Q.}+.+;+=+e+e+H+F+I+I+#@#@)#%#6#6#I#I#J#W#*$*$-$-$k$k$|$|$~$~$~$1$!$!$F$F$e$e$l$l$b$b$>%d$d$d$c$J$Z$Z$Z$Z$u$u$U$U$G$-&,%,%o%o%v$v$v$v$E%E%H$H$H$H$I$H$I$H$x$H$x$H$x$H$#-[:                                                                                                                                                                                          ",
"                                                                                                                                                                                      $>o/w$w$w$w$w$w$w$w$w$w$w$w$w$x$x$I$I$H$I$E%E%v$v$o%E&o%o%G$G$-&U$u$u$9%j%Z$Z$J$J$d$d$d$5%b$b$h*h*e$a$F$F$!$!$~$~$:%:%|$_%k$'$-$=$*$W#J#I#7#T#6#%#)#5##@$#I+E+H+d+>+>+;+V.Q.Q.H.H.n.n.v.a.e.5.(.;+w$X$)%)%Y$Y$2&,&O%O%'%'%w$w$I$I$v$v$ogpgE%qgrg=8=8=8=8=8=8=8=8=8=8=8=8=8=8=8=8=8=8=8=8=8=8=8=8=8=8=8=8=8=8=8=8=8=8=8=8=8=8=8=8=8=8=8=8=8=8=8=8=8=8=8=8=8=8=8=8=8=8=8=8=8=8=8=8=8=8=8=8=8=8=8=8=8=8=8=8=8=8=8=8=8=8=8=8=8=8=8=88esgtgugS]k!G$,%o%E&E%E%I$I$w$w$'%'%O%O%,&,&Y$r#(.(.4.4.v.v.n.E.H.Q.Q.V.V.;+>+e+H+F+I+I+#@#@)#%#6#6#7#I#&$W#*$*$-$-$k${$|$|$)$~$~$m$!${%L&L&e$e$y%y%b$b$d$d$N*c$J$J$Z$Z$u$u$u$U$G$G$,%,%E&o%v$v$E%E%H$H$x$I$x$x$w$w$w$w$w$w$w$w$k%w$k%w$k%w$w$vgC=                                                                                                                                                                                        ",
"                                                                                                                                                                                      .)w$w$w$w$w$w$w$w$w$w$w$w$w$w$w$w$I$x$H$I$H$H$v$E%_-v$o%o%,%G$-&-&u$u$9%9%Z$Z$J$J$d$d$d$d$b$b$l$l$e$a$F$F$!$!$~$~$|$|$|$_%k$'$-$=$*$W#J#I#7#T#6#%#)##@#@$#I+E+H+d+>+=+V.V.Q.Q.H.E.n.n.a.a.5.5.(.~.V.I$Y$Y$,&,&O%O%'%'%w$w$H$H$E%v$o%o%wg}:xgo%yg+g=8=8=8=8=8=8=8=8=8=8=8=8=8=8=8=8=8=8=8=8=8=8=8=8=8=8=8=8=8=8=8=8=8=8=8=8=8=8=8=8=8=8=8=8=8=8=8=8=8=8=8=8=8=8=8=8=8=8=8=8=8=8=8=8=8=8=8=8=8=8=8=8=8=8=8=8=8=8=8=8=8=8=8=8=8=8zgAgBg(4CgDgu$U$U$,%,%o%v$E%E%I$x$w$w$'%'%'%'%I+{.(.(.5.4.a.v.n.P.H._#Q.}+V.;+>+e+H+H+I+I+#@#@)#)#6#6#7#I#J#J#*$*$-$-$k$k$|$|$~$~$1$m$!${%F$F$e$e$y%y%b$b$d$d$c$c$J$J$Z$Z$u$u$U$U$G$G$,%,%E&o%v$v$H$E%H$H$x$I$w$w$w$w$w$w$'%w$'%w$'%w$'%)='%w$j&w$z*-(                                                                                                                                                                                      ",
"                                                                                                                                                                                    *-'%'%'%'%'%'%'%'%'%'%'%'%'%'%'%'%'%w$k%w$w$w$w$I$x$H$H$E%E%v$v$o%o%G$G$U$U$u$u$Z$Z$J$J$c$N*d$d$b$b$h*h*e$e$F$F$!$!$~$~$)$:%_%{$k$'$-$=$*$W#I#I#7#T#%#%#5##@$# @E+E+d+d+>+>+V.V.Q.Q.E.E.n.n.a.a.5.5.~.V.H$Y$,&,&O%O%'%'%w$w$x$I$E%E%E&o%,%EgT0~<FgGgHg=8=8=8=8=8=8=8=8=8=8=8=8=8=8=8=8=8=8=8=8=8=8=8=8=8=8=8=8=8=8=8=8=8=8=8=8=8=8=8=8=8=8=8=8=8=8=8=8=8=8=8=8=8=8=8=8=8=8=8=8=8=8=8=8=8=8=8=8=8=8=8=8=8=8=8=8=8=8=8=8=8=8=8=8-gIgJg-&KgLgu$u$U$G$,%,%E&v$E%E%I$x$w$w$'%'%'%I+~.(.5.5.a.a.n.n.E.H.Q.Q.V.V.>+>+d+H+E+I+$##@5#)#%#6#7#I#I#&$*$*$=$-$k${$_%|$~$~$~$m$!${%L&a$e$e$y%y%b$>%d$d$J$J$Z$Z$j%j%u$u$G$G$,%,%E&o%v$v$H$E%I$I$w$w$w$w$k%w$'%'%'%'%'%'%O%'%O%~%,&~%O%O%,&'%O%'%'%>(h<                                                                                                                                                                                    ",
"                                                                                                                                                                                  h''%'%'%'%'%'%'%'%'%'%'%'%'%'%'%'%j&'%w$w$w$w$w$w$I$I$H$H$E%E%_-o%,%,%G$G$U$u$u$9%Z$Z$J$J$c$d$g=>%b$b$l$l$e$a$F$F$!$!$~$~$|$|${${$'$-$7$7$W#W#I#I#6#6#%#%##@#@I+I+F+F+d+e+=+;+.+}+Q.Q.E.P.r.v.a.4.5.(.{.{.Q.v$'%'%j&j&w$w$H$H$E%v$o%o%G$G$U$u$MgV{4&NgOg@8=8=8=8=8=8=8=8=8=8=8=8=8=8=8=8=8=8=8=8=8=8=8=8=8=8=8=8=8=8=8=8=8=8=8=8=8=8=8=8=8=8=8=8=8=8=8=8=8=8=8=8=8=8=8=8=8=8=8=8=8=8=8=8=8=8=8=8=8=8=8=8=8=8=8=8=8=8=8=8=8=8=8PgQgDgu$j^Y_c$Z$Z$9%u$U$U$G$,%o%o%v$E%H$H$w$w$F+@.{.i.(.5.4.a.r.r.E.E.Q.Q.V.V.=+=+e+d+F+E+I+r##@#@%#F#6#6#I#J#W#*$7$-$'$k${$|$|$|$~$1$!$!$F$F$e$e$l$y%b$b$d$d$c$c$J$Z$Z$Z$u$u$U$U$G$,%o%o%v$v$E%E%H$H$w$w$w$w$)=w$'%'%'%'%'%'%O%'%O%~%O%~%O%~%O%'%~%'%'%'%>(-(                                                                                                                                                                                  ",
"                                                                                                                                                                              R]*-O%O%,&O%,&,&,&,&,&,&2&,&,&,&,&O%,&O%,&'%'%'%'%'%'%w$w$w$w$I$I$H$E%v$v$o%o%,%G$U$U$u$u$Z$Z$J$J$c$N*d$d$b$b$h*h*e$a$F$F$!$!$~$~$|$|${${$'$-$7$7$W#W#I#I#6#6#%#%##@#@I+I+F+F+e+e+;+V.V.Q.Q.H.E.n.v.a.4.4.(.(.{.V.o%'%'%'%w$w$I$I$E%E%E&E&,%G$U$u$u$;&RgK4SgTg!d=8=8=8=8=8=8=8=8=8=8=8=8=8=8=8=8=8=8=8=8=8=8=8=8=8=8=8=8=8=8=8=8=8=8=8=8=8=8=8=8=8=8=8=8=8=8=8=8=8=8=8=8=8=8=8=8=8=8=8=8=8=8=8=8=8=8=8=8=8=8=8=8=8=8=8=8=8=8=8=8dfUgVgZ$C4L_J$J$Z$Z$u$u$U$-&G$,%E&E&E%E%I$I$x$F,{.{.(.(.4.4.v.n.P.E.D.Q.V.V.;+=+e+d+F+E+I+I+#@#@%#%#6#T#I#I#W#W#=$=$'$'${$_%|$)$~$~$!$!$F$F$e$e$y%y%b$b$d$d$c$J$Z$Z$j%9%u$u$G$G$,%,%E&v$E%E%I$I$w$x$w$w$'%'%'%'%O%'%O%O%,&,&,&,&Y$,&Y$2&Y$2&Y$2&Y$,&2&,&2&,&,&Wg~;                                                                                                                                                                                ",
"                                                                                                                                                                            >,XgO%O%O%,&O%2&,&2&,&2&2&Y$,&2&,&2&O%,&O%,&O%O%'%'%'%'%)=)=w$w$x$x$H$H$v$v$o%o%,%,%-&U$u$u$Z$Z$Z$J$c$N*d$d$b$b$h*l$e$a$F$F$!$!$~$~$|$|${${$-$-$7$*$W#&$I#I#6#6#%#%##@#@I+I+H+H+e+>+;+V.}+Q.H.E.P.n.v.a.e.5.(.~.{.%.Q.,%w$w$H$H$E%E%o%o%,%G$U$U$u$u$Z$Z$Yga=&5k[Zgcf=8=8=8=8=8=8=8=8=8=8=8=8=8=8=8=8=8=8=8=8=8=8=8=8=8=8=8=8=8=8=8=8=8=8=8=8=8=8=8=8=8=8=8=8=8=8=8=8=8=8=8=8=8=8=8=8=8=8=8=8=8=8=8=8=8=8=8=8=8=8=8=8=8=8=8=8=8=8=8`g hJ$Dg6[.hd$N*J$J$Z$Z$u$u$U$-&,%,%o%o%v$v$d+#.{.{.(.(.e.4.a.r.P.E.H.Q.}+.+;+=+e+e+H+F+I+I+#@#@%#%#6#6#I#I#W#W#7$7$-$'${$_%|$:%~$~$!$!$F$F$e$e$y%y%b$b$d$d$c$c$Z$Z$Z$u$u$u$G$G$,%,%v$v$E%E%H$I$w$w$w$w$'%'%'%'%O%O%,&O%,&,&2&2&Y$2&Y$Y$Y$Y$Y$Y$Y$2&Y$2&2&,&,&O%+hg4                                                                                                                                                                              ",
"                                                                                                                                                                          n)}=Y$2&Y$Y$&-Y$S&&-S&&-S&S&)%S&S&&-S&Y$&-Y$Y$Y$Y$,&,&O%,&~%O%'%'%k%k%w$w$I$I$E%E%v$v$,%,%G$G$u$u$9%j%Z$J$c$c$d$d$b$b$h*h*e$a$F$F$!$!$~$~$|$|${${$-$-$*$*$W#&$I#7#6#6#%#5##@$#I+E+H+d+>+>+V.V.Q.Q.H.H.n.n.a.a.5.5.~.~.%.Q.G$w$I$I$E%E%E&E&,%,%-&U$u$u$Z$Z$J$@h#h$h%h&h*h=8=8=8=8=8=8=8=8=8=8=8=8=8=8=8=8=8=8=8=8=8=8=8=8=8=8=8=8=8=8=8=8=8=8=8=8=8=8=8=8=8=8=8=8=8=8=8=8=8=8=8=8=8=8=8=8=8=8=8=8=8=8=8=8=8=8=8=8=8=8=8=8=8=8=8=8=8=h-hc$-:b*;hd$d$c$J$J$Z$Z$u$u$U$G$,%,%E&E&v${a%.{.~.(.5.4.a.a.n.P.H.H.Q.}+V.;+>+e+F+F+I+I+#@#@%#%#6#6#I#I#W#W#*$=$-$'${$_%|$:%~$~$!$!$F$L&e$e$h*y%b$b$d$d$J$J$Z$Z$u$u$u$U$G$G$o%o%v$v$H$H$x$x$w$w$'%'%'%'%,&O%,&,&Y$Y$Y$Y$S&Y$S&S&)%S&)%)%)%)%)%)%)%S&)%S&S&Y$&-Y$Y$>hi(                                                                                                                                                                            ",
"                                                                                                                                                                        p_,h,&2&2&Y$Y$Y$Y$Y$Y$S&Y$S&V$S&Y$S&Y$V$Y$Y$Y$Y$2&2&,&,&O%O%'%'%'%'%w$w$w$w$H$H$E%E%_-o%,%,%-&-&u$u$Z$Z$J$J$c$d$g=>%b$y%l$e$a$a${%{%m$1$~$)$|$|$k$'$-$=$*$W#J#I#7#6#F#%##@#@r#I+E+F+d+e+=+;+V..+Q.Q.E.E.r.v.a.4.(.(.{.{.#.#.E.u$v$v$o%o%G$G$U$u$u$9%Z$Z$c$c$d$d$:]'hN*F_)h!h=8=8=8=8=8=8=8=8=8=8=8=8=8=8=8=8=8=8=8=8=8=8=8=8=8=8=8=8=8=8=8=8=8=8=8=8=8=8=8=8=8=8=8=8=8=8=8=8=8=8=8=8=8=8=8=8=8=8=8=8=8=8=8=8=8=8=8=8=8=8=8=8=8=8=8~h{hd$]h`-^hy%y%b$>%d$d$c$J$Z$Z$9%u$u$u$G$U$V.Q #.@.{.i.(.5.a.a.r.n.E.E.Q.Q.V.V.=+=+d+d+E+I+r##@#@)#%#6#T#I#J#J#*$*$-$-$k$k$|$|$~$~$m$m${%F$a$e$l$l$b$b$d$d$c$c$J$Z$Z$H%u$u$G$G$,%o%v$v$E%H$I$I$w$w$'%j&'%'%O%O%,&,&Y$2&Y$Y$Y$Y$S&V$)%V$)%S&)%S&)%S&)%V$S&V$S&Y$Y$Y$Y$2&2&/h                                                                                                                                                                          ",
"                                                                                                                                                                      i%(hY$Y$S&S&)%)%)%)%X$)%X$X$X$X$X$X$X$X$X$)%)%)%)%S&S&Y$&-Y$Y$,&,&O%O%'%'%'%'%w$w$x$I$H$E%v$v$o%,%G$G$u$u$Z$Z$J$J$N*d$d$5%b$y%l$e$a$L&{%!$m$~$~$:%|$_%k$'$=$=$W#W#I#I#T#6#%#%##@#@I+I+F+F+e+e+=+;+V.Q.Q.H.P.n.v.a.4.5.(.(.{.%.#.Q.9%v$o%o%G$G$U$U$u$u$Z$Z$J$J$d$d$>%_hG0c$:h<h[h=8=8=8=8=8=8=8=8=8=8=8=8=8=8=8=8=8=8=8=8=8=8=8=8=8=8=8=8=8=8=8=8=8=8=8=8=8=8=8=8=8=8=8=8=8=8=8=8=8=8=8=8=8=8=8=8=8=8=8=8=8=8=8=8=8=8=8=8=8=8=8=8=8xe}h|h1h^52hl$y%b$5%d$d$d$J$J$Z$Z$u$u$u$u$U$V.#.#.{.{.(.(.4.4.v.r.P.E.Q.Q.@@V.;+=+e+d+F+E+I+$##@#@%#F#T#T#I#J#W#*$=$-$k$k$|$|$~$~$m$!${%F$a$e$l$h*b$b$d$d$c$c$Z$Z$j%u$u$u$G$G$o%o%v$E%H$H$x$w$w$w$'%'%O%O%,&,&Y$Y$Y$Y$)%S&)%)%X$)%X$X$l%X$l%X$l%X$l%X$l%X$X$X$X$)%)%)%)%S&S&Y$X-);                                                                                                                                                                      ",
"                                                                                                                                                                    5/yaY$Y$Y$)%S&)%)%X$)%X$X$X$X$X$X$l%X$X$X$X$)%X$)%)%)%)%V$S&Y$Y$2&2&O%O%~%'%'%'%w$w$x$x$H$H$v$v$o%,%G$-&u$u$Z$Z$Q>J$c$d$d$>%b$y%l$e$a$F${%!$1$~$~$|$|${$k$'$7$7$W#W#I#I#6#6#%#%##@#@I+I+F+H+e+>+;+V.}+Q.Q.H.n.n.v.a.e.5.(.~.{.%.#.Q E.Z$G$G$U$u$u$u$Z$Z$J$J$d$d$>%>%y%y%K5L%b$`43h4h=8=8=8=8=8=8=8=8=8=8=8=8=8=8=8=8=8=8=8=8=8=8=8=8=8=8=8=8=8=8=8=8=8=8=8=8=8=8=8=8=8=8=8=8=8=8=8=8=8=8=8=8=8=8=8=8=8=8=8=8=8=8=8=8=8=8=8=8=8=8=8%f5hA050%56ha$a$l$l$y%b$>%g=d$N*J$J$Z$Z$9%Z$&3Q #.#.%.{.(.(.5.4.a.v.n.E.H.Q.Q..+;+=+e+d+F+F+I+I+#@#@%#%#6#6#I#J#W#*$=$-$k$k$_%|$~$~$1$m${%F$a$a$l$l$b$b$d$d$c$c$Z$Z$Z$u$u$U$G$,%o%o%v$E%H$H$w$w$w$)='%'%O%O%,&,&Y$Y$Y$V$)%S&)%)%X$X$X$X$l%X$l%!%l%!%l%!%l%X$l%X$X$)%X$)%)%V$S&Y$Y$Y3`&                                                                                                                                                                    ",
"                                                                                                                                                                  7h8h)%)%)%)%l%X$l%l%W$l%W$W$W$W$W$W$K-W$W$W$W$W$W$l%l%l%l%X$X$)%)%S&S&Y$Y$2&,&O%O%'%'%)=w$w$w$H$H$v$v$o%o%G$G$u$u$j%j%J$J$c$N*5%5%b$y%e$e$a$L&!$!$~$~$:%|$_%{$'$-$=$7$W#W#I#I#6#6#%#%##@$#I+E+H+d+e+>+V.V.Q.Q.H.E.n.n.a.a.5.5.~.{.%.@.Q E.J$G$U$u$u$u$Z$Z$J$J$d$d$d$5%b$y%e$9h0hb$ahbhch=8=8=8=8=8=8=8=8=8=8=8=8=8=8=8=8=8=8=8=8=8=8=8=8=8=8=8=8=8=8=8=8=8=8=8=8=8=8=8=8=8=8=8=8=8=8=8=8=8=8=8=8=8=8=8=8=8=8=8=8=8=8=8=8=8=8=8=8=8dhehx0y%fhY~F$a$e$h*h*b$b$5%d$d$N*J$J$Z$Z$Z$Q.Q #.@.%.6.(.5.5.a.a.n.n.H.H.Q.Q.V.;+>+e+d+F+I+I+#@#@%#%#6#T#I#I#W#W#=$=$'$k$_%|$:%~$~$m$!$F$a$a$e$h*b$b$d$d$c$c$-,Z$j%u$u$U$G$,%o%E&E%E%I$I$w$w$'%'%'%'%,&,&Y$Y$&-S&)%)%X$X$l%^;l%l%W$W$W$W$L-W$L-K-i&K-L-K-L-W$K-W$W$W$W$l%l%X$X$)%)%S&ghB*                                                                                                                                                                  ",
"                                                                                                                                                              hhha,&Y$)%S&)%)%X$X$l%!%W$l%W$W$W$W$W$W$W$W$W$W$W$W$W$l%l%X$!%X$X$)%)%V$S&Y$Y$2&,&O%O%'%'%w$w$w$x$H$H$v$v$,%,%-&-&u$u$Z$Z$J$J$d$d$>%b$y%y%e$e$F$F$!$m$~$~$|$|${$k$-$-$*$*$J#J#I#7#6#%#)##@$#I+E+E+d+e+=+=+V..+Q.Q.E.P.r.v.a.e.(.(.{.{.#.#.Q Q r.d$Z$Z$Z$Z$c$c$d$d$>%b$y%y%l$e$a$ihjhkhl$lhmh=8=8=8=8=8=8=8=8=8=8=8=8=8=8=8=8=8=8=8=8=8=8=8=8=8=8=8=8=8=8=8=8=8=8=8=8=8=8=8=8=8=8=8=8=8=8=8=8=8=8=8=8=8=8=8=8=8=8=8=8=8=8=8=8=8=8=8=8*hnhohO&phqhm$m${%F$a$a$l$l$y%b$b$>%d$d$c$d$H.R Q Q #.#.{.i.(.5.4.a.r.r.E.E.Q.Q.V.V.=+=+d+H+E+I+$##@)#)#F#6#I#I#J#W#*$7$-$'${${$|$|$~$~$!${%F$F$e$l$y%b$>%d$d$c$J$Q>Z$Z$u$u$G$G$o%o%v$v$H$H$w$w$)=j&'%'%O%O%Y$2&Y$Y$)%)%X$X$!%X$l%l%W$W$W$W$K-W$K-K-];K-K-K-K-W$W$W$W$l%W$!%l%X$X$)%)%V$V$.;rh                                                                                                                                                                ",
"                                                                                                                                                            i-sfS&)%)%^;X$l%l%W$W$K-K-i&];i&i&i&i&i&i&H&i&i&i&i&i&i&K-i&W$K-W$W$l%l%X$X$)%)%S&&-Y$2&,&,&'%'%'%k%w$x$H$H$v$v$o%,%G$G$u$u$Z$Z$J$J$d$d$>%b$y%h*e$e$F$F$!$!$~$~$|$|$k$k$-$=$*$W#J#I#T#T#%#%##@#@ @I+F+F+d+e+=+V.V.Q.Q.H.P.n.v.a.4.5.(.~.{.%.#.Q Q n.d$j%Z$Z$J$J$d$d$>%>%b$y%l$e$a$a$u5*%she$thuh=8=8=8=8=8=8=8=8=8=8=8=8=8=8=8=8=8=8=8=8=8=8=8=8=8=8=8=8=8=8=8=8=8=8=8=8=8=8=8=8=8=8=8=8=8=8=8=8=8=8=8=8=8=8=8=8=8=8=8=8=8=8=8=8=8=8Tfvh>ea$o}wh~$!$!$F$F$a$e$l$l$y%b$>%5%d$d$d$E.Q Q #.#.{.{.(.(.4.4.a.r.P.E.H.Q.V.V.;+=+e+d+F+E+ @$##@5#%#6#T#I#J#J#*$*$-$-${${$|$|$~$~$!$!$F$L&e$e$y%y%>%5%d$N*J$J$Z$j%u$u$G$G$o%o%v$E%I$I$w$w$'%'%'%O%,&,&Y$Y$S&S&)%X$l%l%W$W$K-W$i&i&i&i&i&i&H&i&n%H&n%H&n%H&H&i&i&i&i&];i&K-K-W$W$l%l%X$X$)%xh`_V=                                                                                                                                                            ",
"                                                                                                                                                          C>yhS&S&)%)%X$X$l%W$W$W$K-K-i&];i&i&H&i&H&i&H&i&H&i&i&i&i&];i&K-K-W$W$l%l%X$X$)%)%S&S&Y$Y$,&,&'%'%'%)=w$w$H$H$v$v$o%,%-&-&u$u$Z$Z$J$J$d$d$b$b$y%l$e$a$F${%!$m$~$~$|$|$k$'$-$=$*$W#J#I#6#6#%#%##@#@I+I+F+H+e+e+;+V.}+Q.H.E.n.n.a.a.e.5.~.i.{.@.|.Q -.R a.b$c$c$d$d$>%>%b$y%l$l$a$a$F$F$m$zhAhBhF$Ch:e=8=8=8=8=8=8=8=8=8=8=8=8=8=8=8=8=8=8=8=8=8=8=8=8=8=8=8=8=8=8=8=8=8=8=8=8=8=8=8=8=8=8=8=8=8=8=8=8=8=8=8=8=8=8=8=8=8=8=8=8=8=8=8=8DhEhL}!$3e^0Fh~$~$~$!$!$F$F$a$e$l$l$y%b$b$y%n.R R -.Q #.%.{.~.(.5.e.a.v.n.P.H.Q.Q..+;+=+e+e+F+E+I+I+#@#@%#%#6#7#I#J#W#*$-$-$k${$|$|$~$~$!$!$F$F$e$e$h*y%b$>%d$N*J$J$Z$Z$u$u$G$G$o%o%v$E%I$I$w$w$'%'%~%O%,&2&Y$Y$)%)%X$X$l%l%W$W$K-K-i&i&i&i&H&i&n%H&n%n%n%n%n%n%n%i&H&i&i&];i&K-K-W$W$l%l%X$X$)%)%Y$r_t;                                                                                                                                                          ",
"                                                                                                                                                      6=c<g;)%X$X$l%l%W$W$L-i&i&i&H&H&4%n%4%4%u&4%u&4%z%4%u&4%u&n%4%n%4%H&H&i&i&K-L-W$W$l%l%X$X$)%S&Y$Y$,&,&O%'%'%k%w$w$I$H$v$v$o%,%G$G$u$u$Z$Z$J$J$d$d$b$b$h*h*a$a$F${%m$~$~$)$|${$'$'$=$7$W#W#I#I#6#6#%#%##@#@I+E+H+d+>+>+V.V.Q.Q.H.E.n.n.a.4.5.(.~.{.@.@.Q Q R r.y%J$d$d$5%5%b$y%h*h*e$a$F$F$!$!$j0,_Gh^&Hh^g=8=8=8=8=8=8=8=8=8=8=8=8=8=8=8=8=8=8=8=8=8=8=8=8=8=8=8=8=8=8=8=8=8=8=8=8=8=8=8=8=8=8=8=8=8=8=8=8=8=8=8=8=8=8=8=8=8=8=8=8=8=84fIhJh!$Khg1Lh:%~$~$~$!$!$F$F$a$e$h*l$y%b$y%n.R R Q Q @.%.{.~.(.5.a.a.n.n.E.H.Q.Q.V.V.>+e+d+F+I+I+#@#@%#%#6#T#I#I#W#W#=$-$'$k$_%|$~$~$m$!$F$F$a$e$h*y%b$>%d$d$J$J$Z$Z$u$u$G$G$o%o%E%E%I$I$w$w$'%'%O%O%2&Y$&-&-)%)%l%^;W$W$K-K-i&i&H&H&n%n%4%4%u&4%z%z%z%z%z%z%z%z%z%4%u&4%4%n%n%H&H&i&i&K-K-W$W$l%^;)%)%j-Mh                                                                                                                                                        ",
"                                                                                                                                                    N_+]Y$V$S&)%)%!%!%W$W$K-K-i&i&i&i&n%n%n%n%4%n%4%n%z%n%4%n%4%n%n%n%n%i&H&i&i&K-K-W$W$!%!%X$)%V$V$Y$Y$O%O%'%'%w$w$w$x$H$E%v$_-,%G$U$U$u$H%Z$Z$c$N*d$>%b$y%l$e$F$F$!$!$~$~$|$|${$k$-$-$*$*$P$J#7#T#6#%#)##@$#I+E+F+d+e+=+;+V.}+Q.H.E.n.v.a.4.5.(.~.{.%.#.|.-.w.R v e.e$b$b$y%y%e$e$a$a$F${%m$m$~$~$|$Nh@_m$N5Oh!f=8=8=8=8=8=8=8=8=8=8=8=8=8=8=8=8=8=8=8=8=8=8=8=8=8=8=8=8=8=8=8=8=8=8=8=8=8=8=8=8=8=8=8=8=8=8=8=8=8=8=8=8=8=8=8=8=8=8=8=8=8Ph(-|$QhRh^%k${$|$|$|$~$~$m$m${%F$a$a$e$F$v.w L R -.Q #.#.{.{.(.(.e.4.v.r.P.E.Q.Q.V.V.=+=+d+d+E+I+$##@#@)#F#6#7#I#J#W#*$7$-$'${$_%|$|$~$1$!${%F$a$l$l$b$b$d$d$c$c$Z$Z$u$u$U$-&,%o%v$v$H$H$w$w$j&'%~%O%,&2&Y$Y$)%)%X$X$l%W$W$W$i&i&i&i&n%n%n%n%4%4%z%4%z%z%z%z%z%|^z%n%4%n%n%n%n%i&i&];];W$W$l%l%X$X$)%S&Y$ShThV=                                                                                                                                                    ",
"                                                                                                                                                  4-ZfS&)%X$X$l%l%W$K-i&i&H&H&4%n%4%4%z%z%z%z%z%z%`;z%1%z%U;z%`;z%z%z%z%4%u&n%4%H&H&i&i&K-K-W$l%X$X$)%)%Y$Y$,&,&'%'%'%G-w$x$H$E%v$E&,%G$U$u$u$j%Z$J$c$d$5%>%y%y%e$e$F$F$!$!$~$~$|$|${$k$-$=$*$W#J#I#T#T#%#%##@#@I+I+F+F+e+>+;+V.Q.Q.H.H.n.n.a.a.5.5.~.6.%.@.Q Q R R v Uha$b$y%y%l$e$a$a$F$F$!$!$~$~$|$|$s~S(~$VhWhTd=8=8=8=8=8=8=8=8=8=8=8=8=8=8=8=8=8=8=8=8=8=8=8=8=8=8=8=8=8=8=8=8=8=8=8=8=8=8=8=8=8=8=8=8=8=8=8=8=8=8=8=8=8=8=8=8=8=8=8XhYh:%/|V5Zh'$k$_%|$:%:%~$~$!$!$F$F$a$a$F$a.v v R w.Q |.@.{.~.(.5.4.a.a.n.P.H.D.Q.V.;+;+e+d+F+F+I+$##@#@%#F#T#7#I#&$*$*$-$-${${$|$|$~$~$!$!$L&L&e$l$y%b$5%d$c$c$Z$Z$u$u$U$-&,%,%v$v$H$H$w$w$'%'%'%O%,&2&Y$S&)%)%^;l%W$W$L-i&i&i&n%n%4%4%z%z%z%z%U;z%1%c>1%1%1%1%1%U;1%z%z%z%z%z%z%4%4%n%n%i&i&K-K-W$W$X$X$)%)%Y$`h$,                                                                                                                                                  ",
"                                                                                                                                               iG3}_Y$S&S&X$X$l%l%W$K-i&i&H&n%n%n%u&z%z%z%z%z%c>z%1%c>1%c>1%z%1%z%z%z%z%z%z%n%4%n%n%i&i&K-K-W$W$X$X$)%)%Y$Y$,&,&'%'%j&w$w$x$H$E%_-o%,%G$U$u$9%Z$Q>J$c$d$>%b$y%y%e$e$F$F$!$m$~$~$|$|$k$k$-$7$*$W#I#I#6#6#%#%##@#@I+I+H+d+e+>+;+V.Q.Q.E.E.n.n.a.a.5.(.i.{.@.#.Q Q R R w w 5.F$l$e$a$a$F$F$!$!$~$~$|$|$|$_%k$2|Y~~$.i+i@i=8=8=8=8=8=8=8=8=8=8=8=8=8=8=8=8=8=8=8=8=8=8=8=8=8=8=8=8=8=8=8=8=8=8=8=8=8=8=8=8=8=8=8=8=8=8=8=8=8=8=8=8=8=8=8=8=8#i$ik$|$%iX5*$-$-$k$k$|$|$|$)$~$~$!$!${%1$5.r w w R R Q Q @.%.{.i.5.5.a.a.n.n.E.E.Q.}+V.;+>+e+H+F+I+I+#@#@%#%#6#T#I#J#W#*$-$-$k$k$|$|$~$~$!$!$F$F$e$l$y%b$>%d$N*c$J$Z$9%u$U$-&,%,%v$v$H$H$w$w$'%'%~%O%2&2&Y$V$)%)%!%l%W$W$];i&H&i&n%n%z%4%z%z%z%z%1%q,1%q,1%1%1%1%1%1%1%c>c>z%z%z%z%4%4%n%n%i&i&K-K-W$W$X$X$)%)%Y$Y$}]&i                                                                                                                                                ",
"                                                                                                                                            B_sfY$S&)%X$X$l%W$K-K-i&i&n%n%4%z%z%z%`;U;1%1%1%1%D%1%t&D%3%D%t&D%t&1%1%1%1%1%1%z%z%z%z%4%4%H&H&i&i&W$W$l%^;)%)%Y$Y$,&,&'%'%k%w$w$x$E%E%v$E&G$G$u$u$Z$Z$J$J$d$d$>%b$y%h*e$a$F${%!$1$~$:%|$_%'$'$=$7$W#W#I#I#6#6#%#)##@$#I+E+d+d+>+=+V.V.Q.Q.E.P.n.v.4.4.(.(.{.{.@.#.Q o.R L x e.!$e$a$a$F$F$!$!$~$~$:%:%|$_%k$*i=ij0|$-i;i>i=8=8=8=8=8=8=8=8=8=8=8=8=8=8=8=8=8=8=8=8=8=8=8=8=8=8=8=8=8=8=8=8=8=8=8=8=8=8=8=8=8=8=8=8=8=8=8=8=8=8=8=8=8=8=8,i>]'i{$)i@~*$7$-$-${${$|$|$:%~$~$~$!$!$m$(.x w R R Q Q #.@.{.{.(.(.4.a.4@n.E.E.Q.Q.V.V.>+>+d+H+E+I+$##@%#%#6#6#I#I#W#W#=$=$'$k$_%|$~$~$!$!$F$F$e$e$h*y%b$5%d$N*J$Z$j%u$u$U$G$,%v$v$E%H$w$w$k%'%O%O%,&Y$&-S&)%X$l%l%W$K-i&i&n%n%4%4%z%z%1%U;1%1%D%1%t&t&3%t&3%3%3%t&3%t&3%D%D%1%1%1%1%z%z%z%z%4%4%H&i&i&i&W$W$l%X$)%)%Y$Y$&4O0                                                                                                                                            ",
"                                                                                                                                        !ia:~i2&2&Y$V$)%X$l%l%W$W$i&i&n%n%4%4%z%z%z%z%1%1%1%1%D%1%D%D%t&D%t&D%D%1%1%1%1%c>q,z%z%z%z%n%n%i&i&];K-W$W$X$X$)%S&Y$Y$O%O%'%'%w$w$x$I$E%v$o%o%G$-&u$u$Z$Z$c$c$d$d$b$b$l$e$a$F${%!$~$~$|$|${${$-$-$*$*$J#I#7#T#F#%#5##@I+I+E+F+e+e+=+;+}+Q.Q.E.n.n.v.a.5.5.~.i.%.@.|.Q R R v w r r i.~${%!$m$m$~$~$|$|$_%{$k$'$-$=${i8(]ik$^i/i(i=8=8=8=8=8=8=8=8=8=8=8=8=8=8=8=8=8=8=8=8=8=8=8=8=8=8=8=8=8=8=8=8=8=8=8=8=8=8=8=8=8=8=8=8=8=8=8=8=8=8=8=8=8dh_i#~-$:i<i[iJ#W#*$*$-$-$k$k${$_%|$|$~$|$~.e r x w L R -.Q #.%.{.~.(.5.e.a.v.n.E.H.Q.Q..+;+=+e+d+F+E+I+$##@)#%#6#7#I#J#W#*$7$-$'${$_%|$~$~$1$!${%a$a$l$l$b$b$d$d$c$J$Z$Z$u$u$G$G$o%o%E%H$x$w$w$j&'%~%,&2&Y$Y$)%)%!%!%W$W$i&i&H&n%4%4%z%z%c>c>1%1%D%1%t&D%t&t&t&t&3%t&t&t&t&D%D%1%1%q,1%z%z%z%z%n%n%i&i&K-K-W$l%X$X$S&V$Y$2&O%V/`<                                                                                                                                          ",
"                                                                                                                                      }i.),&2&&-Y$)%)%l%l%W$K-i&i&n%n%z%z%z%z%1%1%1%1%3%t&3%3%+&3%+&+&m%+&m%+&+&3%+&3%3%D%t&1%1%1%1%z%z%4%4%n%H&i&i&W$W$X$X$)%)%Y$Y$,&,&'%'%w$w$I$I$E%v$o%,%G$-&u$9%Z$Z$c$N*d$5%b$y%e$e$F$F$!$!$~$~$|$|${$'$-$=$*$W#I#I#T#6#%#%##@#@I+I+H+d+e+>+V.V.Q.Q.E.E.n.n.a.4.5.(.{.{.@.@.Q Q R R w x r <3~${%!$!$~$~$:%:%_%_%k$'$-$-$*$K# 6|i'$1i2i=8=8=8=8=8=8=8=8=8=8=8=8=8=8=8=8=8=8=8=8=8=8=8=8=8=8=8=8=8=8=8=8=8=8=8=8=8=8=8=8=8=8=8=8=8=8=8=8=8=8=8=83i4i5i=$5i )6iI#W#W#*$7$-$-$k$k$_%|$:%|$|$i.C r w w R R Q Q @.@.{.~.(.5.a.a.n.n.E.H.Q.Q.V.;+>+e+d+F+I+I+#@#@%#%#6#T#I#J#W#*$-$-$k${$|$|$~$~$!$!$F$a$e$l$y%b$d$d$c$J$Z$Z$u$u$G$G$o%o%E%E%I$x$w$w$'%'%,&,&Y$Y$)%)%l%l%W$K-i&i&n%n%u&z%z%z%1%1%D%D%3%3%+&3%m%+&m%m%7im%m%m%m%m%m%+&+&3%3%D%t&1%1%c>`;z%z%4%4%H&i&K-K-W$l%X$)%S&S&2&,&8ia'6=                                                                                                                                      ",
"                                                                                                                                    9iS)'%,&2&Y$Y$)%)%l%l%W$K-i&i&n%n%z%z%z%z%1%1%D%D%t&t&+&3%+&+&m%+&m%+&0i+&m%+&+&3%3%t&t&1%1%1%1%z%z%4%4%n%n%i&i&W$W$X$X$)%)%Y$Y$,&O%'%'%w$w$H$H$v$v$,%,%-&U$u$9%Z$J$c$d$d$>%y%y%e$e$F$F$!$m$~$~$|$|$k$'$-$7$W#W#I#I#6#6#%#)##@$#I+E+H+d+>+=+V.V.Q.Q.E.E.r.v.a.4.(.(.{.{.#.#.Q -.R L w x j j ai|$~$~$|$|$|$_%k$'$-$-$*$*$W#W#biH9ci=$diXh=8=8=8=8=8=8=8=8=8=8=8=8=8=8=8=8=8=8=8=8=8=8=8=8=8=8=8=8=8=8=8=8=8=8=8=8=8=8=8=8=8=8=8=8=8=8=8=8=8=8KeeifiW#gihiiiT#6#I#I#W#W#*$7$-$-$'$k$_%-$aif j G x w R R Q Q #.#.{.{.(.5.4.a.r.n.E.E.Q.Q.V.V.>+>+d+H+I+I+#@#@%#%#6#6#I#I#W#*$=$-$k$k$|$|$~$~$!$!$F$F$e$l$y%b$5%d$c$c$Z$Z$u$u$-&-&,%o%v$E%I$x$w$w$'%'%,&,&Y$Y$)%)%l%l%W$K-i&i&n%n%z%z%z%z%1%1%t&D%3%3%+&+&m%m%m%>3jikilim%m%m%m%+&+&3%3%t&t&1%1%c>c>z%z%n%n%H&i&K-K-W$l%X$)%V$Y$2&,&O%'%mi)g                                                                                                                                    ",
"                                                                                                                                W(G/8a,&,&Y$Y$)%)%^;l%W$K-i&i&n%n%z%z%`;U;1%1%3%t&+&+&m%m%2%2%2%2%r>F!+cni%'oir>2%2%m%2%m%m%+&3%t&t&1%1%z%z%z%z%n%n%i&i&W$W$l%^;)%S&Y$Y$,&O%'%'%w$w$I$H$v$v$,%G$U$u$9%j%J$J$N*d$>%b$y%h*e$a$F${%m$~$~$:%_%{$'$-$7$*$W#&$I#7#6#%#)##@$# @E+F+d+e+=+;+V.K|Q.H.P.n.v.a.4.5.(.~.{.@.|.Q w.R v v x r e {._%~$:%:%|$_%k$k$-$-$7$*$W#W#I#piqi=$*$risi=8=8=8=8=8=8=8=8=8=8=8=8=8=8=8=8=8=8=8=8=8=8=8=8=8=8=8=8=8=8=8=8=8=8=8=8=8=8=8=8=8=8=8=8=8=8=8=8tiuio#W#*$viwi6#T#7#I#I#W#W#*$7$-$-$k${$-$#.e j r x v L R Q Q #.%.{.~.(.}$4.a.v.P.E.H.Q.V.V.;+>+d+d+F+E+$##@5#%#6#6#I#I#W#W#7$=$'$'$_%|$)$~$m$!$F$F$a$e$y%y%b$5%d$N*J$Z$j%u$U$G$,%,%v$v$I$I$w$w$'%'%,&,&Y$Y$)%)%l%l%W$K-i&i&4%4%z%z%1%1%1%D%3%3%+&+&m%m%2%2%r>r>P%R,xi  3)7}yir>r>2%2%m%C,+&+&3%3%D%1%1%1%z%z%4%4%i&i&K-K-l%l%)%)%Y$Y$,&,&'%|:ziAi                                                                                                                                ",
"                                                                                                                              rh|=)='%~%O%2&Y$S&S&X$X$W$W$];i&H&n%4%z%z%z%1%1%D%D%3%3%m%+&m%m%2%BiCiW>    Di{br>P>P>m%m%+&+&3%3%D%D%1%1%z%z%4%4%n%H&];K-W$l%X$X$V$Y$Y$2&O%'%'%)=w$x$H$E%o%o%G$G$u$u$Z$Z$c$c$d$d$b$y%l$e$O&F$!$!$~$~$|$|$k$k$-$-$*$W#J#I#6#6#%#%##@#@I+I+H+d+e+>+V.V.Q.Q.E.E.n.r.a.4.5.(.{.{.@.#.Q Q R R w x G j f q #.'${${$'$'$-$7$*$*$P$J#I#I#6#6#c9adJ#EiFi[g=8=8=8=8=8=8=8=8=8=8=8=8=8=8=8=8=8=8=8=8=8=8=8=8=8=8=8=8=8=8=8=8=8=8=8=8=8=8=8=8=8=8=8=8=8=8=8GiHi7#I# 0Ii#@)#%#%#6#6#I#I#J#W#*$*$7$W#Q < f e j G w w R R Q Q #.@.{.i.(.5.a.a.n.n.E.E.Q.Q.V.;+>+e+H+H+I+I+#@#@%#%#6#7#I#J#*$*$-$-$k${$|$|$~$~$!${%F$a$l$l$b$b$d$d$c$J$Z$Z$u$U$G$,%o%v$E%H$w$w$'%'%O%O%Y$Y$S&)%X$X$W$W$i&i&n%n%z%z%z%c>1%1%t&t&+&+&m%m%2%P>r>2%r>E>v]      Ji2bKiP>P>m%m%+&+&t&t&1%1%c>z%z%z%n%n%i&];W$W$X$X$)%S&Y$2&O%O%'%j&w$miLi                                                                                                                              ",
"                                                                                                                          4//4Miw$'%'%,&2&Y$S&)%X$l%W$K-i&H&n%4%4%z%z%1%1%t&t&+&+&m%m%2%2%r>r>U2A)        NiP%1&P%P%r>r>2%2%m%m%+&+&t&t&1%1%z%z%u&4%n%H&i&K-W$l%X$)%S&&-2&,&O%'%w$w$x$I$E%v$o%,%G$U$u$u$Z$-,c$N*d$>%y%y%e$e$F$F$!$m$~$~$|$_%k$'$=$7$W#W#I#I#6#6#)#5##@$#E+E+d+d+=+=+V.V.Q.H.E.P.v.a.4.}$(.~.{.%.#.Q Q R L v x r j e q #.-${$'$'$-$=$*$*$W#W#I#I#6#6#Oiv*<(&$PiZ]Qi=8=8=8=8=8=8=8=8=8=8=8=8=8=8=8=8=8=8=8=8=8=8=8=8=8=8=8=8=8=8=8=8=8=8=8=8=8=8=8=8=8=8=8=8=8RiSi6#I#TiUiVi5#)#%#%#T#T#I#I#W#W#*$*$W#Q 0 q e j r x v R w.Q |.#.{.{.(.(.4.4.v.n.P.E.Q.Q.V.V.=+>+d+d+E+I+$##@)#%#6#6#I#I#W#W#=$-$'$k$|$|$~$~$!$!$F$F$e$e$y%b$5%d$c$c$Z$Z$u$u$G$G$o%o%E%E%x$w$w$'%'%O%,&Y$S&S&X$X$W$W$i&i&n%n%z%z%U;1%1%D%3%3%m%m%2%2%r>r>P%P%1&!&A%1&K2          d~*er>r>r>2%2%m%m%3%3%1%1%c>z%z%z%n%H&i&i&W$l%X$X$S&Y$2&,&O%'%'%w$Wia'O]                                                                                                                          ",
"                                                                                                                      Xim/&aI$w$w$'%'%,&,&Y$Y$)%)%l%W$K-K-i&n%4%4%z%z%1%1%t&t&+&+&m%P>r>2%d!h<          E;0'P%1&P%P%P%P%r>r>P>P>+&+&t&t&1%1%c>z%z%4%n%H&];K-W$l%X$)%V$Y$2&,&'%'%w$w$I$H$v$v$o%,%-&U$u$9%Z$J$c$d$>%b$y%h*e$a$F${%m$1$~$:%|${$'$-$7$*$W#J#I#7#6#%#)##@$#I+E+F+d+e+=+;+.+Q.Q.H.P.n.a.a.e.5.~.i.{.@.|.Q R R w w r r e f 0 < -.*$-$-$*$*$W#W#I#I#6#6#%#%#)#YiZi`i6#g* j.j=8=8=8=8=8=8=8=8=8=8=8=8=8=8=8=8=8=8=8=8=8=8=8=8=8=8=8=8=8=8=8=8=8=8=8=8=8=8=8=8=8=8=8Hg+j%#%#@j )B6I+#@#@)#)#%#6#6#6#I#I#W#6#R K < 0 e e r r w L R R Q #.%.{.i.(.5.e.a.v.n.E.H.Q.}+V.;+=+e+d+F+E+$##@#@)#6#6#7#I#W#W#7$7$'$k$_%|$~$~$m$!$F$F$e$e$y%y%>%d$N*c$Z$Z$u$u$U$G$o%o%v$E%I$x$w$j&'%O%,&Y$V$S&X$X$W$W$];i&n%n%z%z%c>q,1%D%3%3%m%m%2%2%r>P%P%P%1&1&A%A%#j$j            %jC/r>P>P>m%m%t&t&1%1%c>z%z%4%n%H&];K-W$l%X$)%V$Y$2&,&'%'%w$w$H$H$7=p*5/                                                                                                                      ",
"                                                                                                                    p_&jH$x$w$'%'%O%,&Y$Y$)%)%l%l%W$K-i&i&4%4%z%z%1%1%3%3%+&m%2%2%r>r>*j')E,            =jh&A%2'A%A%A%A%1&1&P%P%2%2%m%m%3%3%1%1%z%z%z%4%H&i&i&K-l%l%)%)%Y$Y$,&,&'%'%w$w$I$H$v$v$,%G$U$u$j%Z$J$J$d$d$b$b$h*l$a$L&{%!$~$~$|$|${${$-$-$*$W#J#I#T#T#%#%##@#@I+I+F+F,e+>+V.V.Q.Q.H.E.n.n.a.4.5.(.{.{.@.#.Q Q R R w x j j f f < Q W#-$*$*$W#W#I#I#T#T#F#%#%#5#-jo9;jT#>j,j'j=8=8=8=8=8=8=8=8=8=8=8=8=8=8=8=8=8=8=8=8=8=8=8=8=8=8=8=8=8=8=8=8=8=8=8=8=8=8=8=8=8)j!j~j%#{j}!]jI+I+#@#@%#%#%#6#T#T#I#I#T#R < < f f j r w w R R Q Q @.@.{.{.(.5.a.a.n.n.E.H.Q.Q.V.;+>+e+F+F+I+I+#@#@%#%#T#7#I#&$*$*$-$'${${$|$)$~$1$!$F$a$a$l$y%b$b$d$N*J$J$j%u$u$U$,%,%v$v$I$I$w$w$'%'%,&,&Y$S&)%X$l%W$i&i&H&n%z%z%`;1%D%D%3%+&m%m%r>r>!&P%1&A%A%A%h&%,h&h&h&^j                ~>)!P%2%2%m%m%3%3%1%1%z%z%4%4%H&i&K-W$l%l%)%)%Y$Y$,&O%'%'%w$w$H$/j3/S,                                                                                                                    ",
"                                                                                                                y;(j_jv$E%H$x$w$w$'%~%,&2&Y$S&X$X$W$W$i&i&n%n%z%z%c>1%D%D%+&+&m%P>p)['!~              I2:jC%A%%,A%A%A%A%P%P%P%r>P>P>m%+&t&t&1%1%z%z%4%n%i&i&K-W$!%X$)%S&Y$2&O%O%'%j&w$x$H$E%_-o%G$-&u$u$Z$Z$c$c$d$>%b$y%e$e$F$F$!$m$~$~$|$|$k$'$7$7$W#W#I#I#6#6#)#5##@$#E+E+d+d+=+;+V..+Q.H.E.P.v.a.e.5.(.~.{.%.#.Q -.R L w x r e e q 0 K } R I#J#J#I#I#6#6#%#%#5##@#@$#I+_c<j%#)#[j}j|j=8=8=8=8=8=8=8=8=8=8=8=8=8=8=8=8=8=8=8=8=8=8=8=8=8=8=8=8=8=8=8=8=8=8=8=8=8=8=81j2j3j#@#@4j5jd+F+F+I+I+#@#@#@)#%#%#6#)#v ] } < 0 q e j r x w R R -.|.#.{.{.~.(.e.4.v.r.P.E.Q.Q.V.V.=+=+d+d+E+I+#@#@)#%#6#6#I#I#W#W#7$-$k$k$|$|$~$~$!$!$F$F$e$l$y%b$d$d$c$c$Z$Z$u$u$G$,%o%_-E%H$w$w$'%'%O%O%Y$Y$)%)%!%l%K-K-i&n%4%z%z%c>1%1%t&3%m%m%2%r>P%P%1&A%A%A%%,%,h&C%h&6jW^                  L~U/7j+&+&t&t&1%1%z%z%n%n%i&i&W$W$X$X$S&Y$2&,&~%'%j&w$x$H$E%v$o%8j(jH)                                                                                                                ",
"                                                                                                              `&9jE&v$H$H$w$w$'%'%O%,&Y$Y$)%)%l%l%K-i&H&n%4%z%`;1%1%D%3%+&m%2%)!4|!~                0jajh&Q%h&Q%h&h&h&h&A%A%A%1&P%P%2%2%m%+&3%3%1%1%z%z%4%n%i&i&W$W$X$X$S&S&Y$,&O%'%'%w$x$I$E%v$o%,%G$U$u$j%Z$J$N*d$5%b$y%h*e$a$F${%m$~$~$:%_%{$'$-$7$*$W#J#I#T#%#%#5##@I+I+F+F+e+>+;+V.Q.Q.H.H.n.n.a.a.5.(.~.{.@.@.Q Q R R w w r j e f < < } R 7#J#I#I#6#6#%#%#)#5##@#@I+I+69bj)#)#Q:cj=8=8=8=8=8=8=8=8=8=8=8=8=8=8=8=8=8=8=8=8=8=8=8=8=8=8=8=8=8=8=8=8=8=8=8=8=8=8.gdji2#@#@ejA#d+d+F+E+I+I+#@#@5#)#%#%#5#x } } < < f e C r w w R R Q Q @.%.{.~.5.5.a.a.n.n.H.H.Q.}+V.;+e+d+F+E+I+$##@5#%#6#7#I#J#W#*$7$-$'${$_%:%~$1$m${%F$e$e$h*y%>%5%d$c$Z$Z$9%u$G$G$o%o%E%E%I$w$k%'%'%O%2&Y$S&)%X$l%W$K-i&i&4%4%z%z%1%1%3%3%m%m%r>r>P%!&A%A%%,C%h&h&Q%Q%Q%Q%Q%Q%Yce!                    ;>X2^!+&+&t&D%1%1%z%u&n%H&i&K-W$l%)%)%Y$Y$,&,&'%'%w$w$H$H$v$E&,%O=+6                                                                                                              ",
"                                                                                                          4/W4fjG$o%o%E%H$x$w$'%'%O%O%Y$Y$)%)%!%l%W$K-i&H&4%z%z%c>1%D%3%gjhjB,                      ijQ%Q%Q%Q%Q%h&h&h&h&A%A%A%A%P%P%2%2%m%+&t&t&1%1%z%z%n%n%i&i&W$W$X$X$S&Y$2&,&'%'%w$w$I$H$v$v$,%,%U$u$9%Z$Q>J$d$d$b$b$l$l$a$a${%!$1$~$|$|${${$-$-$*$*$J#I#7#6#%#%##@#@I+I+H+d+e+=+V.V.Q.Q.E.E.n.r.a.4.5.(.{.{.#.#.Q Q R L w x j j f q < < } } w 6#6#6#%#%#)#5##@#@I+I+F+F+o,<fjj#@I+kjlj=8=8=8=8=8=8=8=8=8=8=8=8=8=8=8=8=8=8=8=8=8=8=8=8=8=8=8=8=8=8=8=8=8=8=8=8mjnjY]E+I+f,ojBb=+>+d+d+F+E+I+I+#@#@5#I+Da, } } < < f f j G x w R R Q Q #.@.{.{.(.5.a.a.r.n.E.E.Q.Q.V.;+>+e+H+H+I+I+#@#@%#%#T#7#I#J#*$*$-$-${${$|$)$~$1$!$F$a$a$l$y%b$>%d$c$J$Z$Z$u$U$-&,%o%v$E%I$x$w$j&'%O%2&Y$S&)%X$X$W$W$i&i&n%4%z%z%1%1%3%3%m%m%r>r>P%7'A%A%C%C%h&h&Q%Q%t'Q%t'Q%t''c                        !>|fj;D%1%1%z%z%4%n%i&K-W$l%l%)%)%Y$Y$O%O%'%'%w$x$H$E%o%o%G$G$pjqj                                                                                                            ",
"                                                                                                        R$rjU$,%,%v$v$I$I$w$w$'%'%,&2&&-S&X$X$W$W$i&i&4%4%z%z%1%1%3%ZeZ!sj                        tj &B%B%B%B%B%t't'Q%t'h&h&h&h&A%A%P%P%2%2%m%+&t&t&1%1%z%z%n%n%i&L-W$l%)%)%&-Y$,&,&'%'%w$w$H$H$v$E&,%G$u$u$Z$Z$J$c$d$d$b$y%l$e$L&F$!$!$~$~$|$|$k$'$-$=$W#W#I#I#6#6#%#5##@$#E+E+d+d+>+=+V.@@Q.D.P.n.v.a.4.5.(.~.{.@.#.Q w.R L v r r e e 0 < [ } { v %#T#%#%#%#%##@#@I+I+E+F+d+ujt#q^$#09vjwj=8=8=8=8=8=8=8=8=8=8=8=8=8=8=8=8=8=8=8=8=8=8=8=8=8=8=8=8=8=8=8=8=8=8=8xjyjE+E+R-zji$;+>+e+d+d+F+E+I+I+#@#@I+j { { 2 [ < q e j r x v L R Q Q #.%.{.~.(.5.4.v.v.P.E.Q.Q.V.V.=+>+d+d+E+I+$##@%#%#6#6#I#I#W#W#=$-$'${$|$|$~$~$!$!$F$a$e$l$y%b$d$d$J$J$Z$Z$u$U$G$,%E&v$H$I$w$w$'%'%,&,&Y$S&)%X$W$W$i&i&n%n%z%z%1%1%3%3%m%m%r>r>!&1&A%A%h&h&Q%Q%t't'B%B%B%B%B%B%B%AjBj                          Cj >Djx[1%z%z%4%4%i&i&W$W$X$X$S&&-2&,&O%'%w$w$I$I$v$v$o%,%U$u$U0                                                                                                          ",
"                                                                                                        b~u$u$-&G$o%o%E%H$x$w$'%'%O%O%Y$Y$)%)%l%l%K-];H&n%4%z%2fB[v]Ej                          Bju|t'B% &B% &B%Q%t'Q%Q%h&h&C%%,A%1&P%P%P>P>+&+&D%1%c>z%z%4%H&i&K-W$!%X$)%S&Y$2&O%'%j&w$x$I$E%v$o%,%-&U$u$H%Z$J$c$d$>%b$y%l$e$a$F$!$m$~$|$|$_%{$-$-$*$*$J#I#7#6#%#%##@#@I+I+F+H+e+>+;+V.Q.Q.E.E.n.r.a.a.5.(.i.{.#.#.Q Q R R w x G j f q < < } } , s&r #@#@#@#@$#I+I+H+H+e+e+=+=+Fj/@D+F+l2GjHj=8=8=8=8=8=8=8=8=8=8=8=8=8=8=8=8=8=8=8=8=8=8=8=8=8=8=8=8=8=8=8=8=8Ij$(>+d+d+b%_fQ.}+V.V.=+=+e+d+H+H+E+d+e R&, , } } < < f f j G w w R R Q Q #.@.{.i.(.5.a.a.r.n.E.E.Q.}+V.;+>+e+H+F+I+I+#@#@%#6#T#7#J#P$*$7$-$'${$_%|$~$1$m${%F$a$e$l$y%b$>%d$c$Z$Z$9%u$-&-&o%o%E%E%x$w$j&'%O%O%Y$Y$)%)%!%l%W$];H&n%4%z%c>q,D%t&+&+&P>2%P%P%A%A%C%C%h&Q%Q%Q%B%B%B%B%B%B%B%B%;2v]                              !>f]Jj)fn%H&];K-W$l%)%)%Y$Y$O%O%'%'%w$x$H$E%o%o%G$-&u$u$KjD5                                                                                                        ",
"                                                                                                      w!j%u$U$,%,%v$v$I$I$w$w$'%'%,&2&&-S&X$X$W$W$i&i&4%LjMjNj`&                              b)`|B%s)O>=,O>=,O>B%B%B%B%t't'Q%h&C%%,A%1&P%r>2%m%3%3%1%1%z%z%4%4%i&i&W$W$X$)%S&&-,&,&'%'%w$w$I$H$v$v$,%G$U$u$j%Z$J$J$d$d$b$b$l$e$L&F$!$!$~$~$|$|$k$'$-$=$W#W#I#I#6#6#%#%##@$#I+E+d+d+>+=+V.V.Q.Q.E.n.v.a.4.5.(.~.{.%.#.Q -.R L v r r j e 0 < [ } { { R&w $##@#@$#I+I+F+F+d+e+>+>+V.OjPjE+d+QjRj.g=8=8=8=8=8=8=8=8=8=8=8=8=8=8=8=8=8=8=8=8=8=8=8=8=8=8=8=8=8=8=8GcSjR-e+d+J@6{Q.Q.}+V.;+>+>+d+d+F+F+d+e , R&{ } 2 [ 0 q e j r x v L R Q Q #.%.{.(.(.5.4.v.r.P.E.Q.Q.V.V.=+>+d+H+E+I+$##@%#%#6#T#I#I#W#*$=$-$k${$|$|$~$~$!$!$L&a$l$l$b$b$d$d$J$J$Z$j%u$U$,%,%v$v$I$I$w$w$'%'%,&Y$S&S&X$!%W$W$i&H&4%4%z%c>1%D%3%+&2%2%P%P%A%A%h&h&Q%Q%t' &B%B%O>O>O>O>O>O>O>=,O>>'                                    $,E=B[Z<i&W$W$X$X$S&S&2&,&~%'%w$w$I$I$v$v$,%,%U$u$9%'h                                                                                                        ",
"                                                                                                      TjZ$u$u$G$G$o%v$H$H$w$w$'%'%O%,&Y$Y$)%X$W$Ujzab-v]d~                                  M]YcB%s)s)O>O>O>O>O>s)s)B%B%t't'Q%h&C%A%A%1&P%r>P>m%3%t&1%1%z%z%n%n%i&];W$W$X$)%V$Y$,&O%'%'%w$w$H$H$v$o%,%G$u$u$Z$Z$c$c$d$d$b$y%l$e$F$F$!$m$~$~$|$_%k$'$7$7$W#&$I#I#6#%#)##@$#I+E+F+d+e+=+;+.+Q.Q.H.n.n.a.a.5.5.~.i.%.@.Q Q R R w w r G e f 0 < } } , , R&R&r I+I+I+H+H+d+d+=+=+V.V.}+Q.Vj}-e+e+WjXjYj=8=8=8=8=8=8=8=8=8=8=8=8=8=8=8=8=8=8=8=8=8=8=8=8=8=8=8=8=8Zj`j k;+;+*;x@.kE.Q.Q.Q.}+V.V.=+=+d+V.f R&R&R&, { } } < 0 f e r r w w R R Q |.@.%.i.~.5.e.a.v.n.E.H.Q.Q.V.;+=+e+d+E+E+I+#@5#)#6#6#I#I#W#W#7$7$'$k$|$|$~$~$!$!$F$F$e$l$y%b$d$d$c$J$Z$Z$u$u$G$,%o%v$H$H$w$w$'%'%,&2&Y$V$)%X$W$W$i&i&n%n%z%z%1%D%3%+&m%P>P%P%A%A%C%h&Q%Q% &B%B%B%O>O>C)O>C)O>O>O>O>B%+k                                        N]`&rf6'y>)%V$Y$,&O%'%'%w$w$H$H$v$o%,%G$u$u$v;-%                                                                                                        ",
"                                                                                                      -1P4u$G$,%o%v$E%I$x$w$'%'%O%2&Y$S&@k#koa#]!>                                          G'O>O>C)C)(!/!(!/!(!C)C)O>O>B%B% &t'h&h&C%A%1&!&r>r>m%m%3%t&1%1%z%z%n%H&i&K-l%l%)%)%Y$Y$O%O%'%G-w$x$E%v$o%,%G$U$u$9%Z$J$c$d$>%b$y%h*e$a$F$!$1$~$)$|${${$-$-$*$W#&$I#T#T#%#%##@#@I+I+F+d+e+>+V.V.Q.Q.E.E.n.4@a.4.(.(.{.{.@.#.Q Q R L x x j j f 0 < < } { , , s&w E+I+F+F+d+d+>+>+;+V.}+Q.T%$kF@e+=+%k&k=8=8=8=8=8=8=8=8=8=8=8=8=8=8=8=8=8=8=8=8=8=8=8=8=8=8=8=8*k=kocV.;+=+-k;kE.E.Q.Q.@@V.V.;+>+>+V.f , s&, , m;} < < q f j j x w L R Q Q #.@.{.{.(.(.4.a.n.n.E.H.Q.Q.V.V.>+e+d+F+I+I+#@#@%#%#T#7#I#J#*$*$-$-${$_%:%)$~$m${%F$a$e$h*y%b$5%d$c$J$Z$u$u$U$G$o%o%E%H$x$w$k%'%O%,&Y$Y$)%)%l%W$L-i&H&n%z%z%1%1%3%3%m%m%r>r>1&A%2'h&>)Q% &B%B%=,O>O>(!(!)&(!)&(!(!/!C)O>|c0j                                              r*!!R<>kc_y>k:'%'%w$x$I$E%v$o%,%-&X4,k                                                                                                          ",
"                                                                                                        >~Z&JgE4'ko%_-E%E%)k!k~kM:u>{k]k14                                                ^kB%=,s)O>C)/!C)/!/!/!C)C)O>O>B%B%Q%Q%h&h&A%A%P%P%2%2%+&+&D%1%c>z%4%4%i&i&W$W$X$X$S&Y$2&,&'%'%w$w$H$H$v$_-,%G$U$u$Z$Z$J$c$d$d$b$y%l$e$F$F$!$!$~$~$|$|$k$'$-$7$W#W#I#I#6#6#)#5##@I+E+E+d+e+=+;+.+}+Q.H.P.n.v.a.e.5.(.i.%.@.|.Q R R w w r G e e 0 < } } , , R&R&R&R&C d+e+e+=+=+V.V.Q.Q.Q.H.E./kD{(kV.V._k;g=8=8=8=8=8=8=8=8=8=8=8=8=8=8=8=8=8=8=8=8=8=8=8=8=8=8=8:kg{Q.Q..+<k[ka.n.n.E.E.H.Q.Q.Q.V.Q.Q)R&R&R&R&R&, { } K < 0 e e r r w w R -.Q |.@.{.~.(.5.e.a.v.n.E.H.Q.}+V.=+=+d+d+E+E+r##@)#)#6#6#I#I#W#W#7$-$'$k$|$|$~$~$!$!$F$a$e$l$b$b$d$d$c$J$Z$Z$u$U$,%,%v$v$H$H$w$w$'%~%,&Y$S&S&X$!%W$K-i&H&4%z%z%q,D%t&+&m%2%r>P%7'A%A%h&P~t' &B%s)O>O>C)/!)&/!)&/!(!C)C)O>O>}k|k                                                      }'P{1k2kg43kTh4kd4(ju:p_0*                                                                                                            ",
"                                                                                                              $>j*$,v{K'5k)-O{                                                          E}6kO>C)C)(!)&'&)&'&'&'&)&)&/!C)O>O>B%B%Q%Q%h&h&A%A%P%r>P>m%3%3%1%1%z%z%n%n%i&L-W$l%)%)%Y$Y$,&O%'%'%w$x$H$E%o%o%G$G$u$u$Z$J$c$N*5%b$y%h*e$a$F${%m$~$~$:%_%{$'$-$*$*$W#I#7#T#%#%##@#@I+I+F+d+e+>+V.V.Q.Q.E.E.n.n.a.4.5.(.{.{.@.#.Q Q R L w x j j f q < < } { , , R&, s&x >+e+>+=+V.V.}+Q.Q.D.E.E.7k4}V.V.&98k9k=8=8=8=8=8=8=8=8=8=8=8=8=8=8=8=8=8=8=8=8=8=8=8=8=80kakH.Q.Q.bk775$a.n.n.E.E.Q.Q.Q.Q.Q.q , R&, R&, , } } < < f f j j x w R R Q Q @.@.{.{.(.5.4.a.n.n.E.H.Q.Q.V.;+>+e+F+F+I+I+#@#@%#%#T#I#J#&$*$7$-$'${$_%:%~$~$!${%F$a$e$y%y%>%d$N*c$Z$Z$u$u$G$G$o%E&E%H$w$w$'%'%,&,&Y$Y$)%X$l%W$i&i&n%4%z%z%1%1%3%+&m%2%P%P%A%A%h&h&Q%t'B%B%O>O>(!(!)&'&*,'&*,'&'&)&)&/!C)O>ckN|                                                                                                                                                                                          ",
"                                                                                                                                                                                      v|m'B%s)C)C)(!)&'&'&7,'&7,)&)&/!C)O>O>B%B%Q%Q%h&C%A%1&P%r>m%m%3%t&1%1%z%z%n%H&];K-l%!%)%)%Y$2&O%~%j&w$w$I$E%v$o%,%-&U$u$j%Q>J$N*d$b$b$h*l$a$L&{%!$~$~$|$|${$k$-$-$*$W#J#I#6#6#%#%##@#@I+E+H+d+>+=+V.V.Q.Q.E.P.r.v.4.e.(.(.{.%.#.|.-.R R v x r j e q 0 < } ] { R&R&R&R&R&R&e V.V.V.Q.Q.Q.Q.E.E.n.n.a.Vj%@Q._#dkek.j=8=8=8=8=8=8=8=8=8=8=8=8=8=8=8=8=8=8=8=8=8=8=8[gfkP.E.H.gke>hk4.4.a.v.n.n.E.E.Q.n.0 R&R&R&R&R&R&s&{ } [ < 0 q e j r x L R R Q #.#.{.{.(.(.e.a.v.r.E.E.Q.Q.V.V.=+>+d+H+I+I+#@#@%#%#6#T#I#J#W#*$-$-$k${$|$|$~$1$!${%a$e$l$h*b$>%d$N*J$Z$9%u$U$-&,%o%v$E%x$w$w$'%O%O%Y$Y$)%)%l%W$K-];n%n%z%z%1%1%t&3%m%P>r>P%A%A%h&h&Q%Q%B%B%O>O>/!(!)&'&*,7,*,7,'&)&)&C)C)s)B%C|                                                                                                                                                                                          ",
"                                                                                                                                                                                    ikjkB%O>O>(!(!'&'&*,*,/~f~/~*,*,)&)&/!C)O>=,B%t'Q%h&%,A%1&!&r>2%m%+&D%1%1%z%4%4%i&i&W$W$X$X$S&Y$2&,&'%'%w$w$H$H$v$E&,%G$u$u$Z$Z$J$c$d$5%b$y%e$e$L&F$!$!$~$~$|$_%k$'$=$7$W#W#I#7#6#%#)##@$# @E+F+d+e+=+V.V.Q.H.H.n.n.a.a.5.5.~.{.%.@.Q Q R R w w r C e f < < } } { , s&, s&, s&G V.V.}+Q.Q.Q.E.E.n.n.v.V#C6C+Q.D.kklkmk=8=8=8=8=8=8=8=8=8=8=8=8=8=8=8=8=8=8=8=8=8nkokpkE.E.H.qk{{5.4.4.a.v.n.n.E.E.n.rk, s&, s&, s&, { } } < < f e C r w v R R Q Q @.%.{.~.5.5.a.a.n.n.H.Q.Q.V.V.=+e+d+F+E+ @$##@%#n!6#I#I#W#W#7$=$'$k$_%|$~$~$!$!$F$L&e$l$y%b$5%d$J$J$Z$Z$u$u$G$,%E&v$H$I$w$w$'%'%,&2&&-S&X$X$W$K-i&H&4%z%`;1%1%t&+&m%2%r>!&1&A%h&h&Q% &B%O>O>C)(!)&'&*,f~/~/~/~/~f~7,'&)&(!O>O>skmb                                                                                                                                                                                        ",
"                                                                                                                                                                                  obtkt' &B%s)C)C))&)&*,*,/~f~f~7,'&)&(!C)O>s)B%Q%Q%h&h&A%A%P%r>P>m%3%t&1%1%z%z%n%H&];K-l%!%)%)%Y$2&O%O%j&w$w$I$E%v$o%,%-&U$u$Z$Q>J$N*d$b$b$l$l$a$F${%!$~$~$|$|$k$k$-$-$*$W#J#I#6#6#%#)##@#@I+E+H+d+>+=+V.V.Q.Q.E.P.r.v.4.e.(.(.{.%.#.|.-.R R v x r j e q 0 < } ] { R&R&R&R&R&R&R&R&e Q.E.E.E.E.r.r.a.a.5.5.ukvkp+P.r.wkxk=8=8=8=8=8=8=8=8=8=8=8=8=8=8=8=8=8=8=8=8ykzkAka.v.r.BkCk'7i.(.(.5.e.a.a.r.4.< R&R&R&R&R&R&R&R&R&{ } K < 0 q e j r x v R R -.#.#.{.{.(.(.e.a.v.r.E.E.Q.Q.V.V.=+>+d+H+I+I+#@#@%#%#6#6#I#J#W#*$-$-$k${$|$|$~$1$!${%a$e$l$l$b$>%d$N*J$Z$9%u$U$-&,%o%v$E%x$w$w$'%O%O%Y$Y$)%)%l%W$K-];n%n%z%z%1%1%t&3%m%P>P%P%A%A%h&h&Q%t'B%s)O>C))&)&7,*,/~/~/~*,*,)&)&/!C)s)B% &Dk%j                                                                                                                                                                                      ",
"                                                                                                                                                                                J>b2Q%B%B%O>O>(!)&'&*,/~/~R~R~L|/~f~7,'&(!/!O>O>B% &Q%h&C%A%1&!&r>2%m%+&t&1%1%z%4%4%i&i&W$W$X$X$S&Y$2&,&'%'%w$w$H$H$v$E&,%G$u$u$Z$Z$J$c$d$5%b$y%e$e$F$F$!$m$~$~$|$_%k$'$7$*$W#W#I#7#6#%#)##@$#I+E+F+d+e+;+V.V.Q.H.E.n.n.a.a.5.5.~.{.@.@.Q Q R R w w r C e f < < } } { , R&, R&, R&, R&j H.H.E.E.n.n.a.a.4.5.(.Ek*9E.n.n.FkGk=8=8=8=8=8=8=8=8=8=8=8=8=8=8=8=8=8=8=8Hk4~a.a.n.n.J8Ik{.~.(.(.4.4.a.a.4.< , R&, R&, R&, R&, { } } < < f e C r w w R R Q Q @.%.{.~.5.5.a.a.n.n.H.Q.Q.}+V.=+e+d+F+E+ @$##@)#%#6#7#I#W#W#7$=$'$k$_%|$~$~$JkKkt0Lk85l$y%b$5%d$J$J$Z$Z$u$u$G$,%v$v$H$I$w$w$'%'%,&2&&-S&X$X$W$K-i&H&4%z%z%1%D%t&+&m%MkNk1&1&A%h&Q%Q%B%B%O>O>/!(!'&7,f~/~R~R~R~/~/~7,'&)&(!O>O>B%B%5|2]                                                                                                                                                                                    ",
"                                                                                                                                                                              j'<{h&Q%t'B%s)O>C)/!)&'&*,/~.&R~.&f~*,'&)&/!C)O>s) &t'P~h&A%A%P%,{OkPk+&3%D%1%z%z%n%n%i&i&W$l%X$)%Y$Y$,&O%'%'%w$w$H$E%o%o%G$-&u$u$Z$Q>c$N*>%b$y%Qksh6hY~RkSkd(TkA({${$'$-$*$*$J#J#7#6#%#%##@#@I+I+H+d+e+>+V.V.Q.Q.E.E.n.r.a.4.5.(.{.{.#.#.Q -.R L w x j j q q < < } { , R&R&R&R&R&R&R&R&R&f n.n.n.a.a.e.e.(.(.i.{.Uk~9a.a.G8VkWk=8=8=8=8=8=8=8=8=8=8=8=8=8=8=8=8=8HgXk(.e.e.a.7kYk#.%.%.{.i.(.(.e.~.[ R&R&R&R&R&R&R&R&R&s&, ] } < < q f j j x w R R Q Q #.#.{.{.(.5.4.a.r.n.E.E.Q.Q.V.;+>+e+H+F+I+I+#@#@%#%#6#7#J#J#*$7$-$'$M$Zk,_W|J&N=`k+%F~G% l_*.ld$N*c$Z$Z$u$u$-&G$o%o%E%H$w$w$'%'%O%,&Y$Y$)%X$l%W$i&i&n%4%z%z%1%D%3%13I2%'+lE>A%A%h&P~t'B%s)s)C)/!)&'&*,f~/~/~/~f~*,'&)&/!C)s)s)B%t'h&@l#l                                                                                                                                                                                  ",
"                                                                                                                                                                            $l%lh&Q%Q%B%B%O>O>(!(!'&*,/~/~R~R~R~/~f~*,'&)&(!O>O>B%B%Q%Q%h&&l=}9'  ji0/m%3%t&1%1%z%4%n%i&K-W$l%^;)%S&Y$,&O%'%k%w$I$I$v$v$,%G$U$u$j%Z$J$J$*l=l-l0*l[          W|e*;l)i>l'$-$=$W#W#I#I#6#6#%#5##@$#E+E+d+d+=+;+V.@@Q.H.E.n.v.a.4.5.(.~.{.@.|.Q R R v w r r e f 0 < } } { { s&, s&, s&, s&, s&j n.n.a.a.4.4.(.(.~.6.,l&{.{v.4.'l)l!l=8=8=8=8=8=8=8=8=8=8=8=8=8=8=8of~l{l5.4.4.]l^l6)#.%.{.6.~.(.(.(.< , s&, s&, s&, s&, s&{ { } [ < 0 f e r r w L R R Q #.@.{.~.(.5.4.a.v.n.E.H.Q.V.V.;+>+d+d+E+I+$##@5#%#6#6#I#I#W#W#=$-$qd/l8!                      .~m_(lNgZ$9%u$U$G$,%v$v$I$x$w$)='%O%,&Y$S&)%^;l%W$K-H&n%4%z%1%1%t&3%m%S~_l    A)q1:lQ%Q%B%B%O>O>(!)&'&7,f~/~.&/~.&/~f~'&'&(!(!O>O>B%B%Q%Q%<lz!                                                                                                                                                                                ",
"                                                                                                                                                                            &/A%A%h&h&Q%Q%B%s)O>C)(!)&7,7,f~f~/~7,7,)&)&C)C)s)B% &Q%h&o^D^E;      n^+&3%1%1%z%z%n%n%i&i&W$l%X$)%Y$Y$,&O%'%'%w$w$H$E%o%o%G$-&u$u$Z$J$p0[l+%                          &+}l|l*$J#J#7#6#%#%##@#@I+I+H+H+e+>+V.V.Q.Q.E.E.n.r.a.4.5.(.{.{.#.#.Q -.R R w x j j q q < < } { , R&R&R&R&R&R&R&R&R&R&R&Q)a.5.5.(.(.{.{.%.@.#.!#1le.(.(.2l3l=8=8=8=8=8=8=8=8=8=8=8=8=8=8&f4lM+{.i.(.(.5l6lQ Q |.#.@.%.{.#.} R&R&R&R&R&R&R&R&R&R&R&s&, } } < < q f j j x w R R -.Q #.#.{.{.(.5.4.a.r.n.E.E.Q.Q.V.;+>+e+H+F+I+I+#@#@%#%#6#7#J#J#7lE58l                                9[9l0lu$u$-&G$o%o%E%H$w$w$'%'%O%O%Y$Y$)%X$l%W$i&i&n%n%z%z%1%D%3%+&)~        M~;2h&Q% &B%s)O>C))&)&7,7,*,7,*,7,'&)&/!C)O>B%B%Q%Q%h&h&A%9{                                                                                                                                                                                ",
"                                                                                                                                                                          #31&A%%,h&Q%t'B%s)O>C)C))&)&*,*,f~f~f~*,*,'&)&/!C)O>O>B%B%Ec:^          *em%m%t&D%1%U;z%4%H&i&K-W$l%X$)%S&Y$,&~%'%)=w$I$H$v$v$,%G$U$u$alG%                                    S-blclW#I#I#6#6#%#5##@$#E+E+d+d+=+;+V.@@Q.H.E.n.v.a.4.5.(.~.{.@.|.Q R R v w r r e f 0 < } } { { R&, s&, R&, R&, R&, s&e 5.5.(.(.{.{.%.@.#.#.Ukb75.(.~.dlel=8=8=8=8=8=8=8=8=8=8=8=8=8Hkfl{.{.~.(.0+_8R Q Q #.#.@.%.@.w5, R&, R&, R&, s&, R&, R&{ { } [ < 0 f e r r w v R R Q #.@.{.~.(.5.4.a.v.n.E.H.Q.V.V.;+=+d+d+E+I+$##@5#%#6#6#I#I#W#glf&                                        L$::U$G$,%v$v$I$x$w$w$'%O%,&Y$S&)%X$l%W$K-i&H&4%z%U;1%D%t&m%m%c}n)        3)hl &B%O>O>C)/!)&)&*,*,*,*,*,'&'&)&(!C)O>s)B% &t'h&h&A%A%_~                                                                                                                                                                              ",
"                                                                                                                                                                        |3r>P%A%A%C%h&Q%Q%B%B%O>O>C)/!)&)&'&'&7,)&)&(!(!C)O>s)B%iljl9'          klP>+&3%D%1%z%z%n%n%i&i&W$W$X$)%V$Y$,&,&'%'%w$w$H$E%v$o%G$G$;&ll>!                                          mlg*I#T#6#%#5##@r#I+F+H+e+e+;+V.}+Q.E.E.n.n.a.a.5.(.i.{.@.#.Q Q R R w x G j f f < < } } , , R&R&R&R&R&R&R&R&R&R&R&R&0 (.{.{.%.@.#.#.Q Q nlk8oli.{.j8plTd=8=8=8=8=8=8=8=8=8=8=8ql/g#.#.%.{.{.rlJ7L R R Q Q #.-.} R&R&R&R&R&R&R&R&R&R&R&R&R&, , } } < < f e j G w w R R Q Q @.@.{.i.5.5.a.a.n.n.E.H.Q.}+V.;+e+e+F+E+I+r##@)#%#6#7#6ib/                                                slK4,%o%v$E%H$w$w$'%'%,&,&Y$V$)%X$W$W$i&i&n%4%z%z%1%D%3%+&P>tl          ulvlwlB%B%O>O>/!/!)&)&'&)&)&)&)&C)C)O>=,B% &Q%Q%C%%,A%1&xlyl                                                                                                                                                                            ",
"                                                                                                                                                                      zlAlP%P%A%A%h&h&t't'B%B%O>O>/!(!)&)&'&'&'&)&)&)&(!C)C)O>Bl9'            ClDl2%m%m%3%D%1%1%z%4%n%H&K-W$l%^;)%S&Y$2&O%'%'%w$x$I$E%v$ElFlGl                                                l@7!I#T#6#%#%##@#@I+E+d+d+>+=+V.V.Q.Q.E.P.v.v.4.4.(.~.{.%.#.Q Q R L v x r j e q 0 [ } { { s&, s&, s&, s&, s&, s&, s&q {.{.%.@.#.#.Q Q R HlIl~.{.{.Jl4lKl=8=8=8=8=8=8=8=8=8LlMlNl@.@.{.{.Ol3@v L R R Q Q Q } , s&, s&, s&, s&, s&, s&, s&{ { 2 < 0 q e j r x v L R Q Q #.{.{.~.(.4.4.v.n.P.E.Q.Q.V.V.=+>+d+d+E+I+#@#@%#%#6#T#iiS-                                                    r*Z:v$E%I$x$w$k%'%O%2&Y$S&)%^;l%W$K-i&n%4%z%1%1%D%3%m%m%2%Ala!            g^Pls)O>C)(!(!)&)&'&)&)&)&(!C)C)O>O>B%B%t'Q%h&h&A%A%P%F}ki                                                                                                                                                                          ",
"                                                                                                                                                                    Ql}3+&P>2%P%P%A%A%h&h&Q%Q%B%B%O>O>C)C)/!C)/!C)C)O>O>s)s)Rl0j              ObP>m%3%t&1%1%z%z%n%n%i&];W$l%X$)%Y$Y$O%O%'%'%w$w$H$E%o%V0Sl                                                      -d_6F#%##@#@I+I+H+H+e+>+;+V.Q.Q.E.E.n.n.a.a.5.(.{.{.@.#.Q Q R R w x G j f q < < } } , , R&R&R&R&R&R&R&R&R&R&R&R&R&R&< #.|.Q -.-.R R w h#e8Tl#.#.Q Ulxk=8=8=8=8=8=8=8=8=8Ih';R Q Q #.#.g&Vlr x w w R w ] R&R&R&R&R&R&R&R&R&R&R&R&R&R&R&, , } } < < q f j G x w R R Q Q #.#.{.i.(.5.a.a.n.n.E.E.Q.Q.V.;+e+e+H+F+I+I+#@#@%#kf3$                                                        U!9hWlE%H$w$w$'%'%O%O%Y$Y$)%)%l%W$];];n%n%z%z%1%1%t&3%m%P>8'!!            Xl1)B%B%O>O>C)C)C)C)C)O>O>s)s)B%B%Q%Q%h&h&A%A%P%P%P>P>YlV=                                                                                                                                                                        ",
"                                                                                                                                                                  T>Zlm%m%2%r>!&1&A%%,h&h&t't'B%B%O>O>C)C)/!C)(!C)C)O>O>`l m                7;.m2%2%+&+&D%1%1%z%4%4%i&i&W$W$!%X$S&&-2&,&'%'%w$w$I$H$igH)                                                            <6Ei%#)##@$#E+E+d+d+=+=+V.V.Q.H.E.n.v.a.4.5.(.~.{.%.#.Q -.R v w x r e e 0 < K } { { R&, R&, R&, R&, R&, R&, R&, R&0 |.Q Q Q R R v v <8+m@.@.Q Q @m#m=8=8=8=8=8=8=8si$mR R Q Q #.%m3@j x x v v w { , R&, R&, R&, R&, R&, R&, R&, R&{ { } [ < 0 e j r r v L R w.Q #.%.{.~.(.5.4.a.v.P.E.H.Q.V.V.=+>+d+d+E+I+$##@)#%#wiy4                                                              A^&mI$w$w$'%'%,&2&&-S&X$X$W$W$i&i&4%4%z%z%1%D%3%+&2%2%P%*m              klL]s)O>O>C)O>C)O>C)O>O>s)=,B%B%Q%Q%h&h&A%A%!&P%2%2%m%=m!!                                                        9=Z                                                                                                           ",
"                                                                                                  <#}.-mu@;m43                                                  +3T]1%3%3%m%P>r>P%1&A%%,C%h&Q%t't'B%B%s)s)O>O>O>s)O>s)@l%]                  >mr>m%m%3%t&1%1%z%z%n%n%i&];W$l%X$)%Y$Y$,&O%'%'%w$w$H$C4y;                                                                Uiec#@r#I+F+H+d+e+;+V.}+Q.H.E.n.n.a.a.5.5.i.{.%.@.Q Q R R w w r j e f < < } } , , R&R&R&R&R&R&R&R&R&R&R&R&R&R&R&R&[ -.R R w w x x j ,mp!Q -.R 08'm)m=8=8=8=8=8*h!mB$L R R R Q j7O.e j G x j { R&R&R&R&R&R&R&R&R&R&R&R&R&R&R&R&R&, , } } < < f e j r w w R R Q Q @.%.{.i.5.5.a.a.n.n.E.H.Q.}+V.=+e+e+F+E+I+r##@Rb+#                                                                  K'D:w$w$'%'%O%O%Y$Y$)%)%l%W$K-];n%n%z%z%1%1%t&t&m%m%r>~m:^              ylg^{mB%s)s)=,B%s)B%B%B% &Q%Q%h&h&%,A%1&P%r>r>m%m%3%t&t)V=                                                  43s D K)kaq.f.z)                                                                                                  ",
"                                                                                              0&p.w)#.~.(.5.]m^m-                                             /mHe1%D%3%+&C,2%P%P%A%A%h&h&h&Q%t't'B%B%=,s)O>O>O>=,O>zd(m                  _m:mr>2%m%+&3%D%1%z%z%4%4%i&i&W$W$^;X$S&&-2&,&'%'%w$Z{o4                                                                      <m#/#@#@I+E+H+d+>+=+V.V.Q.Q.E.P.r.v.4.4.(.~.{.{.#.Q Q R L v x r j e f 0 < 2 } { s&, s&, s&, s&, s&, s&, s&, s&, s&< R R v v x x C #%V Q Q o.R ]|[m=8=8=8=8=8{gz#w R R R R O.U.e e C r r m;, s&, s&, s&, s&, s&, s&, s&, s&, s&{ } 2 < 0 q e j r x v R o.Q Q #.{.{.(.(.4.4.v.n.P.E.Q.Q.V.V.=+>+d+d+E+I+#@#@}mQ=                                                                      t>;<w$'%'%,&2&&-S&X$X$W$W$i&i&4%4%z%z%1%1%3%3%m%2%r>P%i}                v||m1m=,B%=,B%=,B%B%B%B%t't'h&h&%,A%A%1&P%r>P>m%+&3%1%2m!!                                              3m4mv.n.v.4.{.Q `%*                                                                                                 ",
"                                                                                            s65m#.5.n.Q.V.V..+Q.P83$                                        I36mz%z%q,D%D%+&+&P>P>P%P%A%A%A%C%h&h&Q%Q%t'Q%B% &B%7m^j!]                    8m2%P>+&+&t&D%q,z%z%4%n%i&K-W$l%X$)%)%Y$2&O%O%'%)=m:9m                                                                          IiI+I+F+H+e+e+;+V.}+Q.E.E.n.n.a.a.5.(.i.{.@.#.Q Q R R w w G j f f < < } } , , R&R&R&R&R&R&R&R&R&R&R&R&R&R&R&R&R&R&} w r r j j f f !8';R L w w 0mam=8=8=8bmcmr r w w L f (7dm0 0 f q { R&R&R&R&R&R&R&R&R&R&R&R&R&R&R&R&R&R&R&, , } } < < f e j G w w R R Q Q #.@.{.i.5.5.a.a.n.n.E.H.Q.}+V.;+e+e+H+F+I+emY+                                                                          n-fmw$'%O%O%2&Y$)%)%X$l%W$K-i&n%4%z%z%c>1%D%3%+&P>P>8/`&                  i!8dQ% &Q%t'Q%Q%P~P~h&h&A%A%1&1&P%r>P>m%+&3%D%1%z%z%gm1k                                          Y.Q.>+d+H+e+;+E.a.#.x ia                                                                                              ",
"                                                                                          >.w ~.n.=+E+%#6#T#6#5#F+/23$                                    hmimz%z%1%1%D%t&+&m%2%2%P%P%A%A%%,h&h&h&Q%Q%t't'B% &1mZ!                      z!1/r>2%m%+&3%t&1%1%z%z%n%n%i&i&W$l%X$)%Y$Y$,&,&'%jmkm                                                                            t#G^$#I+E+d+d+=+=+V.V.Q.D.E.P.v.a.4.4.(.~.{.%.#.Q Q R L v x r j e q 0 [ } { { R&, s&, R&, R&, R&, s&, R&, R&, R&, s&05r r j j e f k#|7R R w w g@nhKe=8lmmmnmr r w w e R&_'om0 0 f r6, R&, R&, R&, s&, R&, R&, R&, s&, R&, R&{ { } < 0 0 e j r x v L R -.Q #.%.{.~.(.4.4.a.r.P.E.D.Q.V.V.=+>+d+d+E+I+$#T6                                                                              pm#''%,&,&Y$Y$)%)%l%W$L-i&H&n%z%z%1%1%D%t&+&m%2%2%P%zl                    qm:2t'Q%t'Q%Q%h&h&h&h&A%A%1&1&P%r>2%C,+&3%D%1%1%z%z%Garm                                      H6E+%#I#W#W#I#6#$#>+P.~.w e7                                                                                            ",
"                                                                                        M#r @.P.>+5#J#'$|$|$|$'$J#)#sm3$                                B;&bi&n%n%z%z%1%1%t&3%m%m%2%2%P%P%A%A%A%A%h&h&h&h&Q%c2tm                        um2%m%m%3%3%1%1%z%z%4%4%i&i&K-W$!%X$)%S&Y$2&O%~%0:vm                                                                                |#:6F+F+d+e+;+V.}+Q.H.E.n.n.a.a.5.5.i.{.%.@.Q Q R R w w r G e f 0 < } } , , R&R&R&R&R&R&R&R&R&R&R&R&R&R&R&R&R&R&R&R&] j e f 0 0 < wm4)w x r j xmCf=8xj{)f j j r < R&v-ym} < < , R&R&R&R&R&R&R&R&R&R&R&R&R&R&R&R&R&R&R&R&R&, , } } < < f e G r w w R R Q Q @.%.{.~.5.5.a.a.n.n.E._#Q.}+V.=+e+e+F+E+e@#!                                                                                y;X-'%O%2&Y$S&)%X$!%W$W$i&i&n%n%z%z%1%1%t&3%m%m%2%+)p_                    zm;2h&h&h&h&C%C%A%A%1&!&P%r>P>P>+&+&t&D%1%1%z%z%n%n%Amb)                                  H6#@J#k$~$m$!$~$_%W#%#>+n.#.Bm17                                                                                          ",
"                                                                                      + 6*Q v.e+%#-$~$e$b$d$d$y%!${$T#^$3$                            CmDmi&H&4%4%z%z%1%1%3%3%m%m%2%r>P%P%A%A%%,A%h&h&h&h&8mob                        z!-er>2%C,+&3%D%1%1%`;z%u&n%H&i&K-l%l%)%)%Y$Y$,&EmFm                                                                                    d*I+E+d+d+>+=+V.V.Q.Q.E.P.r.v.4.4.(.(.{.{.#.|.Q o.L v x r j e f 0 < 2 } { s&, s&, s&, s&, s&, s&, s&, s&, s&, s&, s&} e f 0 0 < `7g'w x x j j Gm:eHmf e j j 0 s&, ImWc} < s&, s&, s&, s&, s&, s&, s&, s&, s&, s&, s&, s&{ } 2 < 0 q e j r x v R o.Q |.#.{.{.(.(.4.4.v.n.P.E.Q.Q.V.V.=+>+d+d+E+I+#!                                                                                    y;Jm,&Y$Y$)%)%l%l%K-K-i&n%4%u&z%U;1%1%3%3%m%m%2%r>mb                      Y2^jh&h&h&%,2'A%A%1&1&P%r>2%2%m%+&t&t&1%1%z%z%4%4%i&Km!!                              Lm%#-$!$y%J$Z$Z$c$y%m$-$%#>+4.R B2                                                                                          ",
"                                                                                      N.e {.H.I+W#~$y%Z$G$v$o%U$d$F$k$6#/23$                        MmB<!%W$K-i&i&n%4%z%z%1%1%t&t&+&m%P>P>r>P%P%P%A%A%A%{e9'                          G'm%m%+&3%D%1%q,c>z%u&n%n%];K-W$l%X$)%V$Y$,&,&0--/                                                                                      }@NmH+e+>+;+V.Q.Q.E.E.n.n.a.a.5.(.i.{.@.#.Q Q R R w x G j f q < < } } , , R&R&R&R&R&R&R&R&R&R&R&R&R&R&R&R&R&R&R&R&R&R&{ < K } } > )0f j j f f Y Om32< < q } R&R&R&PmT7, R&R&R&R&R&R&R&R&R&R&R&R&R&R&R&R&R&R&R&R&R&R&R&R&, , } } < < q e j G x w R R Q Q #.@.{.i.(.5.a.a.n.n.E.E.Q.Q.V.;+>+e+H+|} )                                                                                      Qm 4O%,&Y$Y$)%X$l%W$K-];H&n%4%z%z%c>1%D%3%t&m%m%0/>,                      zmRmA%A%P%P%P%P%2%2%m%m%+&+&t&D%1%q,z%z%n%n%i&i&W$W$Sm]k                          H6I+*$m$d$u$H$w$w$_-u$y%~$I#E+n.#.Tm/8                                                                                        ",
"                                                                                      &6w 4.=+T#|$y%u$w$2&X$)%,&E%Z$a$'$#@Um2;                    j>A;l%l%K-K-i&H&4%4%z%z%1%1%3%3%+&m%2%2%r>P%!&P%A%A%Vm%'                          x1]~m%m%+&+&t&D%1%1%z%z%4%n%i&i&W$W$X$X$)%S&Y$WmXm                                                                                        x@C@F+d+d+=+;+V.V.Q.H.E.n.v.a.4.5.(.~.{.%.#.Q -.R v v x r e e q < [ } { { R&, R&, R&, R&, R&, R&, R&, R&, R&, R&, R&, R&} [ 2 } } %2l,0 j f f 0 -+Ym< 0 < R&, R&, Zm`mR&, R&, R&, R&, R&, R&, R&, R&, R&, R&, R&, R&, R&{ { } [ 0 0 e j r x v L R w.Q #.%.{.~.(.5.4.a.v.n.E.H.Q.V.V.;+=+d+d+F+ n                                                                                          $>.nY$S&S&X$X$W$W$i&i&n%n%z%z%U;1%1%D%3%3%m%m%2%+n                        a!@nA%!&1&P%P%r>2%m%m%+&+&t&t&1%1%z%z%4%n%i&i&W$W$l%#n                        Y.H+I#~$d$o%'%l%];K-Y$w$j%e$'$%#}+~.$nB#                                                                                        ",
"                                                                                      42R a.d+I#~$N*v$Y$n%1%1%n%Y$v$d$~$I#e+%n}%                V(&nV$)%X$l%W$K-];H&n%4%z%z%c>1%1%t&t&+&+&m%P>r>2%Q^*nZ)                            .}m%+&+&t&t&1%1%z%z%4%n%H&i&K-W$l%l%)%)%Y$Y$O:24                                                                                            q2H+e+e+;+V.}+Q.E.E.n.n.a.a.5.5.i.{.@.@.Q Q R R w w r j e f < < } } , , R&R&R&R&R&R&R&R&R&R&R&R&R&R&R&R&R&R&R&R&R&R&R&R&, } , , S6=nw9< 0 0 < O.p8K p=`m6 %7C23=ym-nj5D-R&R&R&R&R&R&R&R&R&R&R&R&R&R&R&R&R&R&R&R&R&R&R&, , } } < < f e j G w w R R Q Q @.@.{.i.5.5.a.a.n.n.E.H.Q.Q.V.;+>+e+H+D@                                                                                            ;n5,Y$Y$)%)%X$!%W$K-i&i&n%n%z%z%1%1%D%D%3%3%m%>n                          +n8mr>r>2%2%m%m%+&3%D%D%1%1%z%z%4%4%i&i&K-K-l%l%)%)%,n                    'nE.#@-$e$u$'%W$D%P>+&n%2&,%b$|$6#V.(.P#                                                                                          ",
"                                                                                      # D n.E+*${%j%w$i&m%Q%Q%r>i&'%u$e$=$$#E.)n}%            7hD>&-S&X$X$W$W$i&i&H&n%u&z%z%1%1%1%3%3%+&+&C,2%r>!n~n                              ~]{nm%+&+&3%3%1%1%z%z%u&4%n%H&i&K-W$l%X$)%S&&-]n                                                                                              CdE+d+d+=+=+V.V.Q.H.E.P.v.a.4.}$(.~.{.%.#.Q Q R L v x r j e q 0 [ } } { s&, s&, s&, s&, s&, s&, s&, s&, s&, s&, s&L7n;X7^ns6{ /n<#` $ B7(n0 < < M#v7_n:n              z Q+07<n, s&, s&, s&, s&, s&, s&, s&, s&, s&, s&{ ] 2 < 0 q e j r x v L R Q Q #.%.{.~.(.}$4.a.v.P.E.H.Q.V.V.;+>+d+d+$*L$                                                                                              >,ZfY$)%)%l%l%K-L-i&H&4%4%z%z%1%1%D%D%3%3%m%[n}'                          }/^jr>2%2%m%m%+&3%t&D%1%1%z%z%4%4%H&i&i&L-W$l%X$)%S&}>                & (.V.6#|$d$v$)%1%h&O>Q%t&l%E%N*~$I#=+5.A@                                                                                          ",
"                                                                                        }nV#d+W#m$Z$w$];P>O>7,%,z%2&-&l$-$#@H.@.B #         -<0-O%2&Y$S&S&X$X$W$W$K-];H&n%4%z%z%z%1%1%D%D%3%3%|nV]                                qm3%3%D%D%1%1%z%z%4%4%n%i&];K-W$l%X$X$V$Y$Y$I(                                                                                                <$1ne+>+V.V.Q.Q.E.E.n.r.a.4.5.(.{.{.#.#.Q Q R R w x G j f q < < } } , , R&R&R&R&R&R&R&R&R&R&R&R&R&R&R&R&R&R&R&2nH,<#^.        Z           [ } } m8                          Z S6g,+*R&R&R&R&R&R&R&R&R&R&R&R&R&R&R&R&R&, , } } < < q f j G x w R R Q Q #.#.{.{.(.5.4.a.r.n.E.E.Q.Q.V.V.>+e+wbJ+                                                                                                R$Q*Y$V$)%X$l%W$K-K-i&i&n%n%z%z%1%q,1%1%t&t&d}                            3n4n5n+&t&t&1%1%q,c>z%z%n%n%i&i&K-K-W$l%X$)%V$Y$2&6n7n            *6r 5.;+6#Y:d$E%X$t& &7,Q%1%)%o%>%|$6#.+=!                                                                                            ",
"                                                                                          8nN-I#~$J$I$l%t&h&B%A%z%Y$,%b${$%#Q.{.f V1#     i(9nO%O%Y$Y$S&)%X$X$W$W$i&i&n%n%4%z%z%z%1%1%D%D%3%0nl>                                  .!3%3%D%D%1%1%z%z%z%4%n%H&i&i&W$W$X$X$)%S&an~[                                                                                                }@F@d+e+=+;+V.Q.Q.H.P.n.v.a.4.5.~.~.{.@.|.Q w.R v w r r e e 0 < [ } { { R&, s&, R&, R&, R&, s&, R&, R&, R&Y;3=Q+                            } } bn_                               _  -cnR&, s&, R&, R&, R&, s&, R&, R&{ { } [ < 0 e e r r w L R R Q #.@.%.~.(.5.5.a.v.n.P.H.Q.Q..+V.=+e+d+L@                                                                                                    jidnS&X$X$l%W$L-i&i&n%4%4%z%z%1%1%1%1%3%t&en<^                            fn),[}t&t&1%1%1%1%z%z%4%4%H&i&K-K-W$l%X$)%S&&-2&,&k%gn        *6, w 4.>+I#~$N*E%)%1%A%h&r>n%,&G$y%k$%#hn                                                                                              ",
"                                                                                            D{ink$y%U$O%K-1%3%1%l%'%u$e$-$#@H.@.0 R&g,u#jnMiw$'%'%O%,&Y$Y$)%)%X$X$W$W$i&i&H&n%4%4%z%z%1%1%{!d~                                  N]Bi1%1%1%1%z%z%4%4%n%n%i&i&W$W$!%X$)%)%Y$x(O]                                                                                                    -#e+>+V.V.Q.Q.E.E.n.r.a.4.5.(.{.{.@.#.Q Q R R w x G j f f < < } } , , R&R&R&R&R&R&R&R&R&R&R&R&R&R&R&j542!                               E7  { Q-s>                                  x.9 R&R&R&R&R&R&R&R&R&R&R&R&R&R&, , } } < < f f j G x w R R Q Q #.@.{.i.(.5.4.a.r.n.E.E.Q.Q.V.V.>+e+b&                                                                                                      knY$)%)%X$X$W$W$];i&H&n%4%4%z%z%c>c>1%1%D%ln                                [3mn1%z%z%z%z%n%n%i&i&];K-W$l%X$X$S&S&Y$Y$O%O%'%'%W:    ;6R&R&r (.V.F#{$y%U$'%W$z%z%i&Y$E%c$!$W#d*                                                                                                ",
"                                                                                              nnW#!$N*v$'%X$l%X$O%v$c$!$*$I+E.@.0 , s&B8x$w$k%'%'%,&,&Y$Y$)%)%l%l%W$W$i&i&n%n%4%4%z%z%1%]b;>                                    on3%1%1%1%1%z%z%z%u&n%n%i&i&K-K-l%l%)%)%h]V=                                                                                                      ,#d+e+=+;+V.Q.Q.H.P.n.v.a.4.5.(.~.{.@.#.Q o.R v v x r e e q < [ } { { s&, s&, s&, s&, s&, s&, s&y5U18.                                        ]6                                        ^,t6, s&, s&, s&, s&, s&, s&{ { } [ < 0 e e r r v L R R Q #.@.{.~.(.5.e.a.v.n.P.H.Q.Q.V.V.=+e+d+w@                                                                                                        <[)%)%^;l%W$W$i&i&n%n%4%4%z%z%U;1%1%1%D% }                                  <}}3z%`;z%z%4%4%H&i&i&L-W$W$X$X$)%S&Y$Y$,&,&'%'%w$zipn  s&, j ~.Q.#@-$L&J$v$'%&-Y$O%E%j%e${$qn2;                                                                                                ",
"                                                                                                #$7$m$d$u$v$E%v$U$c$F$k$%#=+e.R { R&rnv$E%H$x$w$w$'%'%O%O%Y$Y$)%)%X$X$W$W$K-];i&i&n%n%sn!!                                    E,![1%z%z%z%z%n%n%H&H&i&i&W$W$!%!%)%)%Y$+hC>                                                                                                         c=+=+V..+Q.Q.E.P.r.v.4.e.(.(.{.{.#.#.Q -.R L w x j j q q < < } ] , s&R&R&R&R&R&R&R&R&R&R&R&tn56+                                                                                         ! unw9R&R&R&R&R&R&R&R&R&R&s&, ] } < < 0 q j j x w L R w.Q #.#.{.{.(.(.e.a.v.r.P.E.Q.Q..+V.=+=+^*                                                                                                        ;*vnY$)%)%X$X$W$W$K-];i&i&n%n%4%4%z%z%z%:>)-                                  'bwn4%n%n%i&i&W$W$l%l%X$)%S&S&Y$2&O%O%'%'%w$w$H$H$/_C&  R&< Q v.d+6#{$F$d$u$G$-&u$d$a$k$:*f$                                                                                                  ",
"                                                                                                  d*=$m$e$d$c$N*b$F$_%J#I+Q.{.r R&hkE&E%E%I$x$w$w$'%'%,&,&Y$Y$)%)%X$X$W$W$K-i&i&i&n%xnp_                                      W^1%1%z%z%z%z%4%4%n%H&i&i&W$W$l%l%)%)%S&yn                                                                                                          zne+>+;+V.Q.Q.H.E.n.n.a.a.5.(.i.{.@.@.Q Q R R w w r r e f 0 < } } { { R&, R&, R&, R&, R&, F6_                                                                                                 y.27R&, R&, R&, R&, R&{ { } } < < f e r r w w R R Q Q @.@.{.~.(.5.a.a.n.n.E.H.Q.Q.V.;+>+e+An                                                                                                          t;k()%)%l%l%W$W$i&i&i&H&n%n%4%u&z%z%z%z%i[                                    .,y]n%H&i&i&K-W$l%l%X$)%)%S&Y$Y$,&O%'%'%w$w$I$I$E%Bny;  ] v (.Q.I+J#{$!$e$b$y%e$1$k$CnX.                                                                                                    ",
"                                                                                                  7+_cI#-$|$~$~${$=$6#I+Q.5.R < DnG$,%o%v$E%H$x$w$w$j&'%'%,&,&Y$Y$)%)%X$X$W$W$K-K-Enj'                                        Fnz%z%4%4%n%n%H&H&];];W$W$l%l%X$)%V$V$*(                                                                                                            re=+=+V..+Q.Q.E.P.r.v.4.e.(.(.{.{.#.#.Q -.R L w x j j q q < < } ] , s&R&R&R&R&R&R&R&R&j6Gn$                                                                                                     ! Hn2*R&R&R&R&R&R&R&s&, ] } < < 0 f j j x w L R w.Q #.#.{.{.(.(.e.4.v.r.P.E.Q.Q..+V.=+=+^#                                                                                                            u-&nV$)%)%X$!%W$W$K-K-i&i&n%n%n%n%u&4%`a                                      m>In];W$W$l%l%X$)%S&S&Y$Y$O%O%'%'%w$w$x$I$E%E%o%o% =1=  0 R e.Q.I+F#W#-${$'$=$I#JnJ.                                                                                                      ",
"                                                                                                    '+Kn#@T#I#I#6##@H+@@4.Q f 1@U$,%,%v$v$H$H$w$w$k%'%'%O%,&2&Y$Y$)%)%X$X$W$W$K-LnE,                                        ji+bz%z%4%u&n%n%H&H&i&i&K-W$l%l%X$X$S&MnNn                                                                                                            :$e+>+V.V.Q.Q.H.E.n.n.a.a.5.(.i.{.@.@.Q Q R R w w r r e f 0 < } } { { s&, s&, s&, s&OnQ+                                                                                                            C2Pn, s&, s&, s&{ { } } < < f e C r w v R R Q Q @.@.{.~.(.5.4.a.n.n.E.H.Q.Q.V.V.>+e+:$                                                                                                              M-S&)%)%l%l%W$W$L-i&i&i&n%n%4%n%u&4%J-2]                                      QnP3W$W$l%l%X$)%S&S&Y$Y$,&,&'%'%w$w$x$x$E%E%v$E&,%Z:Rn  j Q 4.Q.e+ @#@%#)##@$*%*                                                                                                        ",
"                                                                                                      '+SnV.=+=+V.Q.v.~.R f u69%u$U$-&,%,%_-v$H$H$x$w$w$j&'%'%,&O%Y$Y$S&S&)%X$k-W>                                          ;>n%n%n%i&i&];i&K-K-W$W$!%X$)%)%V$V$Tni%                                                                                                              |9=+;+.+Q.Q.H.P.n.v.a.e.5.(.~.{.%.#.Q -.R L v x r j e q 0 < K } { , R&R&R&R&R&R&R&Un<#                                                                                                                s> 7R&R&R&R&R&R&s&{ } K < 0 q e j r x v L R -.Q #.%.{.~.(.5.e.a.v.n.P.H._#Q..+;+;+e|                                                                                                                C_Y$Y$)%)%X$X$l%l%W$W$K-K-i&i&i&i&n%Mh                                        Ca@4X$)%)%V$Y$2&2&O%O%'%'%w$w$x$I$E%E%o%o%,%G$U$u$z;@*  f R {.e.P.H.Q._#p+D{                                                                                                          ",
"                                                                                                        z+Vn5.4.(.{.Q v Wni*Z$u$u$U$G$,%,%v$v$H$H$x$w$k%'%'%'%,&,&Y$Y$S&S&)%XnJ>                                            G>4%H&n%i&i&i&i&K-K-W$W$l%l%)%)%S&Yna-                                                                                                              <*|}>+=+V.V.Q.Q.E.E.n.v.a.4.(.(.{.{.@.#.Q Q R R w x r j f f < < } } { , R&, s&, U9w#9&                                                                                                                    g>]6, R&, R&, , } } < < f f j G x w R R Q Q #.@.{.{.(.(.4.a.v.n.P.E.Q.Q.V.V.=+>+Zn:1                                                                                                              C&c_Y$)%)%X$X$l%l%W$W$L-K-i&i&i&i&n%b[                                          `n o)%)%S&&-Y$2&,&,&'%'%w$w$x$I$H$E%v$E&,%G$U$u$u$Jg.o  < x R #.{.{.%.Z'                                                                                                            ",
"                                                                                                          .$+ow r j < @o#oJ$J$Z$Z$u$u$-&G$,%o%v$v$H$H$w$w$)='%'%'%O%,&Y$Y$ha                                                lfi&];i&K-K-W$W$l%l%X$X$)%)%V$V$Y$$o                                                                                                                Y+)2;+V.}+Q.Q.H.n.n.v.a.e.5.(.~.{.@.#.Q -.R L v x r j e q 0 < K } { , R&R&R&R&' %o                                                                                                                          <#!'R&R&R&R&s&{ } } < 0 q e j r x v v R -.Q |.@.{.~.~.5.e.a.a.n.n.H.H.Q.}+V.;+N-+~                                                                                                                z>&oY$Y$)%)%X$X$l%X$W$W$W$W$K-K-i&*o!,                                          R<@kY$2&2&O%O%'%'%w$w$x$x$H$E%v$v$,%,%-&U$u$u$Z$Z$m0+%  R&} < q e U*                                                                                                              ",
"                                                                                                            k,i,s&, =os/d$J$J$Z$Z$u$u$G$G$o%o%v$v$H$I$w$w$k%'%'%'%,&,&,&]n                                                n)9fi&L-i&K-K-W$W$l%l%X$X$)%)%S&S&[;p_                                                                                                                S*79>+=+V.V.Q.Q.E.P.n.v.4.4.(.(.{.{.@.#.Q Q R R w x r j f f < < } } { , s&, y'$                                                                                                                                 _,U9s&, , } } < < f f j j x w L R Q Q #.@.{.{.(.(.4.4.v.r.P.E.Q.Q.V.V.=+=+e+S-                                                                                                                  i(Y$&-)%)%X$X$l%l%W$W$W$W$K-K-i&K-n^                                            M--o2&2&O%O%'%'%w$w$w$x$H$E%v$v$,%,%G$G$u$u$Z$Z$J$2:G%  R&, s&;o                                                                                                                ",
"                                                                                                              >>2*>o/0b$>%d$d$J$J$Z$Z$u$u$-&-&,%,%v$v$H$H$x$w$w$w$'%'%,o                                                  E=W$W$!%l%X$!%X$X$)%)%V$S&Y$Y$2&p<V=                                                                                                                  b+=+V.V.Q.Q.E.E.n.r.a.a.5.(.i.{.@.#.Q Q R R w w r G e f 0 < K } { , R&R&R&27)                                                                                                                                     58`>R&R&, { } } < 0 f e G r w w R R Q Q #.@.{.i.(.5.a.a.r.n.E.E.Q.Q.V.V.=+N<                                                                                                                  v,9a,&Y$Y$Y$Y$)%S&)%)%X$X$!%X$l%!%!g                                              'o)o'%j&j&w$w$H$H$E%E%_-o%,%,%U$U$u$u$Z$Z$c$c$d$d$!oE-  s&~ob                                                                                                                 ",
"                                                                                                              R=S0N5y%>%5%d$N*J$J$Z$Z$u$u$G$G$,%o%v$v$H$H$x$w$w$w$'%)<                                                    {oW$W$l%l%X$l%X$X$)%)%S&S&Y$Y$2&V:                                                                                                                    s2>+;+V.}+Q.Q.H.n.n.v.a.e.5.(.~.{.@.#.Q -.R L v x r j e q 0 < [ } { , , ]o)                                                                                                                                         S'O-, { } [ < 0 q e j r x v L R -.Q #.@.{.~.~.5.e.a.a.n.n.H.H.Q.}+V.;+>+^*                                                                                                                    7%^4Y$Y$Y$Y$)%S&)%)%X$X$l%X$l%l%^o                                                I/K='%'%w$w$I$I$E%E%v$E&,%,%-&U$u$u$Z$Z$J$J$d$d$>%Qk/oe><#                                                                                                                  ",
"                                                                                                            XiN((oe$l$y%b$>%d$N*c$J$Q>Z$Z$u$u$G$G$,%o%v$v$E%H$x$x$_o                                                      V;X$X$)%)%)%)%V$S&Y$Y$Y$Y$,&,&:o4/                                                                                                                    sm=+V.V.Q.Q.E.E.r.v.a.4.5.(.i.{.@.#.Q Q R R w w r j e f 0 < } } { , R&V1x5                                                                                                                                            f-I,, { } } < 0 f e j r w w R R Q Q #.@.{.{.(.5.4.a.v.r.E.E.Q.Q.V.V.=+i$P1                                                                                                                    2-k:O%2&2&Y$Y$Y$Y$S&V$)%)%)%)%Pa$>                                                S^Z{w$I$I$E%E%_-o%,%,%-&U$u$u$Z$Z$J$J$d$d$>%b$y%y%<o+f[o                                                                                                                  ",
"                                                                                                          r~(-a$a$l$h*b$b$5%d$N*c$J$Z$j%j%u$u$G$G$,%o%v$v$H$H$x$_<                                                      n)}o)%X$)%)%)%)%S&S&Y$&-Y$Y$,&^4V=                                                                                                                    |o1o>+;+V.Q.Q.H.H.n.n.a.a.5.5.(.~.%.@.#.Q w.R L v x r j e q 0 < [ } { i5Z                                                                                                                                                 o=2o} 2 < 0 q e j r x v v R w.Q |.@.%.~.~.5.5.a.a.n.n.H.H.Q.Q.V.V.>+d^}@                                                                                                                    i:3o,&,&2&Y$Y$&-Y$S&S&)%)%)%)%)%;*                                                  o4w$I$I$E%E%v$E&,%,%G$G$u$u$Z$Z$J$J$N*d$5%>%b$y%l$e$(-4o                                                                                                                ",
"                                                                                                        _&Z9m${%{%a$a$l$l$y%b$5%g=d$c$J$J$Z$Z$u$u$U$-&,%,%o%_-e<                                                        6=V$Y$Y$Y$Y$Y$Y$,&2&O%,&O%O%'%a-                                                                                                                      =#;+;+.+Q.Q.H.E.n.v.a.4.5.(.~.{.{.#.#.Q -.R L w x j j f q < < } } , 9 $                                                                                                                                                     B7.'} } < < q f j j x w L R -.-.|.#.{.{.~.(.5.e.a.v.n.P.E.Q.Q.}+V.;+%%                                                                                                                      O]W='%'%O%O%,&O%2&,&Y$Y$Y$Y$Y$l:                                                  5oH6v$v$o%o%,%G$U$U$u$u$Z$Z$J$J$d$d$>%b$y%y%l$e$O&F${%@-i%                                                                                                              ",
"                                                                                                      J&`~!$!$F$F$a$e$l$l$b$b$d$d$N*c$J$J$Z$j%u$u$G$G$,%,%E&y:    V1-                                                   S^&-Y$&-Y$Y$Y$Y$,&2&,&,&O%O%X-                                                                                                                        Z;=+=+V.V.Q.Q.E.E.n.v.a.4.5.(.{.{.@.@.Q Q R R v w r r e f 0 < [ } 25+                                                                                                                                                         %2^ } < 0 f e C r w w R R Q Q #.@.{.{.(.5.4.a.v.n.E.E.Q.Q.V.V.=+=+:$                                                                                                                        6oD='%,&O%,&,&2&,&Y$Y$Y$Y$Y$7o                                                  _,, 8ov$o%o%,%G$U$U$u$u$Z$Z$J$J$d$d$5%5%y%y%l$e$a$L&{%!$$0l.                                                                                                            ",
"                                                                                                     69o|$~$~$!$!$F$F$a$e$l$h*b$b$d$d$c$c$J$Z$Z$Z$u$u$-&-&0o    R&R&V1-                                                 D,2&,&,&O%,&O%O%~%O%'%'%'%aoS,                                                                                                                      bog$;+V.}+Q.H.E.P.n.a.a.e.5.(.~.{.%.#.Q Q R R v w x j j f q < < } ^c8.                                                                                                                                                            S'd8< < q q e j x x v R R -.Q #.%.{.i.(.5.5.a.a.n.n.E.H.Q.Q.V.;+A$(@                                                                                                                      h;coj&'%'%'%'%O%'%O%O%,&O%,&p,                                                _,R&R&R&zbG$G$U$U$u$u$Z$Z$J$J$N*d$>%>%b$y%l$e$a$a$F${%m$m$~$doeo                                                                                                          ",
"                                                                                                fo@0go:%:%~$~$!$!$F$F$e$e$h*y%b$b$d$d$c$c$J$Z$j%j%u$u$G$ho6$  , s&{ { io-                                               c_,&,&,&,&,&O%,&'%O%'%'%O:p*                                                                                                                        }@$&=+;+V.@@Q.D.E.P.r.v.a.4.(.(.{.{.@.#.Q Q R R w w r C e f < < n8+                                                                                                                                                                 p jo< f e j r w w R R Q Q #.@.{.{.(.(.4.4.v.r.P.E.H.Q.K|V.;+=+e+E1                                                                                                                        z-,4'%'%'%'%O%'%O%O%,&O%,&ko                                              y00 < < { 22-jG$U$U$u$u$Z$Z$J$J$N*d$d$5%b$b$l$l$e$a$F$F$!$!$~$~$loI5L$                                                                                                      ",
"                                                                                              M}X5-$'${${$|$|$~$~$m$!$F$F$a$e$l$l$b$b$>%g=d$N*J$J$Z$Z$mo8!  , 0 j w w w nox.                                          <~oo'%'%'%j&'%j&'%w$w$w$w$/4                                                                                                                          po=+V..+Q.Q.E.E.r.r.a.4.5.(.i.{.%.@.Q Q R R w w r r e e 0 0 K qo!                                                                                                                                                                     f>K < 0 e e r r w w R R Q Q #.#.{.{.(.5.4.a.v.r.P.E.Q.Q.}+V.;+Wjx@                                                                                                                        a=)aw$w$w$w$w$j&w$'%j&'%ro'*                                          so-.Q Q R w e { toZ$Z$Z$Z$c$c$d$d$>%b$y%y%l$e$a$F$F${%m$m$~$~$|$|${$k$[6[%                                                                                                    ",
"                                                                                            l=^i=$'$'${$_%|$:%~$~$!$!$F$F$a$e$h*h*b$b$d$d$d$c$J$J$Z$uoy*  Q)w #.i.4.a.a.5.-93#                                        !>>h'%'%'%'%'%'%'%w$w$w$vot>                                                                                                                        x=+|>+V.V.Q.Q.H.E.n.n.a.a.5.5.~.~.{.%.#.Q Q R L v x x j e f f woI                                                                                                                                                                         q'q f e j r x v L R w.Q #.@.%.{.~.5.5.a.a.n.n.E.H.Q.Q.V.V.>+Q#}@                                                                                                                        W&P'w$w$w$w$w$k%w$'%)='%O:'*                                        xov.P.H.E.n.5.{.R yozoj%Z$Z$J$J$d$d$>%>%y%y%l$e$a$a$F${%!$!$~$~$|$|${${$-$AoM}                                                                                                  ",
"                                                                                          _=%6W#*$=$-$'$k$_%|$|$|$~$~$!$!$F$F$e$e$l$l$b$b$>%d$d$d$Bo.~  e -.~.n.Q.=+e+d+=+V.Co3#                                      r*w$w$w$w$w$w$w$w$I$x$H$p*                                                                                                                          Do=+;+.+Q.Q.H.E.n.r.v.4.e.(.(.{.{.@.#.Q Q R R w w r r e f 0 k79.                                                                                                                                                                          35Eo0 f e G G w w R R Q Q #.#.{.{.(.(.e.4.v.v.n.E.H.Q.Q..+V.;+i>                                                                                                                           i aH$H$x$I$w$x$w$x$w$w$B*                                      FoV.d+I+I+I+H+V.E.(.Q h.0(c$c$d$d$>%b$b$y%l$e$a$a$F${%!$!$~$~$|$|${${$'$-$7$7$GoHoY+                                                                                              ",
"                                                                                      .#IoJoW#*$*$=$-$k$k$_%|$)$~$~$1$!$!$F$L&e$e$h*y%b$b$5%d$N*Ko4;  e Q a.Q.F+#@7#J#W#I#6#I+Lo3#                                    O0w$w$w$w$w$w$w$w$I$x$X:                                                                                                                          l=e|>+=+V.V.Q.Q.E.E.n.n.a.4.5.(.~.{.%.@.Q Q w.R L v x r j e D8Mo                                                                                                                                                                              z Noe j r r w v R R Q Q @.@.{.~.(.5.4.a.n.n.E.E.Q.Q.V.V.=+=+l6P1                                                                                                                          T0OoI$x$I$x$x$w$x$w$w$`=                                    n[ @6#W#=$'$7$W#%#I+}+a.Q Po]ic$d$d$>%b$b$y%l$l$e$a$F$F$!$!$~$~$:%:%_%{$'$'$=$=$*$W#Qo}@                                                                                            ",
"                                                                                    |#wi6#7#I#J#J#W#*$-$-$'$k$_%|$|$Y:~$~$!$!$F$F$a$e$l$l$y%b$Rou=  } R (.Q.E+T#7$|$~$m$~${$W#%#^$3#                                  SoH$H$H$H$E%H$E%E%v$z4p_                                                                                                                          To=+V.V.Q.Q.E.E.n.n.a.a.5.5.(.i.{.%.#.|.-.R R L w x j j f q ia                                                                                                                                                                                  Z O.f j j r x v R R -.Q #.@.%.i.i.5.5.a.a.r.n.E.E.Q.Q.V.V.=+Uo                                                                                                                          SoX:v$E%v$E%E%H$E%H$E%i:                                  n[#@W#{$m$F$a${%~$-$I#E+Q.i.w Vop5b$b$y%h*e$e$a$F$F${%m$m$~$~$|$|${${$'$-$7$7$W#W#J#I#7#P9$/.#                                                                                        ",
"                                                                                  Wojf6#6#I#I#&$W#*$*$-$-$'${$_%|$:%~$~$~$!$!$F$F$a$e$l$l$y%XoW/  E6j {.E.E+I#|$F$>%c$Z$c$b${%{$T#]93#                                rhH$H$H$H$E%H$E%E%v$Yo                                                                                                                            /2>+;+V.Q.Q.Q.H.P.n.v.a.4.}$(.(.{.{.@.#.Q Q R R w w r r e Zoy.                                                                                                                                                                                    ~452C r x w R R Q Q #.#.{.{.(.(.5.4.a.v.n.P.H.H.Q.Q.V.V.>+Nd|#                                                                                                                          i-z4E%v$E%E%E%E%E%E%`o                                n[%#-$!$b$Z$u$U$Z$d$a$|$7#F+n.@.q VoVhb$y%y%e$e$a$L&F$F$!$!$~$~$|$|$_%{$'$'$-$=$*$W#J#I#7#T#6# pJ+                                                                                      ",
"                                                                              Y+#$.p#@%#%#6#6#I#I#J#W#*$*$-$-$k$k$_%|$:%~$~$1$!$!$F$F$a$a$l$Q_  R&{ w 5.V.%#'$L&N*G$E%w$H$,%c$a$k$6#Lo'+                              {]_-v$v$v$o%v$o%o% <                                                                                                                            Hf,d;+V.V.Q.Q.E.E.r.r.a.a.5.(.i.{.%.@.|.Q R R L v x r j e +p9=                                                                                                                                                                                        .@e j r x w v R R Q Q @.%.{.i.(.5.4.a.v.r.E.E._#Q.}+.+;+=+X6                                                                                                                            }:o%,%o%o%o%o%o%o%-%                              FoI+*$m$d$-&x$'%O%w$,%c$F$7$#@Q.~.j R&@p#pe$e$a$L&{%{%!$!$~$~$|$|$_%{$k$'$-$=$*$*$J#J#I#7#6#6#%#)#$p%p(@                                                                                  ",
"                                                                            q@M&$##@#@%#%#6#T#I#I#W#W#*$7$-$-${${$|$|$)$~$~$1$!$!$F$F$a$e$&p*p, s&< Q n.F+W#m$N*o%O%X$L-l%Y$H$Z$F$-$#@=pW                             qjv$v$v$v$o%v$o%[ay4                                                                                                                          (@Y]>+=+V.V.Q.Q.H.E.n.n.a.a.5.5.(.~.{.%.#.#.Q o.R L w x r L.Z                                                                                                                                                                                             q.j x w L R R Q Q #.@.{.~.~.5.5.a.a.n.n.E.E.Q.Q.V.V.=+>+2+O+                                                                                                                          j,xg,%o%o%E&o%E&o%p_                            Ped+I#~$5%o%O%W$4%4%W$O%,%5%:%I#>+a.v { s&(1>_e$a$L&F${%!$!$~$~$:%:%_%_%k$'$-$=$*$*$W#&$I#I#6#6#%#%##@#@-pFbc@                                                                              ",
"                                                                        Cdb@p@F+E+I+I+#@#@%#%#6#6#I#I#J#P$*$*$-$-$'$k$_%|$|$|$~$~$m$m${%;pq%  h9+*< Q E.I+*$F$Z$w$l%z%m%t&n%2&o%b$|$6#=+-9}%                          n)G$,%G$,%-&G$-&Cg                                                                                                                            Do=+V.V.Q.Q.E.E.n.n.a.a.e.5.(.~.{.{.#.#.Q Q R R w w G j Bm>p                                                                                                                                                                                              0&,pj G x w L R -.-.|.#.%.{.i.(.5.5.a.a.n.n.E.E.Q.Q.V.V.=+z6                                                                                                                            9['p-&U$G$U$G$-&14                          )pn.I+*$F$Z$w$W$t&P%r>z%)%E%c$~$I#e+a.w , Z>x.!pF$!$!$1$1$~$~$|$|${${$'$-$-$7$*$W#J#J#I#7#6#6#)#)##@#@I+I+F+F+wbdc#[                                                                          ",
"                                                                    .#~p<@d+d+E+E+ @$##@#@%#%#6#6#I#I#W#W#*$7$-$-$'$k$_%|$:%)$~$~$!$!${pJ&      pc7 #.H.$#-$e$G$O%4%P%=,t'2%K-'%Z$F$W#E+v.Z'                          ~]]pG$G$G$G$G$^py4                                                                                                                          <$K%>+;+V.}+Q.H.H.E.n.v.v.4.4.(.(.{.{.@.@.Q Q R R v w r r /p                                                                                                                                                                                                  ;#]ar w w R R Q Q #.@.{.{.(.(.4.4.a.v.n.P.H.H.Q.Q.V.V.>+>+D@                                                                                                                            6/G$U$G$U$G$(p_p                        . :pQ.%#k$y%,%Y$z%h&)&=,m%K-w$Z$!$W#d+v.R q'b   R=D_!$!$m$1$~$~$|$|$_%{$'$'$-$=$*$W#&$J#I#7#6#6#%#%##@#@I+I+E+F+d+e+*;H15=t.                                                                    ",
"                                                                z+d-<pV.;+>+e+d+H+E+I+$##@#@)#%#%#6#6#I#I#W#W#*$*$-$-$k$k$_%|$|$|$~$[pc&          o=}pE.I+7$a$u$'%n%P%)&/!P%n%'%9%a$*$I+n.98S$                        i%4^u$u$u$u$Kj|p                                                                                                                            j9=+;+V.}+Q.Q.E.E.n.r.a.a.5.5.i.i.{.%.#.Q -.R R L w x j 0.+                                                                                                                                                                                                     G+j x x v R R -.Q |.@.%.{.i.(.5.4.a.r.r.P.E.Q.Q.Q..+;+;+b1i+                                                                                                                            1pu$u$u$u$y:                          ^.{.Q.%#{$b$,%V$z%h&/! &3%l%H$c$~$I#=+R!3@        R$2p~$~$~$|$|${${$'$'$-$=$*$*$J#J#I#I#6#6#%#%##@#@r#I+E+F+d+d+=+=+V.V.Q.T%3pS*                                                                ",
"                                                              4#C+@@V.;+=+e+e+F+F+E+I+$##@5#)#%#%#T#T#I#I#W#W#7$7$-$-${$k$_%|$:%:%4pr~              3#s%F+W#{%Z$w$K-+&h&h&2%i&'%u$e$=$$#E.5p(                           xfu$u$u$u$g0                                                                                                                            .#m[>+=+V.V.Q.Q.E.E.n.n.a.a.4.5.(.~.{.{.#.#.Q Q R R w w >ba,                                                                                                                                                                                                        c%x w L R Q Q #.#.%.{.~.(.5.5.a.a.n.n.E.E.Q.Q.V.V.=+=+e+d#                                                                                                                            6p7pu$u$Yfi-                          Mo~.V.%#_%b$,%Y$n%2%A%r>4%Y$o%5%|$6#@7S!            +6Tk~$~$|$|${${$'$'$-$=$*$*$W#&$I#I#6#6#%#%##@#@$#$#E+E+H+d+>+>+;+V.}+Q.Q.8pN$                                                              ",
"                                                            Do*]E.Q.Q.}+.+;+;+e+e+d+H+E+I+r##@#@#@%#%#6#6#I#I#W#P$*$*$-$-$'$k${${$9p                  X.S.6#|$b$-&~%W$z%c>n%Y$H$c$!$P$F+r.0p.                           j*D0Z$A]b*                                                                                                                            +~ap=+V.V.Q.Q.E.E.n.n.v.a.e.5.(.(.{.{.#.#.Q Q R R w w r r m#                                                                                                                                                                                                          . bpr w w R R Q Q #.#.{.{.~.(.5.e.a.a.n.n.E.E.Q.Q.V.V.;+=+&*                                                                                                                            !,p~alg0                            g)@.E.#@7$F$Z$I$Y$i&n%K-Y$E%c${%W#cpdp                R$a5|${$k$-$-$7$7$*$W#J#J#I#7#6#6#%#%##@#@I+I+E+E+d+d+e+>+V.V.}+Q._#H.E.P.r.5=                                                            ",
"                                                          c.epE.E.Q.Q.V.V.;+=+e+e+H+F+I+I+$##@5#)#%#%#T#T#I#I#W#W#*$*$-$-$'$k${$s~                      V%N&*$!$d$o%'%&-S&Y$w$U$y%:%7#d+a.fp}%                            j*;/D5                                                                                                                              gp>+>+V.V.Q.Q.Q.H.P.n.r.v.4.4.5.(.{.{.@.@.Q Q w.R L v x hp                                                                                                                                                                                                              g.B$v L R R Q Q @.@.{.{.(.(.4.4.v.v.n.P.H.H.Q.Q.V.V.=+>+qcz$                                                                                                                                                              Q+|.n.E+J#~$b$U$H$'%O%'%v$Z$e$_%ipd;                    jpkp{${$'$-$=$=$*$W#&$&$I#I#6#6#%#%##@#@$# @E+E+d+d+e+>+;+V.V.Q.Q.H.E.E.n.lp67                                                          ",
"                                                          mpv.n.n.E.E.Q.Q.V.V.=+=+e+d+F+F+I+I+#@#@5#)#%#%#6#T#I#I#&$W#*$*$-$-$np.~                        X.J6-$!$>%Z$,%o%G$Z$b$~$*$#@Q.{.:8                                                                                                                                                                op>+;+V..+}+Q.Q.E.E.r.r.a.a.5.5.~.~.{.%.#.#.Q -.R R w x {@x.                                                                                                                                                                                                                ppx w L R R -.Q #.@.%.i.i.(.5.a.a.v.r.P.E.H.Q.Q.}+V.;+>+H|7+                                                                                                                                                            b M35.V.#@7$~$y%c$u$u$Z$>%F${$qpS-                        H9-$-$7$7$*$W#J#J#I#I#6#6#%#%##@#@$#$#I+E+H+d+e+>+;+;+.+}+Q.Q.E.E.n.n.a.a.'+                                                          ",
"                                                        D7V#v.n.n.H.H.Q.Q.V.V.>+=+e+d+F+F+I+I+#@#@5#%#%#6#T#T#I#I#W#W#*$*$-$rpo&                              sp=$~$a$b$>%b$e$~$-$6#e+n.Q }.                                                                                                                                                              8@O1e+=+;+V.V.Q.Q.H.E.n.n.a.a.4.5.(.(.{.{.@.@.Q Q R R w h#R+                                                                                                                                                                                                                  Z `%w R R Q Q #.#.{.{.~.(.5.5.a.a.n.n.E.E.Q.Q.V.V.;+=+e+e+r+J.                                                                                                                                                            /#@.E.d+6#=$~${%e$e$L&~$'$tpup                            vp-$=$=$*$W#&$&$I#I#6#6#%#%#5##@#@$#I+E+F+F+e+e+=+;+V.V.Q.Q.E.E.n.n.a.a.wp                                                          ",
"                                                        6$5.e.a.a.n.n.E.E.Q.Q.V.V.;+=+e+e+H+H+I+I+$##@#@#@%#%#6#6#I#I#J#J#cl:/                                  P;xp*$k${${$7$I##@e+n.{.5b,;                                                                                                                                                            '+{*=+;+.+.+Q.Q.E.E.n.n.a.a.e.5.(.~.{.{.#.#.Q Q R R w w r yp                                                                                                                                                                                                                      43zpw w R R Q Q #.#.{.{.~.(.5.5.a.a.n.r.E.E.Q.Q.}+.+;+;+>+i>                                                                                                                                                            x.Ap{.n.>+#@T#P$7$*$W#6#^@2}                              Bpo#W#W#I#I#7#T#6#6#)#)##@#@I+I+E+E+d+d+e+>+;+V..+}+Q.Q.E.E.n.r.a.a.5.5.^l                                                          ",
"                                                        #+4.4.v.v.n.P.H.H.Q.Q.V.V.=+=+e+d+F+F+I+I+$##@#@5#%#%#6#6#I#I#&$J#N9                                      %%s9%#%#%##@E+V.P.{.L %c                                                                                                                                                            '.|}e+=+=+V.V.Q.Q.H.E.P.n.v.a.4.4.(.(.{.{.@.@.Q Q R R L v P+43                                                                                                                                                                                                                        Cpv v R R Q Q @.@.{.{.(.(.4.4.a.v.n.n.E.E.Q.Q.V.V.;+=+e+e+I6                                                                                                                                                            / L {.n.}+d+E+$#I+E+:#7+                                  <$DpW#I#I#7#T#6#6#%#%##@#@$# @I+E+H+d+e+e+;+;+V.V.Q.Q.E.E.n.n.a.a.e.5.i+                                                          ",
"                                                        X.Ep5.4.a.v.r.n.P.E.H.Q.Q.V.V.=+=+e+d+F+H+I+I+#@#@#@)#%#%#6#6#I#to#=                                        p#1{}+.+Q.n.5.#.x V7                                                                                                                                                            f$ ,=+=+V.V.Q.Q.Q.H.E.n.r.v.a.4.5.5.i.{.{.%.#.Q Q -.R R w Iar7                                                                                                                                                                                                                          9&z#w L R R -.Q #.@.%.{.i.(.5.4.a.v.v.n.P.E.E.Q.Q.V.V.=+=+e+i#                                                                                                                                                            Fpr Q i.a.n.E.n.;f                                        Zi(>7#T#6#6#%#%##@#@r#I+E+E+H+H+e+e+=+;+V.V.Q.Q.E.E.n.n.v.a.4.e.(.}{<+                                                          ",
"                                                          Gp5.a.a.v.n.P.E.H.Q.Q.Q.V.V.>+>+d+d+F+F+I+I+#@#@5#)#%#%#6#6#HpY@                                            V+Ip(.{.#.L h.Jp                                                                                                                                                            c r|d+>+>+;+V.}+Q.Q.Q.E.E.n.n.a.a.5.5.(.~.{.{.#.#.Q Q R R v q.                                                                                                                                                                                                                              KpIaR R Q Q #.#.%.{.~.~.5.5.4.a.4@n.P.E.H.D.Q.Q.V.V.=+>+d+d+4cl&                                                                                                                                                          *6Lpx MpQ Np}7                                            Cc7#T#6#6#%#%##@#@$#$#I+E+F+F+e+e+=+=+V.V.Q.Q.H.H.P.n.v.a.4.4.(.Op                                                            ",
"                                                          B~i.5.5.4.a.v.r.n.E.H.E.Q.Q.V.V.=+=+e+e+H+H+E+I+r#$##@#@%#%#Q'                                                B#PpZ.n2 -5                                                                                                                                                             N@J]=+=+V.V.}+Q.Q.H.E.E.r.r.a.a.5.5.(.~.{.{.#.#.Q Q R R w w QpE                                                                                                                                                                                                                                 0=w w R R Q Q #.#.%.{.i.i.5.5.a.a.v.r.P.E.H._#Q.Q.V.V.=+=+e+69X1                                                                                                                                                          _ )0q'!8s>                                              _&Rp%#)#)##@#@I+I+E+E+d+d+e+e+;+;+V..+Q.Q.E.E.n.n.v.a.e.e.(.(.{.Sp                                                            ",
"                                                          3#Tp5.5.4.a.v.r.P.E.H.H.Q.Q.V.V.=+>+e+d+F+F+I+I+$##@#@#@%#Upx=                                                                                                                                                                                                                      o&X[d+e+>+;+V.V.V.Q.Q.E.E.n.n.a.a.4.5.(.(.{.{.@.@.Q Q R R L v g)                                                                                                                                                                                                                                  W >#v R R Q Q @.@.{.{.(.(.5.e.a.a.n.n.E.E.H.Q.Q.}+V.V.>+>+d+d+ cVp                                                                                                                                                                                                                  [*jf)#)##@#@I+I+E+E+H+d+e+e+=+;+V.V.Q.Q.H.H.n.n.v.v.4.4.5.(.Wpc.                                                            ",
"                                                            Hl~.(.5.5.a.a.r.n.E.E.H.Q.Q.Q.V.V.=+=+e+d+H+H+E+I+$#r#7^Xp                                                                                                                                                                                                                      Yp{*e+>+;+;+V..+Q.Q.E.E.n.n.v.a.4.4.(.(.i.{.%.@.#.Q -.R R R w Zp`                                                                                                                                                                                                                                     `pw L R R -.Q Q @.@.{.{.(.(.e.e.a.a.n.n.E.E.Q.Q.Q..+V.;+=+>+d+J]*#                                                                                                                                                                                                                  .# q#@I+I+E+E+H+d+e+>+=+;+V.V.Q.Q.E.E.P.n.v.v.a.4.5.(.i.i..q                                                              ",
"                                                            <++q(.5.4.a.a.n.n.E.E.H.Q.Q.Q.V.V.>+>+e+d+F+F+E+I+$#$#+2                                                                                                                                                                                                                    @q4}Q#d+e+e+=+=+V.V.Q.Q.H.H.P.n.v.v.a.4.5.(.~.~.{.%.#.#.Q Q R R M 3#                                                                                                                                                                                                                                      Q+F R R o.Q Q #.@.%.{.~.(.5.4.4.a.v.n.n.E.H.Q.Q.V.V.;+;+>+e+d+d+B6#q%*                                                                                                                                                                                                                Io#@ @ @E+E+H+d+e+e+=+=+V.V.Q.Q.H.H.P.P.v.v.a.4.5.(.~.$q~@                                                              ",
"                                                              %q{.i.~.5.5.a.a.v.r.n.E.E.E.Q.Q.V.V.;+=+e+e+d+H+E+19#[                                                                                                                                                                                                                  |#-#d+e+>+;+V..+.+Q.Q.E.E.n.n.v.v.4.4.5.(.i.{.%.%.#.|.Q Q R R w w ab                                                                                                                                                                                                                                          43I@w R R -.-.Q #.@.%.{.i.(.(.e.e.a.a.n.n.E.E.Q.Q.Q.}+V.;+=+=+e+d+u2O+                                                                                                                                                                                                              _&&qF+F+d+d+=+=+;+V..+}+Q.Q.E.E.n.n.v.a.4.e.5.(.i.{.*q2}                                                                ",
"                                                              z+Wp~.(.5.5.a.a.n.r.P.E.H.H.Q.Q.V.V.;+=+e+e+d+H+E+Ii                                                                                                                                                                                                                BpP@$*d+d+e+e+;+;+V.V.Q.Q.H.H.P.n.r.v.a.4.5.5.~.~.{.{.#.#.Q Q R R v =qH@                                                                                                                                                                                                                                            -qw R R Q Q #.#.%.{.{.~.(.5.4.4.v.v.n.n.E.E.Q.Q.V.V.V.;+>+>+d+d+F+p@;qP1                                                                                                                                                                                                            }@>qF+d+d+>+>+;+V.V.V.Q.Q.E.E.n.n.v.v.4.4.5.(.~.{.rl                                                                  ",
"                                                                t ,q{.(.(.5.5.a.a.r.r.P.E.H.H.Q.Q.V.V.;+;+>+e+'q*#                                                                                                                                                                                                            l.L[x*d+d+e+>+=+;+V.V.Q.Q.H.E.E.P.r.v.a.a.5.5.(.(.{.{.@.#.Q Q R R L v w f+                                                                                                                                                                                                                                              )qi@w L R R Q Q #.#.%.{.~.~.5.5.4.a.v.r.n.n.E.E.Q.Q.}+V.;+;+=+>+d+d+H+!qt2J+                                                                                                                                                                                                          N}d+=+=+;+V..+}+Q.Q.E.E.n.n.v.v.a.4.5.(.~.i.{.g8                                                                    ",
"                                                                  -~{.(.(.5.4.a.a.n.n.P.E.H.D.Q.Q.V.V.=+=+>+e+i>                                                                                                                                                                                                          S-]1x*E+E+H+d+e+e+=+=+V.V.Q.Q.Q.H.E.E.n.n.a.a.4.5.(.(.{.{.@.@.Q Q Q o.R L :8Z0                                                                                                                                                                                                                                                L4L R R R Q Q @.@.{.{.(.(.5.5.a.a.v.n.P.P.H.H.Q.Q.V.V.;+;+>+e+d+d+F+F+I+~q{q%*l=                                                                                                                                                                                                    k2:;>+>+;+V.V.V.Q.Q.H.E.P.n.v.v.a.4.5.5.(.~.GpX.                                                                    ",
"                                                                    ]q{.{.~.(.5.5.4.a.v.r.n.P.E.E.Q.Q..+.+V.&9$@                                                                                                                                                                                                    l.YprecpF+F+d+d+>+>+;+;+V.V.Q.Q.H.E.E.n.r.r.a.a.5.5.(.(.{.{.@.#.|.Q -.R R L w ^qC$                                                                                                                                                                                                                                                  9&waw L L R R Q Q #.#.{.{.~.(.5.5.4.a.v.v.n.n.E.E.Q.Q.}+}+V.;+=+=+e+e+H+H+E+E+q>/qSb                                                                                                                                                                                                  82V.V.}+Q.Q.Q.E.E.n.n.v.a.4.e.5.(.i.{.{.(qB.                                                                      ",
"                                                                      _q{.~.(.5.5.a.a.v.r.n.P.H.H.Q.Q.V.V.V.:qYp                                                                                                                                                                                                3$Rb<q$#I+I+F+F+d+d+e+>+=+;+V.V.Q.Q.Q.H.E.P.n.n.a.a.4.4.(.(.{.{.%.@.#.Q Q Q R R w `2                                                                                                                                                                                                                                                      g+w L R R Q Q Q @.@.{.{.(.(.5.5.a.a.n.r.n.P.H.H.Q.Q.V.V.V.;+>+>+e+d+F+H+E+E+I+I+$#P1                                                                                                                                                                                                q@-7V.}+Q.Q.Q.E.E.n.n.v.v.4.4.5.(.~.~.c7$+                                                                        ",
"                                                                        Pe:4{.(.(.5.5.a.a.v.r.n.n.E.E.Q.Q.}+!9                                                                                                                                                                                                  [qI+I+E+H+H+d+d+>+>+;+;+V.V.Q.Q.H.H.E.E.n.n.a.a.e.e.(.(.i.{.%.%.#.#.Q Q R R w w ]89=                                                                                                                                                                                                                                                      y#}qw w R R -.-.Q #.@.@.{.{.(.(.5.e.a.a.v.r.P.P.E.E.Q.Q.}+.+V.V.=+=+e+e+d+H+E+E+I+6^                                                                                                                                                                                                  Z6Q.Q.Q.E.E.n.n.a.a.4.4.5.(.~.~.{.|qt.                                                                          ",
"                                                                          1q2q(.(.5.5.a.a.v.n.P.P.H.H.Q.Q.@@m+                                                                                                                                                                                                  A# @I+I+F+F+d+d+>+>+=+=+V.V.Q.Q.Q.H.E.E.n.n.v.a.4.4.5.(.~.~.{.{.#.#.Q Q R R L v u@                                                                                                                                                                                                                                                          3qv v R R Q Q #.#.%.%.{.~.(.(.4.4.a.a.n.n.P.E.H.H.Q.Q.V.V.V.;+>+>+d+d+F+F+E+E+I+#7                                                                                                                                                                                                  X.%{Q.Q.E.E.n.n.v.a.4.4.5.(.~.4q5qbo                                                                            ",
"                                                                            W Ik{.i.~.5.5.4.4.a.a.n.n.E.E.7[2}                                                                                                                                                                                                  6qF+d+d+e+e+=+=+V.V..+}+Q.Q.E.E.P.n.r.r.a.a.e.5.(.(.i.{.%.@.#.#.Q Q R R w w x 7qt                                                                                                                                                                                                                                                           Q+u+r w w R R -.Q Q |.@.@.{.{.(.(.5.5.a.a.v.v.n.n.E.E.Q.Q.Q.Q.V.V.=+;+>+e+d+d+79u#                                                                                                                                                                                                    To*]P.r.r.a.a.5.5.(.(.{.{.8qh@                                                                                ",
"                                                                              X.K79q~.5.5.4.a.v.v.n.n.E.E.77                                                                                                                                                                                                    w+0qH+d+e+e+>+>+V.V.V.V.Q.Q.H.H.E.P.n.n.a.a.4.4.(.(.~.~.{.%.#.#.Q Q R R L v w g'                                                                                                                                                                                                                                                              w7x w v R R Q Q #.#.@.%.{.{.(.(.5.5.a.a.4@r.n.P.H.E.Q.Q.Q.}+V.V.=+=+>+e+d+d+aq                                                                                                                                                                                                        R.P.n.n.a.a.e.5.(.(.o@n+c.                                                                                  ",
"                                                                                  X.0@bqi.(.5.4.4.a.a.n.cq                                                                                                                                                                                                        dqe+e+=+=+V.V.}+}+Q.Q.E.E.E.P.r.r.a.a.e.e.5.(.i.i.{.{.#.#.Q Q R R R L w x *)t                                                                                                                                                                                                                                                               Q+y,x x v v R R Q Q #.#.%.%.{.i.(.(.5.5.a.a.v.r.n.n.E.E.Q.Q.Q.Q.V.V.;+;+>+o2O+                                                                                                                                                                                                          ]+d.a.e.5.(.eqOp*.{|                                                                                      ",
"                                                                                      2;k8%nfq4.4.a.M[gq                                                                                                                                                                                                          ^-*;e+=+=+V.V.V.V.Q.Q.H.H.E.E.n.n.v.a.4.4.5.5.~.~.{.{.@.@.Q Q w.R R R w w g'                                                                                                                                                                                                                                                                  3qx w L L R R Q Q #.#.%.{.{.~.(.(.}$4.a.a.n.n.P.P.E.H.Q.Q.Q.}+V.V.;+=+>+:#                                                                                                                                                                                                                o6hqiqB.jq                                                                                            ",
"                                                                                            = $+2}X.k1                                                                                                                                                                                                              %%;+V.V.Q.Q.Q.Q.E.E.n.n.r.r.a.a.e.5.(.(.i.i.%.%.#.#.Q Q R R R L w w r $nt.                                                                                                                                                                                                                                                                  8.54G x x w L R R Q Q #.#.@.%.{.{.(.(.5.5.4.a.v.v.n.n.E.E.H.H.Q.Q.}+.+bk$@                                                                                                                                                                                                                                                                                                                      ",
"                                                                                                                                                                                                                                                                                                                    './2V.V.Q.Q.Q.Q.E.H.P.n.n.n.a.a.4.4.(.(.~.~.{.{.@.@.Q Q Q w.R L w w r u@                                                                                                                                                                                                                                                                      g+r x w L L R R Q Q #.#.%.{.{.{.(.(.5.5.a.a.v.v.n.n.E.E.H.Q.Q.Q.V.V.|{                                                                                                                                                                                                                                                                                                                        ",
"                                                                                                                                                                                                                                                                                                                      w+ kQ.Q.Q.E.E.n.n.r.v.a.a.e.5.(.(.i.i.{.{.#.#.Q Q -.R R R w w r r kqt.                                                                                                                                                                                                                                                                      z Z.r r w w L L R R Q Q #.#.%.%.{.{.(.(.5.5.a.a.a.v.n.n.E.E.H.E.Q.&)                                                                                                                                                                                                                                                                                                                          ",
"                                                                                                                                                                                                                                                                                                                        $kQ.Q.Q.E.E.P.n.n.n.a.a.4.4.5.(.~.~.{.{.@.@.Q Q Q Q R R v w x x {)                                                                                                                                                                                                                                                                          L4r r w w R R R w.Q Q #.@.{.{.{.~.(.(.5.e.a.a.v.v.n.n.E.E.H.H.7[c.                                                                                                                                                                                                                                                                                                                          ",
"                                                                                                                                                                                                                                                                                                                          *9P.P.r.r.a.a.4.4.5.5.(.(.{.{.%.%.#.#.Q Q R R R L w w r r j j ~4                                                                                                                                                                                                                                                                          - Lpe G r x w v L R R Q Q #.|.@.@.{.{.~.~.5.5.e.e.a.a.v.r.n.lqS*                                                                                                                                                                                                                                                                                                                            ",
"                                                                                                                                                                                                                                                                                                                          3#kkP.n.n.v.v.a.4.5.5.(.(.i.{.{.%.#.@.Q Q -.w.R R w w r r j /'y#                                                                                                                                                                                                                                                                            (#j r r w w L R R R Q Q #.#.@.%.{.{.~.(.5.5.4.4.a.a.v.n.mqnq                                                                                                                                                                                                                                                                                                                              ",
"                                                                                                                                                                                                                                                                                                                            2;oqa.a.4.4.5.5.(.(.{.{.%.%.#.#.Q Q R R R R w w x r j j e Mo                                                                                                                                                                                                                                                                              t pqe j r r w w L L R R Q Q |.#.@.@.{.{.~.i.(.(.e.e.a.a.qq                                                                                                                                                                                                                                                                                                                                ",
"                                                                                                                                                                                                                                                                                                                              {|rqa.4.4.5.5.(.(.{.{.{.%.#.#.Q Q Q o.R R v v x x j j 2dy#                                                                                                                                                                                                                                                                                n*j j r r w w L R R R Q Q #.#.@.@.{.{.~.~.(.5.4.4.a._.                                                                                                                                                                                                                                                                                                                                  ",
"                                                                                                                                                                                                                                                                                                                                k.O8(.(.i.i.{.{.@.@.#.#.Q Q R R R L w w r r j j f f N2                                                                                                                                                                                                                                                                                  +'q f e e G r x w w L R R -.-.Q Q #.#.{.%.{.{.(.(.a7(                                                                                                                                                                                                                                                                                                                                   ",
"                                                                                                                                                                                                                                                                                                                                  O$ce(.~.~.{.{.@.@.#.#.Q Q R R R L w w r r j j e a#x.                                                                                                                                                                                                                                                                                  0&wof j j r r w w v L R R Q Q Q Q @.@.{.{.{.i.(.sq2;                                                                                                                                                                                                                                                                                                                                    ",
"                                                                                                                                                                                                                                                                                                                                    tqi.{.{.@.@.|.|.Q Q R R R L w w r r j j e f 0 ~2                                                                                                                                                                                                                                                                                      U*0 f f e j r r x w v v R R Q -.Q Q #.#.%.%.1ec                                                                                                                                                                                                                                                                                                                                       ",
"                                                                                                                                                                                                                                                                                                                                      uq{.{.@.@.#.#.Q Q R R R R w w x x j j e e q t3                                                                                                                                                                                                                                                                                      a,vqf f j j r r w w L L R R Q Q Q Q @.#.%.)n=                                                                                                                                                                                                                                                                                                                                         ",
"                                                                                                                                                                                                                                                                                                                                        +9wqQ Q -.R R R w w w x G G j e f f 0 0 31b                                                                                                                                                                                                                                                                                         n8< < q q e e j G x x w w R R R R Q Q ~{#                                                                                                                                                                                                                                                                                                                                           ",
"                                                                                                                                                                                                                                                                                                                                          xq,7Q -.o.R R v v w w r r j j f f 0 0 Fp                                                                                                                                                                                                                                                                                          ^n< < f f e e C r x x w w R R R R Q w,*@                                                                                                                                                                                                                                                                                                                                            ",
"                                                                                                                                                                                                                                                                                                                                            yq08R R w w x x r r e e f f 0 < < < N.                                                                                                                                                                                                                                                                                          x.zqK < < q q e e j j r x w w L e#Aq                                                                                                                                                                                                                                                                                                                                                ",
"                                                                                                                                                                                                                                                                                                                                              c.;,R v v x x r r j j f f 0 0 < P#+                                                                                                                                                                                                                                                                                             Bq< < < f f e e r r x x w w ||Cq                                                                                                                                                                                                                                                                                                                                                  ",
"                                                                                                                                                                                                                                                                                                                                                W ]|r r j j e e q q < < K K } Dq                                                                                                                                                                                                                                                                                              A } } } < < 0 0 f f j j r s+E                                                                                                                                                                                                                                                                                                                                                     ",
"                                                                                                                                                                                                                                                                                                                                                  Z 2@h#j j e e f f < < < [ Eq-                                                                                                                                                                                                                                                                                               9=Fq} [ < < 0 q e e j j A& *                                                                                                                                                                                                                                                                                                                                                      ",
"                                                                                                                                                                                                                                                                                                                                                      GqO.e q q < < [ [ } } )'N.                                                                                                                                                                                                                                                                                                W9} } } } < < 0 0 wof#                                                                                                                                                                                                                                                                                                                                                          ",
"                                                                                                                                                                                                                                                                                                                                                        5 c%f f < < < < } } 56                                                                                                                                                                                                                                                                                                  f-} } 2 } < < 0 >.5                                                                                                                                                                                                                                                                                                                                                             ",
"                                                                                                                                                                                                                                                                                                                                                            ` C#} } } ] , L75                                                                                                                                                                                                                                                                                                   ,;.', { { 22Bqx.                                                                                                                                                                                                                                                                                                                                                                ",
"                                                                                                                                                                                                                                                                                                                                                              [#B7HqIq} , Jq0&                                                                                                                                                                                                                                                                                                    b#>6&2| *@                                                                                                                                                                                                                                                                                                                                                                    ",
"                                                                                                                                                                                                                                                                                                                                                                    E7_ $ U=                                                                                                                                                                                                                                                                                                                                                                                                                                                                                                                                                                                                                                                                                    ",
"                                                                                                                                                                                                                                                                                                                                                                                                                                                                                                                                                                                                                                                                                                                                                                                                                                                                                                                                                                                                                                                                ",
"                                                                                                                                                                                                                                                                                                                                                                                                                                                                                                                                                                                                                                                                                                                                                                                                                                                                                                                                                                                                                                                                ",
"                                                                                                                                                                                                                                                                                                                                                                                                                                                                                                                                                                                                                                                                                                                                                                                                                                                                                                                                                                                                                                                                ",
"                                                                                                                                                                                                                                                                                                                                                                                                                                                                                                                                                                                                                                                                                                                                                                                                                                                                                                                                                                                                                                                                ",
"                                                                                                                                                                                                                                                                                                                                                                                                                                                                                                                                                                                                                                                                                                                                                                                                                                                                                                                                                                                                                                                                "};
